; generated by Slic3r 1.3.0 on 2023-06-08 at 19:59:05

; external perimeters extrusion width = 0.55mm (6.64mm^3/s)
; perimeters extrusion width = 0.52mm (12.53mm^3/s)
; infill extrusion width = 0.52mm (16.71mm^3/s)
; solid infill extrusion width = 0.52mm (4.18mm^3/s)
; top infill extrusion width = 0.52mm (3.13mm^3/s)

M107
M104 S200 ; set temperature
G28 ; home all axes
G1 Z5 F5000 ; lift nozzle

; Filament gcode

M109 S200 ; set temperature and wait for it to be reached
G21 ; set units to millimeters
G90 ; use absolute coordinates
M82 ; use absolute distances for extrusion
G92 E0
G1 Z22.225 F7800.000
G1 E-2.00000 F2400.00000
G92 E0
G1 X8.725 Y36.343 F7800.000
G1 E2.00000 F2400.00000
G1 F1800
G1 X11.478 Y35.700 E4.82156
G1 X12.345 Y35.614 E5.69055
G1 X20.391 Y34.981 E13.74577
G1 X21.697 Y34.912 E15.05080
G1 X178.303 Y34.912 E171.34981
G1 X179.609 Y34.981 E172.65484
G1 X187.655 Y35.614 E180.71007
G1 X188.522 Y35.700 E181.57904
G1 X189.372 Y35.886 E182.44803
G1 X197.220 Y37.770 E190.50325
G1 X198.063 Y37.990 E191.37224
G1 X198.874 Y38.307 E192.24124
G1 X206.330 Y41.396 E200.29646
G1 X207.128 Y41.745 E201.16545
G1 X207.879 Y42.185 E202.03442
G1 X214.761 Y46.402 E210.08965
G1 X215.494 Y46.872 E210.95868
G1 X216.167 Y47.424 E211.82763
G1 X222.156 Y52.539 E219.68720
G1 X222.956 Y53.244 E220.75183
G1 X223.534 Y53.895 E221.62081
G1 X228.776 Y60.033 E229.67603
G1 X229.328 Y60.706 E230.54502
G1 X229.798 Y61.439 E231.41404
G1 X234.015 Y68.321 E239.46926
G1 X234.455 Y69.072 E240.33823
G1 X234.804 Y69.870 E241.20722
G1 X237.893 Y77.326 E249.26244
G1 X238.210 Y78.137 E250.13142
G1 X238.430 Y78.980 E251.00046
G1 X240.314 Y86.828 E259.05567
G1 X240.500 Y87.678 E259.92465
G1 X240.586 Y88.545 E260.79361
G1 X241.219 Y96.591 E268.84884
G1 X241.287 Y97.897 E270.15388
G1 X241.287 Y102.103 E274.35235
G1 X241.270 Y102.540 E274.78846
G1 X241.219 Y103.409 E275.65745
G1 X240.586 Y111.455 E283.71267
G1 X240.500 Y112.322 E284.58164
G1 X240.314 Y113.172 E285.45061
G1 X238.430 Y121.020 E293.50584
G1 X238.210 Y121.863 E294.37487
G1 X237.893 Y122.674 E295.24386
G1 X234.804 Y130.130 E303.29908
G1 X234.455 Y130.928 E304.16806
G1 X234.015 Y131.679 E305.03703
G1 X229.798 Y138.561 E313.09226
G1 X229.328 Y139.294 E313.96127
G1 X228.776 Y139.967 E314.83025
G1 X223.534 Y146.105 E322.88548
G1 X222.956 Y146.756 E323.75447
G1 X222.305 Y147.334 E324.62346
G1 X216.167 Y152.576 E332.67869
G1 X215.494 Y153.128 E333.54764
G1 X214.761 Y153.598 E334.41667
G1 X207.879 Y157.815 E342.47191
G1 X207.128 Y158.255 E343.34087
G1 X206.330 Y158.604 E344.20987
G1 X198.874 Y161.693 E352.26508
G1 X198.063 Y162.010 E353.13407
G1 X197.220 Y162.230 E354.00306
G1 X189.372 Y164.114 E362.05828
G1 X188.522 Y164.300 E362.92729
G1 X187.655 Y164.386 E363.79626
G1 X179.609 Y165.019 E371.85149
G1 X178.303 Y165.088 E373.15652
G1 X21.697 Y165.088 E529.45551
G1 X20.391 Y165.019 E530.76054
G1 X12.345 Y164.386 E538.81576
G1 X11.478 Y164.300 E539.68474
G1 X10.628 Y164.114 E540.55374
G1 X2.780 Y162.230 E548.60897
G1 X1.937 Y162.010 E549.47796
G1 X1.126 Y161.693 E550.34694
G1 X-6.330 Y158.604 E558.40217
G1 X-7.128 Y158.255 E559.27116
G1 X-7.879 Y157.815 E560.14013
G1 X-14.761 Y153.598 E568.19536
G1 X-15.494 Y153.128 E569.06436
G1 X-16.167 Y152.576 E569.93336
G1 X-22.305 Y147.334 E577.98858
G1 X-22.956 Y146.756 E578.85756
G1 X-23.534 Y146.105 E579.72655
G1 X-28.776 Y139.967 E587.78177
G1 X-29.328 Y139.294 E588.65076
G1 X-29.798 Y138.561 E589.51976
G1 X-34.015 Y131.679 E597.57498
G1 X-34.455 Y130.928 E598.44397
G1 X-34.804 Y130.130 E599.31294
G1 X-37.893 Y122.674 E607.36816
G1 X-38.210 Y121.863 E608.23716
G1 X-38.430 Y121.020 E609.10614
G1 X-40.314 Y113.172 E617.16138
G1 X-40.500 Y112.322 E618.03037
G1 X-40.586 Y111.455 E618.89937
G1 X-41.219 Y103.409 E626.95459
G1 X-41.270 Y102.540 E627.82357
G1 X-41.288 Y102.103 E628.25966
G1 X-41.288 Y97.897 E632.45816
G1 X-41.270 Y97.460 E632.89425
G1 X-41.219 Y96.591 E633.76323
G1 X-40.586 Y88.545 E641.81846
G1 X-40.500 Y87.678 E642.68745
G1 X-40.314 Y86.828 E643.55645
G1 X-38.430 Y78.980 E651.61167
G1 X-38.210 Y78.137 E652.48066
G1 X-37.893 Y77.326 E653.34965
G1 X-34.804 Y69.870 E661.40488
G1 X-34.455 Y69.072 E662.27385
G1 X-34.015 Y68.321 E663.14283
G1 X-29.900 Y61.606 E671.00227
G1 X-29.328 Y60.706 E672.06703
G1 X-28.776 Y60.033 E672.93602
G1 X-23.534 Y53.895 E680.99124
G1 X-22.956 Y53.244 E681.86022
G1 X-22.305 Y52.666 E682.72921
G1 X-16.167 Y47.424 E690.78443
G1 X-15.494 Y46.872 E691.65342
G1 X-14.761 Y46.402 E692.52242
G1 X-7.879 Y42.185 E700.57766
G1 X-7.128 Y41.745 E701.44663
G1 X-6.330 Y41.396 E702.31562
G1 X1.126 Y38.307 E710.37084
G1 X1.937 Y37.990 E711.23984
G1 X2.780 Y37.770 E712.10883
G1 X8.652 Y36.360 E718.13650
G1 Z22.725 F7800.000
G1 E716.13650 F2400.00000
G92 E0
G1 X11.247 Y46.848 F7800.000
G1 E2.00000 F2400.00000
G1 F1800
G1 X13.171 Y46.386 E2.00113
G1 X21.249 Y45.750 E2.00575
G1 X178.751 Y45.750 E2.09562
G1 X186.829 Y46.386 E2.10024
G1 X194.720 Y48.280 E2.10487
G1 X202.216 Y51.385 E2.10950
G1 X208.778 Y55.406 E2.11389
G1 X209.135 Y55.625 E2.11413
G1 X215.305 Y60.895 E2.11876
G1 X220.575 Y67.065 E2.12339
G1 X224.815 Y73.984 E2.12802
G1 X227.920 Y81.480 E2.13265
G1 X229.814 Y89.371 E2.13728
G1 X230.450 Y97.449 E2.14190
G1 X230.450 Y102.551 E2.14481
G1 X229.814 Y110.629 E2.14944
G1 X227.920 Y118.520 E2.15407
G1 X224.815 Y126.016 E2.15870
G1 X220.575 Y132.935 E2.16333
G1 X215.305 Y139.105 E2.16796
G1 X209.135 Y144.375 E2.17259
G1 X202.216 Y148.615 E2.17722
G1 X194.720 Y151.720 E2.18185
G1 X186.829 Y153.614 E2.18648
G1 X178.751 Y154.250 E2.19110
G1 X21.249 Y154.250 E2.28096
G1 X13.171 Y153.614 E2.28559
G1 X5.280 Y151.720 E2.29022
G1 X-2.216 Y148.615 E2.29485
G1 X-9.135 Y144.375 E2.29948
G1 X-15.305 Y139.105 E2.30411
G1 X-20.575 Y132.935 E2.30874
G1 X-24.815 Y126.016 E2.31337
G1 X-27.920 Y118.520 E2.31800
G1 X-29.814 Y110.629 E2.32263
G1 X-30.450 Y102.551 E2.32725
G1 X-30.450 Y97.449 E2.33016
G1 X-29.814 Y89.371 E2.33478
G1 X-27.920 Y81.480 E2.33941
G1 X-24.815 Y73.984 E2.34404
G1 X-20.575 Y67.065 E2.34867
G1 X-15.305 Y60.895 E2.35330
G1 X-9.135 Y55.625 E2.35793
G1 X-2.216 Y51.385 E2.36256
G1 X5.280 Y48.280 E2.36719
G1 X11.174 Y46.865 E2.37065
G1 E0.37065 F2400.00000
G92 E0
G1 X6.203 Y25.838 F7800.000
G1 E2.00000 F2400.00000
G1 F1800
G1 X9.780 Y24.979 E2.00210
G1 X21.271 Y24.075 E2.00868
G1 X178.729 Y24.075 E2.09852
G1 X190.220 Y24.979 E2.10509
G1 X201.417 Y27.668 E2.11166
G1 X212.056 Y32.074 E2.11823
G1 X221.874 Y38.091 E2.12480
G1 X230.630 Y45.570 E2.13137
G1 X238.109 Y54.326 E2.13794
G1 X244.126 Y64.144 E2.14451
G1 X248.532 Y74.783 E2.15108
G1 X251.221 Y85.980 E2.15765
G1 X252.125 Y97.471 E2.16423
G1 X252.125 Y102.529 E2.16712
G1 X251.221 Y114.020 E2.17369
G1 X248.532 Y125.217 E2.18026
G1 X244.126 Y135.856 E2.18683
G1 X238.109 Y145.674 E2.19340
G1 X230.630 Y154.430 E2.19997
G1 X221.874 Y161.909 E2.20654
G1 X212.056 Y167.926 E2.21311
G1 X201.417 Y172.332 E2.21968
G1 X190.220 Y175.021 E2.22625
G1 X178.729 Y175.925 E2.23283
G1 X21.271 Y175.925 E2.32267
G1 X9.780 Y175.021 E2.32925
G1 X-1.417 Y172.332 E2.33582
G1 X-12.056 Y167.926 E2.34239
G1 X-21.874 Y161.909 E2.34896
G1 X-30.630 Y154.430 E2.35553
G1 X-38.109 Y145.674 E2.36210
G1 X-44.126 Y135.856 E2.36867
G1 X-48.532 Y125.217 E2.37524
G1 X-51.221 Y114.020 E2.38181
G1 X-52.125 Y102.529 E2.38839
G1 X-52.125 Y97.471 E2.39127
G1 X-51.221 Y85.980 E2.39785
G1 X-48.532 Y74.783 E2.40442
G1 X-44.126 Y64.144 E2.41099
G1 X-38.109 Y54.326 E2.41756
G1 X-30.630 Y45.570 E2.42413
G1 X-21.874 Y38.091 E2.43070
G1 X-12.056 Y32.074 E2.43727
G1 X-1.417 Y27.668 E2.44384
G1 X6.130 Y25.856 E2.44827
G1 Z23.225 F7800.000
G1 E0.44827 F2400.00000
G92 E0
G1 X11.247 Y46.848 F7800.000
G1 E2.00000 F2400.00000
G1 F1800
G1 X13.171 Y46.386 E2.00113
G1 X21.249 Y45.750 E2.00575
G1 X178.751 Y45.750 E2.09562
G1 X186.829 Y46.386 E2.10024
G1 X194.720 Y48.280 E2.10487
G1 X202.216 Y51.385 E2.10950
G1 X209.135 Y55.625 E2.11413
G1 X215.305 Y60.895 E2.11876
G1 X220.575 Y67.065 E2.12339
G1 X224.815 Y73.984 E2.12802
G1 X227.920 Y81.480 E2.13265
G1 X229.814 Y89.371 E2.13728
G1 X230.450 Y97.449 E2.14190
G1 X230.450 Y102.551 E2.14481
G1 X229.814 Y110.629 E2.14944
G1 X227.920 Y118.520 E2.15407
G1 X224.815 Y126.016 E2.15870
G1 X220.575 Y132.935 E2.16333
G1 X215.305 Y139.105 E2.16796
G1 X209.135 Y144.375 E2.17259
G1 X202.216 Y148.615 E2.17722
G1 X194.720 Y151.720 E2.18185
G1 X186.829 Y153.614 E2.18648
G1 X178.751 Y154.250 E2.19110
G1 X21.249 Y154.250 E2.28096
G1 X13.171 Y153.614 E2.28559
G1 X5.280 Y151.720 E2.29022
G1 X-2.216 Y148.615 E2.29485
G1 X-9.135 Y144.375 E2.29948
G1 X-15.305 Y139.105 E2.30411
G1 X-20.575 Y132.935 E2.30874
G1 X-24.815 Y126.016 E2.31337
G1 X-27.920 Y118.520 E2.31800
G1 X-29.814 Y110.629 E2.32263
G1 X-30.450 Y102.551 E2.32725
G1 X-30.450 Y97.449 E2.33016
G1 X-29.814 Y89.371 E2.33478
G1 X-27.920 Y81.480 E2.33941
G1 X-24.815 Y73.984 E2.34404
G1 X-20.575 Y67.065 E2.34867
G1 X-15.305 Y60.895 E2.35330
G1 X-9.135 Y55.625 E2.35793
G1 X-2.216 Y51.385 E2.36256
G1 X5.280 Y48.280 E2.36719
G1 X11.174 Y46.865 E2.37065
G1 E0.37065 F2400.00000
G92 E0
G1 X6.203 Y25.838 F7800.000
G1 E2.00000 F2400.00000
G1 F1800
G1 X9.780 Y24.979 E2.00210
G1 X21.271 Y24.075 E2.00868
G1 X178.729 Y24.075 E2.09852
G1 X190.220 Y24.979 E2.10509
G1 X201.417 Y27.668 E2.11166
G1 X212.056 Y32.074 E2.11823
G1 X221.874 Y38.091 E2.12480
G1 X230.630 Y45.570 E2.13137
G1 X238.109 Y54.326 E2.13794
G1 X244.126 Y64.144 E2.14451
G1 X248.532 Y74.783 E2.15108
G1 X251.221 Y85.980 E2.15765
G1 X252.125 Y97.471 E2.16423
G1 X252.125 Y102.529 E2.16712
G1 X251.221 Y114.020 E2.17369
G1 X248.532 Y125.217 E2.18026
G1 X244.126 Y135.856 E2.18683
G1 X238.109 Y145.674 E2.19340
G1 X230.630 Y154.430 E2.19997
G1 X221.874 Y161.909 E2.20654
G1 X212.056 Y167.926 E2.21311
G1 X201.417 Y172.332 E2.21968
G1 X190.220 Y175.021 E2.22625
G1 X178.729 Y175.925 E2.23283
G1 X21.271 Y175.925 E2.32267
G1 X9.780 Y175.021 E2.32925
G1 X-1.417 Y172.332 E2.33582
G1 X-12.056 Y167.926 E2.34239
G1 X-21.874 Y161.909 E2.34896
G1 X-30.630 Y154.430 E2.35553
G1 X-38.109 Y145.674 E2.36210
G1 X-44.126 Y135.856 E2.36867
G1 X-48.532 Y125.217 E2.37524
G1 X-51.221 Y114.020 E2.38181
G1 X-52.125 Y102.529 E2.38839
G1 X-52.125 Y97.471 E2.39127
G1 X-51.221 Y85.980 E2.39785
G1 X-48.532 Y74.783 E2.40442
G1 X-44.126 Y64.144 E2.41099
G1 X-38.109 Y54.326 E2.41756
G1 X-30.630 Y45.570 E2.42413
G1 X-21.874 Y38.091 E2.43070
G1 X-12.056 Y32.074 E2.43727
G1 X-1.417 Y27.668 E2.44384
G1 X6.130 Y25.856 E2.44827
M106 S124.95
G1 Z23.725 F7800.000
G1 E0.44827 F2400.00000
G92 E0
G1 X11.247 Y46.848 F7800.000
G1 E2.00000 F2400.00000
G1 F1800
G1 X13.171 Y46.386 E2.00113
G1 X21.249 Y45.750 E2.00575
G1 X178.751 Y45.750 E2.09562
G1 X186.829 Y46.386 E2.10024
G1 X194.720 Y48.280 E2.10487
G1 X202.216 Y51.385 E2.10950
G1 X209.135 Y55.625 E2.11413
G1 X214.891 Y60.541 E2.11845
G1 X215.305 Y60.895 E2.11876
G1 X220.575 Y67.065 E2.12339
G1 X224.815 Y73.984 E2.12802
G1 X227.920 Y81.480 E2.13265
G1 X229.814 Y89.371 E2.13728
G1 X230.450 Y97.449 E2.14190
G1 X230.450 Y102.551 E2.14481
G1 X229.814 Y110.629 E2.14944
G1 X227.920 Y118.520 E2.15407
G1 X224.815 Y126.016 E2.15870
G1 X220.803 Y132.563 E2.16308
G1 X220.575 Y132.935 E2.16333
G1 X215.305 Y139.105 E2.16796
G1 X209.135 Y144.375 E2.17259
G1 X202.216 Y148.615 E2.17722
G1 X194.720 Y151.720 E2.18185
G1 X186.829 Y153.614 E2.18648
G1 X178.751 Y154.250 E2.19110
G1 X21.249 Y154.250 E2.28096
G1 X13.171 Y153.614 E2.28559
G1 X5.280 Y151.720 E2.29022
G1 X-2.216 Y148.615 E2.29485
G1 X-9.135 Y144.375 E2.29948
G1 X-15.305 Y139.105 E2.30411
G1 X-20.575 Y132.935 E2.30874
G1 X-24.815 Y126.016 E2.31337
G1 X-27.920 Y118.520 E2.31800
G1 X-29.814 Y110.629 E2.32263
G1 X-30.450 Y102.551 E2.32725
G1 X-30.450 Y97.449 E2.33016
G1 X-29.814 Y89.371 E2.33478
G1 X-27.920 Y81.480 E2.33941
G1 X-24.815 Y73.984 E2.34404
G1 X-20.575 Y67.065 E2.34867
G1 X-15.305 Y60.895 E2.35330
G1 X-9.135 Y55.625 E2.35793
G1 X-2.216 Y51.385 E2.36256
G1 X5.280 Y48.280 E2.36719
G1 X11.174 Y46.865 E2.37065
G1 E0.37065 F2400.00000
G92 E0
G1 X6.203 Y25.838 F7800.000
G1 E2.00000 F2400.00000
G1 F1800
G1 X9.780 Y24.979 E2.00210
G1 X21.271 Y24.075 E2.00868
G1 X178.729 Y24.075 E2.09852
G1 X190.220 Y24.979 E2.10509
G1 X201.417 Y27.668 E2.11166
G1 X212.056 Y32.074 E2.11823
G1 X221.874 Y38.091 E2.12480
G1 X230.630 Y45.570 E2.13137
G1 X238.109 Y54.326 E2.13794
G1 X244.126 Y64.144 E2.14451
G1 X248.532 Y74.783 E2.15108
G1 X251.221 Y85.980 E2.15765
G1 X252.125 Y97.471 E2.16423
G1 X252.125 Y102.529 E2.16712
G1 X251.221 Y114.020 E2.17369
G1 X248.532 Y125.217 E2.18026
G1 X244.126 Y135.856 E2.18683
G1 X238.109 Y145.674 E2.19340
G1 X230.630 Y154.430 E2.19997
G1 X221.874 Y161.909 E2.20654
G1 X212.056 Y167.926 E2.21311
G1 X201.417 Y172.332 E2.21968
G1 X190.220 Y175.021 E2.22625
G1 X178.729 Y175.925 E2.23283
G1 X21.271 Y175.925 E2.32267
G1 X9.780 Y175.021 E2.32925
G1 X-1.417 Y172.332 E2.33582
G1 X-12.056 Y167.926 E2.34239
G1 X-21.874 Y161.909 E2.34896
G1 X-30.630 Y154.430 E2.35553
G1 X-38.109 Y145.674 E2.36210
G1 X-44.126 Y135.856 E2.36867
G1 X-48.532 Y125.217 E2.37524
G1 X-51.221 Y114.020 E2.38181
G1 X-52.125 Y102.529 E2.38839
G1 X-52.125 Y97.471 E2.39127
G1 X-51.221 Y85.980 E2.39785
G1 X-48.532 Y74.783 E2.40442
G1 X-44.126 Y64.144 E2.41099
G1 X-38.109 Y54.326 E2.41756
G1 X-30.630 Y45.570 E2.42413
G1 X-21.874 Y38.091 E2.43070
G1 X-12.056 Y32.074 E2.43727
G1 X-1.417 Y27.668 E2.44384
G1 X6.130 Y25.856 E2.44827
G1 Z24.225 F7800.000
G1 E0.44827 F2400.00000
G92 E0
G1 X11.247 Y46.848 F7800.000
G1 E2.00000 F2400.00000
G1 F1800
G1 X13.171 Y46.386 E2.00113
G1 X21.249 Y45.750 E2.00575
G1 X178.751 Y45.750 E2.09562
G1 X186.829 Y46.386 E2.10024
G1 X194.720 Y48.280 E2.10487
G1 X202.216 Y51.385 E2.10950
G1 X208.756 Y55.393 E2.11388
G1 X209.135 Y55.625 E2.11413
G1 X215.305 Y60.895 E2.11876
G1 X220.575 Y67.065 E2.12339
G1 X224.815 Y73.984 E2.12802
G1 X227.920 Y81.480 E2.13265
G1 X229.814 Y89.371 E2.13728
G1 X230.450 Y97.449 E2.14190
G1 X230.450 Y102.551 E2.14481
G1 X229.814 Y110.629 E2.14944
G1 X227.920 Y118.520 E2.15407
G1 X224.815 Y126.016 E2.15870
G1 X220.807 Y132.556 E2.16307
G1 X220.575 Y132.935 E2.16333
G1 X215.305 Y139.105 E2.16796
G1 X209.135 Y144.375 E2.17259
G1 X202.216 Y148.615 E2.17722
G1 X194.720 Y151.720 E2.18185
G1 X186.829 Y153.614 E2.18648
G1 X178.751 Y154.250 E2.19110
G1 X21.249 Y154.250 E2.28096
G1 X13.171 Y153.614 E2.28559
G1 X5.280 Y151.720 E2.29022
G1 X-2.216 Y148.615 E2.29485
G1 X-9.135 Y144.375 E2.29948
G1 X-15.305 Y139.105 E2.30411
G1 X-20.575 Y132.935 E2.30874
G1 X-24.815 Y126.016 E2.31337
G1 X-27.920 Y118.520 E2.31800
G1 X-29.814 Y110.629 E2.32263
G1 X-30.450 Y102.551 E2.32725
G1 X-30.450 Y97.449 E2.33016
G1 X-29.814 Y89.371 E2.33478
G1 X-27.920 Y81.480 E2.33941
G1 X-24.815 Y73.984 E2.34404
G1 X-20.575 Y67.065 E2.34867
G1 X-15.305 Y60.895 E2.35330
G1 X-9.135 Y55.625 E2.35793
G1 X-2.216 Y51.385 E2.36256
G1 X5.280 Y48.280 E2.36719
G1 X11.174 Y46.865 E2.37065
G1 E0.37065 F2400.00000
G92 E0
G1 X6.203 Y25.838 F7800.000
G1 E2.00000 F2400.00000
G1 F1800
G1 X9.780 Y24.979 E2.00210
G1 X21.271 Y24.075 E2.00868
G1 X178.729 Y24.075 E2.09852
G1 X190.220 Y24.979 E2.10509
G1 X201.417 Y27.668 E2.11166
G1 X212.056 Y32.074 E2.11823
G1 X221.874 Y38.091 E2.12480
G1 X230.630 Y45.570 E2.13137
G1 X238.109 Y54.326 E2.13794
G1 X244.126 Y64.144 E2.14451
G1 X248.532 Y74.783 E2.15108
G1 X251.221 Y85.980 E2.15765
G1 X252.125 Y97.471 E2.16423
G1 X252.125 Y102.529 E2.16712
G1 X251.221 Y114.020 E2.17369
G1 X248.532 Y125.217 E2.18026
G1 X244.126 Y135.856 E2.18683
G1 X238.109 Y145.674 E2.19340
G1 X230.630 Y154.430 E2.19997
G1 X221.874 Y161.909 E2.20654
G1 X212.056 Y167.926 E2.21311
G1 X201.417 Y172.332 E2.21968
G1 X190.220 Y175.021 E2.22625
G1 X178.729 Y175.925 E2.23283
G1 X21.271 Y175.925 E2.32267
G1 X9.780 Y175.021 E2.32925
G1 X-1.417 Y172.332 E2.33582
G1 X-12.056 Y167.926 E2.34239
G1 X-21.874 Y161.909 E2.34896
G1 X-30.630 Y154.430 E2.35553
G1 X-38.109 Y145.674 E2.36210
G1 X-44.126 Y135.856 E2.36867
G1 X-48.532 Y125.217 E2.37524
G1 X-51.221 Y114.020 E2.38181
G1 X-52.125 Y102.529 E2.38839
G1 X-52.125 Y97.471 E2.39127
G1 X-51.221 Y85.980 E2.39785
G1 X-48.532 Y74.783 E2.40442
