; generated by Slic3r 1.3.0 on 2023-06-08 at 20:55:17

; external perimeters extrusion width = 24.45mm (726.99mm^3/s)
; perimeters extrusion width = 31.11mm (1854.02mm^3/s)
; infill extrusion width = 27.78mm (2205.33mm^3/s)
; solid infill extrusion width = 31.11mm (618.01mm^3/s)
; top infill extrusion width = 31.11mm (463.51mm^3/s)

M107
M104 S200 ; set temperature
G28 ; home all axes
G1 Z5 F5000 ; lift nozzle

; Filament gcode

M109 S200 ; set temperature and wait for it to be reached
G21 ; set units to millimeters
G90 ; use absolute coordinates
M82 ; use absolute distances for extrusion
G92 E0
G1 Z22.225 F7800.000
G1 E-2.00000 F2400.00000
G92 E0
G1 X123.763 Y163.207 F7800.000
G1 E2.00000 F2400.00000
G1 F1800
G1 X123.471 Y163.086 E2.38024
G1 F1800
G1 X123.179 Y162.965 E2.76227
G1 F1800
G1 X122.909 Y162.851 E3.11872
G1 F1800
G1 X122.659 Y162.744 E3.44932
G1 F1800
G1 X122.410 Y162.637 E3.78134
G1 F1800
G1 X122.106 Y162.462 E4.21321
G1 F1800
G1 X121.802 Y162.286 E4.64692
G1 F1800
G1 X121.498 Y162.111 E5.08247
G1 F1800
G1 X121.194 Y161.935 E5.51986
G1 F1800
G1 X120.949 Y161.759 E5.89660
G1 F1800
G1 X120.498 Y161.431 E6.59657
G1 F1800
G1 X120.046 Y161.103 E7.29934
G1 X119.009 Y160.191 E9.03811
G1 X118.097 Y159.154 E10.77694
G1 X117.933 Y158.928 E11.12832
G1 F1800
G1 X117.605 Y158.477 E11.82828
G1 F1800
G1 X117.276 Y158.025 E12.52544
G1 F1800
G1 X117.177 Y157.854 E12.77229
G1 F1800
G1 X117.001 Y157.550 E13.20785
G1 F1800
G1 X116.826 Y157.246 E13.64157
G1 F1800
G1 X116.651 Y156.942 E14.07344
G1 F1800
G1 X116.509 Y156.665 E14.45383
G1 F1800
G1 X116.402 Y156.416 E14.78446
G1 F1800
G1 X116.295 Y156.167 E15.11366
G1 F1800
G1 X116.175 Y155.875 E15.49565
G1 F1800
G1 X116.054 Y155.583 E15.87585
G1 F1800
G1 X115.963 Y155.343 E16.18353
G1 F1800
G1 X115.901 Y155.154 E16.41988
G1 F1800
G1 X115.840 Y154.966 E16.65518
G1 F1800
G1 X115.779 Y154.777 E16.88943
G1 F1800
G1 X115.718 Y154.589 E17.12262
G1 F1800
G1 X115.653 Y154.383 E17.37548
G1 F1800
G1 X115.585 Y154.159 E17.64775
G1 F1800
G1 X115.518 Y153.936 E17.91868
G1 F1800
G1 X115.450 Y153.712 E18.18828
G1 F1800
G1 X115.383 Y153.488 E18.45654
G1 F1800
G1 X115.338 Y153.284 E18.69554
G1 F1800
G1 X115.293 Y153.080 E18.93348
G1 F1800
G1 X115.249 Y152.876 E19.17035
G1 F1800
G1 X115.204 Y152.671 E19.40615
G1 F1800
G1 X115.157 Y152.445 E19.66605
G1 F1800
G1 X115.107 Y152.196 E19.94972
G1 F1800
G1 X115.058 Y151.946 E20.23193
G1 F1800
G1 X115.008 Y151.697 E20.51271
G1 F1800
G1 X114.959 Y151.448 E20.79205
G1 F1800
G1 X114.909 Y151.199 E21.06994
G1 F1800
G1 X114.860 Y150.950 E21.34639
G1 F1800
G1 X114.811 Y150.673 E21.65140
G1 F1800
G1 X114.762 Y150.367 E21.98479
G1 F1800
G1 X114.714 Y150.061 E22.31647
G1 F1800
G1 X114.665 Y149.756 E22.64643
G1 F1800
G1 X114.617 Y149.450 E22.97467
G1 F1800
G1 X114.568 Y149.144 E23.30119
G1 F1800
G1 X114.521 Y148.798 E23.66827
G1 F1800
G1 X114.475 Y148.410 E24.07571
G1 F1800
G1 X114.429 Y148.023 E24.48110
G1 F1800
G1 X114.383 Y147.635 E24.88445
G1 F1800
G1 X114.338 Y147.248 E25.28574
G1 F1800
G1 X114.291 Y146.658 E25.89062
G1 F1800
G1 X114.245 Y146.069 E26.49235
G1 F1800
G1 X114.198 Y145.479 E27.09093
G1 F1800
G1 X114.152 Y144.317 E28.26271
G1 F1800
G1 X114.113 Y142.862 E29.72057
G1 X114.113 Y57.138 E115.61408
G1 X114.130 Y56.264 E116.48916
G1 F1800
G1 X114.175 Y55.102 E117.66094
G1 F1800
G1 X114.221 Y54.226 E118.54904
G1 F1800
G1 X114.268 Y53.636 E119.15077
G1 F1800
G1 X114.314 Y53.047 E119.75565
G1 F1800
G1 X114.360 Y52.559 E120.26021
G1 F1800
G1 X114.406 Y52.171 E120.66355
G1 F1800
G1 X114.452 Y51.784 E121.06894
G1 F1800
G1 X114.498 Y51.396 E121.47639
G1 F1800
G1 X114.544 Y51.009 E121.88588
G1 F1800
G1 X114.592 Y50.703 E122.21240
G1 F1800
G1 X114.641 Y50.397 E122.54064
G1 F1800
G1 X114.689 Y50.092 E122.87060
G1 F1800
G1 X114.738 Y49.786 E123.20228
G1 F1800
G1 X114.786 Y49.480 E123.53568
G1 F1800
G1 X114.835 Y49.175 E123.87079
G1 F1800
G1 X114.884 Y48.926 E124.14680
G1 F1800
G1 X114.934 Y48.677 E124.42424
G1 F1800
G1 X114.983 Y48.428 E124.70312
G1 F1800
G1 X115.033 Y48.180 E124.98344
G1 F1800
G1 X115.082 Y47.931 E125.26519
G1 F1800
G1 X115.132 Y47.682 E125.54838
G1 F1800
G1 X115.169 Y47.494 E125.76334
G1 F1800
G1 X115.204 Y47.329 E125.95387
G1 F1800
G1 X115.249 Y47.124 E126.19017
G1 F1800
G1 X115.293 Y46.920 E126.42754
G1 F1800
G1 X115.338 Y46.716 E126.66598
G1 F1800
G1 X115.383 Y46.512 E126.90549
G1 F1800
G1 X115.450 Y46.288 E127.17442
G1 F1800
G1 X115.518 Y46.064 E127.44468
G1 F1800
G1 X115.585 Y45.841 E127.71628
G1 F1800
G1 X115.653 Y45.617 E127.98921
G1 F1800
G1 X115.718 Y45.411 E128.24265
G1 F1800
G1 X115.779 Y45.223 E128.47637
G1 F1800
G1 X115.840 Y45.034 E128.71114
G1 F1800
G1 X115.901 Y44.846 E128.94697
G1 F1800
G1 X115.963 Y44.657 E129.18384
G1 F1800
G1 X116.054 Y44.417 E129.49225
G1 F1800
G1 X116.175 Y44.125 E129.87335
G1 F1800
G1 X116.295 Y43.833 E130.25623
G1 F1800
G1 X116.402 Y43.584 E130.58614
G1 F1800
G1 X116.509 Y43.335 E130.91747
G1 F1800
G1 X116.651 Y43.058 E131.29867
G1 F1800
G1 X116.826 Y42.754 E131.73146
G1 F1800
G1 X117.001 Y42.450 E132.16610
G1 F1800
G1 X117.177 Y42.146 E132.60257
G1 F1800
G1 X117.276 Y41.975 E132.84952
G1 F1800
G1 X117.605 Y41.523 E133.54809
G1 F1800
G1 X117.933 Y41.072 E134.24946
G1 F1800
G1 X118.097 Y40.846 E134.60151
G1 X119.009 Y39.809 E136.34360
G1 X119.795 Y39.111 E137.66925
G1 F1800
G1 X120.046 Y38.897 E138.08410
G1 X120.498 Y38.569 E138.78545
G1 F1800
G1 X120.949 Y38.241 E139.48400
G1 F1800
G1 X121.194 Y38.065 E139.86003
G1 F1800
G1 X121.498 Y37.889 E140.29650
G1 F1800
G1 X121.802 Y37.714 E140.73113
G1 F1800
G1 X122.106 Y37.538 E141.16391
G1 F1800
G1 X122.410 Y37.363 E141.59485
G1 F1800
G1 X122.660 Y37.256 E141.92621
G1 F1800
G1 X122.909 Y37.149 E142.25615
G1 F1800
G1 X123.179 Y37.035 E142.61184
G1 F1800
G1 X123.471 Y36.914 E142.99292
G1 F1800
G1 X123.763 Y36.793 E143.37221
G1 F1800
G1 X123.951 Y36.732 E143.60909
G1 F1800
G1 X124.140 Y36.671 E143.84491
G1 F1800
G1 X124.328 Y36.609 E144.07969
G1 F1800
G1 X124.517 Y36.548 E144.31341
G1 F1800
G1 X124.705 Y36.487 E144.54609
G1 F1800
G1 X124.929 Y36.419 E144.81901
G1 F1800
G1 X125.153 Y36.352 E145.09061
G1 F1800
G1 X125.376 Y36.284 E145.36086
G1 F1800
G1 X125.600 Y36.216 E145.62979
G1 F1800
G1 X125.814 Y36.160 E145.88314
G1 F1800
G1 X126.018 Y36.116 E146.12159
G1 F1800
G1 X126.222 Y36.071 E146.35896
G1 F1800
G1 X126.426 Y36.026 E146.59526
G1 F1800
G1 X126.631 Y35.982 E146.83050
G1 F1800
G1 X126.879 Y35.932 E147.11443
G1 F1800
G1 X127.128 Y35.883 E147.39692
G1 F1800
G1 X127.377 Y35.833 E147.67798
G1 F1800
G1 X127.626 Y35.784 E147.95760
G1 F1800
G1 X127.874 Y35.734 E148.23578
G1 F1800
G1 X128.123 Y35.685 E148.51252
G1 F1800
G1 X128.311 Y35.648 E148.72072
G1 F1800
G1 X128.527 Y35.611 E148.95842
G1 F1800
G1 X128.833 Y35.562 E149.29181
G1 F1800
G1 X129.139 Y35.514 E149.62348
G1 F1800
G1 X129.444 Y35.465 E149.95342
G1 F1800
G1 X129.750 Y35.417 E150.28165
G1 F1800
G1 X130.056 Y35.368 E150.60817
G1 F1800
G1 X130.402 Y35.321 E150.97524
G1 F1800
G1 X130.790 Y35.275 E151.38268
G1 F1800
G1 X131.177 Y35.229 E151.78808
G1 F1800
G1 X131.565 Y35.183 E152.19142
G1 F1800
G1 X131.952 Y35.138 E152.59271
G1 F1800
G1 X132.542 Y35.091 E153.19759
G1 F1800
G1 X133.131 Y35.045 E153.79932
G1 F1800
G1 X133.721 Y34.998 E154.39790
G1 F1800
G1 X134.883 Y34.952 E155.56967
G1 F1800
G1 X136.338 Y34.912 E157.02754
G1 X374.462 Y34.912 E395.62063
G1 X375.336 Y34.930 E396.49572
G1 F1800
G1 X376.498 Y34.975 E397.66749
G1 F1800
G1 X377.374 Y35.021 E398.55557
G1 F1800
G1 X377.964 Y35.068 E399.15730
G1 F1800
G1 X378.553 Y35.114 E399.76217
G1 F1800
G1 X379.041 Y35.160 E400.26672
G1 F1800
G1 X379.429 Y35.206 E400.67007
G1 F1800
G1 X379.816 Y35.252 E401.07546
G1 F1800
G1 X380.204 Y35.298 E401.48291
G1 F1800
G1 X380.591 Y35.344 E401.89240
G1 F1800
G1 X380.897 Y35.392 E402.21894
G1 F1800
G1 X381.203 Y35.441 E402.54719
G1 F1800
G1 X381.508 Y35.489 E402.87716
G1 F1800
G1 X381.814 Y35.538 E403.20885
G1 F1800
G1 X382.120 Y35.586 E403.54226
G1 F1800
G1 X382.425 Y35.635 E403.87738
G1 F1800
G1 X382.675 Y35.684 E404.15384
G1 F1800
G1 X382.924 Y35.734 E404.43174
G1 F1800
G1 X383.173 Y35.784 E404.71108
G1 F1800
G1 X383.422 Y35.833 E404.99186
G1 F1800
G1 X383.671 Y35.883 E405.27408
G1 F1800
G1 X383.920 Y35.932 E405.55775
G1 F1800
G1 X384.169 Y35.982 E405.84286
G1 F1800
G1 X384.374 Y36.026 E406.07863
G1 F1800
G1 X384.578 Y36.071 E406.31548
G1 F1800
G1 X384.782 Y36.116 E406.55339
G1 F1800
G1 X384.986 Y36.160 E406.79238
G1 F1800
G1 X385.200 Y36.216 E407.04637
G1 F1800
G1 X385.424 Y36.284 E407.31597
G1 F1800
G1 X385.647 Y36.352 E407.58690
G1 F1800
G1 X385.871 Y36.419 E407.85917
G1 F1800
G1 X386.095 Y36.487 E408.13278
G1 F1800
G1 X386.283 Y36.548 E408.36597
G1 F1800
G1 X386.472 Y36.609 E408.60021
G1 F1800
G1 X386.660 Y36.671 E408.83551
G1 F1800
G1 X386.849 Y36.732 E409.07185
G1 F1800
G1 X387.037 Y36.793 E409.30925
G1 F1800
G1 X387.329 Y36.914 E409.68944
G1 F1800
G1 X387.621 Y37.035 E410.07143
G1 F1800
G1 X387.891 Y37.149 E410.42789
G1 F1800
G1 X388.140 Y37.256 E410.75854
G1 F1800
G1 X388.390 Y37.363 E411.09062
G1 F1800
G1 X388.694 Y37.538 E411.52249
G1 F1800
G1 X388.998 Y37.714 E411.95620
G1 F1800
G1 X389.302 Y37.889 E412.39175
G1 F1800
G1 X389.606 Y38.065 E412.82915
G1 F1800
G1 X389.851 Y38.241 E413.20589
G1 F1800
G1 X390.302 Y38.569 E413.90582
G1 F1800
G1 X390.754 Y38.897 E414.60855
G1 X391.791 Y39.809 E416.34741
G1 X392.703 Y40.846 E418.08626
G1 X392.867 Y41.072 E418.43762
G1 F1800
G1 X393.195 Y41.523 E419.13755
G1 F1800
G1 X393.524 Y41.975 E419.83467
G1 F1800
G1 X393.623 Y42.146 E420.08158
G1 F1800
G1 X393.799 Y42.450 E420.51713
G1 F1800
G1 X393.974 Y42.754 E420.95084
G1 F1800
G1 X394.149 Y43.058 E421.38271
G1 F1800
G1 X394.291 Y43.335 E421.76312
G1 F1800
G1 X394.398 Y43.584 E422.09380
G1 F1800
G1 X394.505 Y43.833 E422.42305
G1 F1800
G1 X394.626 Y44.125 E422.80503
G1 F1800
G1 X394.746 Y44.417 E423.18522
G1 F1800
G1 X394.837 Y44.657 E423.49290
G1 F1800
G1 X394.899 Y44.846 E423.72925
G1 F1800
G1 X394.960 Y45.034 E423.96455
G1 F1800
G1 X395.021 Y45.223 E424.19880
G1 F1800
G1 X395.082 Y45.411 E424.43200
G1 F1800
G1 X395.147 Y45.617 E424.68486
G1 F1800
G1 X395.215 Y45.841 E424.95712
G1 F1800
G1 X395.282 Y46.064 E425.22805
G1 F1800
G1 X395.350 Y46.288 E425.49763
G1 F1800
G1 X395.417 Y46.512 E425.76589
G1 F1800
G1 X395.462 Y46.716 E426.00483
G1 F1800
G1 X395.507 Y46.920 E426.24270
G1 F1800
G1 X395.551 Y47.124 E426.47950
G1 F1800
G1 X395.596 Y47.329 E426.71523
G1 F1800
G1 X395.643 Y47.555 E426.97511
G1 F1800
G1 X395.693 Y47.804 E427.25877
G1 F1800
G1 X395.742 Y48.053 E427.54099
G1 F1800
G1 X395.792 Y48.303 E427.82177
G1 F1800
G1 X395.841 Y48.552 E428.10111
G1 F1800
G1 X395.891 Y48.801 E428.37901
G1 F1800
G1 X395.940 Y49.050 E428.65546
G1 F1800
G1 X395.989 Y49.327 E428.96049
G1 F1800
G1 X396.038 Y49.633 E429.29393
G1 F1800
G1 X396.086 Y49.939 E429.62565
G1 F1800
G1 X396.135 Y50.244 E429.95564
G1 F1800
G1 X396.183 Y50.550 E430.28392
G1 F1800
G1 X396.232 Y50.856 E430.61048
G1 F1800
G1 X396.279 Y51.202 E430.97758
G1 F1800
G1 X396.325 Y51.590 E431.38502
G1 F1800
G1 X396.371 Y51.977 E431.79041
G1 F1800
G1 X396.417 Y52.365 E432.19375
G1 F1800
G1 X396.462 Y52.752 E432.59504
G1 F1800
G1 X396.509 Y53.342 E433.20001
G1 F1800
G1 X396.555 Y53.931 E433.80182
G1 F1800
G1 X396.602 Y54.521 E434.40048
G1 F1800
G1 X396.648 Y55.683 E435.57226
G1 F1800
G1 X396.688 Y57.138 E437.02987
G1 X396.688 Y142.862 E522.92352
G1 X396.670 Y143.735 E523.79834
G1 F1800
G1 X396.625 Y144.898 E524.97012
G1 F1800
G1 X396.579 Y145.774 E525.85826
G1 F1800
G1 X396.532 Y146.363 E526.46008
G1 F1800
G1 X396.486 Y146.953 E527.06505
G1 F1800
G1 X396.440 Y147.441 E527.56965
G1 F1800
G1 X396.394 Y147.829 E527.97299
G1 F1800
G1 X396.348 Y148.216 E528.37839
G1 F1800
G1 X396.302 Y148.604 E528.78583
G1 F1800
G1 X396.256 Y148.991 E529.19532
G1 F1800
G1 X396.208 Y149.297 E529.52188
G1 F1800
G1 X396.159 Y149.603 E529.85015
G1 F1800
G1 X396.111 Y149.908 E530.18015
G1 F1800
G1 X396.062 Y150.214 E530.51186
G1 F1800
G1 X396.014 Y150.520 E530.84529
G1 F1800
G1 X395.965 Y150.826 E531.18045
G1 F1800
G1 X395.916 Y151.075 E531.45690
G1 F1800
G1 X395.866 Y151.324 E531.73480
G1 F1800
G1 X395.816 Y151.573 E532.01414
G1 F1800
G1 X395.767 Y151.822 E532.29492
G1 F1800
G1 X395.717 Y152.071 E532.57714
G1 F1800
G1 X395.668 Y152.320 E532.86081
G1 F1800
G1 X395.618 Y152.569 E533.14591
G1 F1800
G1 X395.574 Y152.774 E533.38165
G1 F1800
G1 X395.529 Y152.978 E533.61845
G1 F1800
G1 X395.484 Y153.182 E533.85633
G1 F1800
G1 X395.440 Y153.386 E534.09527
G1 F1800
G1 X395.384 Y153.600 E534.34924
G1 F1800
G1 X395.316 Y153.824 E534.61883
G1 F1800
G1 X395.248 Y154.047 E534.88976
G1 F1800
G1 X395.181 Y154.271 E535.16202
G1 F1800
G1 X395.113 Y154.495 E535.43561
G1 F1800
G1 X395.052 Y154.683 E535.66881
G1 F1800
G1 X394.991 Y154.872 E535.90306
G1 F1800
G1 X394.929 Y155.060 E536.13835
G1 F1800
G1 X394.868 Y155.249 E536.37470
G1 F1800
G1 X394.807 Y155.437 E536.61210
G1 F1800
G1 X394.686 Y155.729 E536.99230
G1 F1800
G1 X394.565 Y156.021 E537.37429
G1 F1800
G1 X394.451 Y156.291 E537.73076
G1 F1800
G1 X394.344 Y156.540 E538.06143
G1 F1800
G1 X394.237 Y156.790 E538.39353
G1 F1800
G1 X394.062 Y157.094 E538.82540
G1 F1800
G1 X393.886 Y157.398 E539.25912
G1 F1800
G1 X393.711 Y157.702 E539.69468
G1 F1800
G1 X393.535 Y158.006 E540.13207
G1 F1800
G1 X393.359 Y158.251 E540.50882
G1 F1800
G1 X393.031 Y158.702 E541.20873
G1 F1800
G1 X392.703 Y159.154 E541.91145
G1 X391.791 Y160.191 E543.65031
G1 X390.754 Y161.103 E545.38913
G1 X390.528 Y161.267 E545.74051
G1 F1800
G1 X390.077 Y161.595 E546.44047
G1 F1800
G1 X389.625 Y161.924 E547.13763
G1 F1800
G1 X389.454 Y162.023 E547.38444
G1 F1800
G1 X389.150 Y162.199 E547.82000
G1 F1800
G1 X388.846 Y162.374 E548.25372
G1 F1800
G1 X388.542 Y162.549 E548.68559
G1 F1800
G1 X388.265 Y162.691 E549.06597
G1 F1800
G1 X388.016 Y162.798 E549.39656
G1 F1800
G1 X387.767 Y162.905 E549.72573
G1 F1800
G1 X387.475 Y163.025 E550.10778
G1 F1800
G1 X387.183 Y163.146 E550.48803
G1 F1800
G1 X386.943 Y163.237 E550.79572
G1 F1800
G1 X386.754 Y163.299 E551.03204
G1 F1800
G1 X386.566 Y163.360 E551.26731
G1 F1800
G1 X386.377 Y163.421 E551.50153
G1 F1800
G1 X386.189 Y163.482 E551.73470
G1 F1800
G1 X385.983 Y163.547 E551.98757
G1 F1800
G1 X385.759 Y163.615 E552.25988
G1 F1800
G1 X385.536 Y163.682 E552.53085
G1 F1800
G1 X385.312 Y163.750 E552.80049
G1 F1800
G1 X385.088 Y163.817 E553.06879
G1 F1800
G1 X384.884 Y163.862 E553.30777
G1 F1800
G1 X384.680 Y163.907 E553.54569
G1 F1800
G1 X384.476 Y163.951 E553.78253
G1 F1800
G1 X384.271 Y163.996 E554.01831
G1 F1800
G1 X384.045 Y164.043 E554.27820
G1 F1800
G1 X383.796 Y164.093 E554.56187
G1 F1800
G1 X383.546 Y164.142 E554.84409
G1 F1800
G1 X383.297 Y164.192 E555.12487
G1 F1800
G1 X383.048 Y164.241 E555.40421
G1 F1800
G1 X382.799 Y164.291 E555.68211
G1 F1800
G1 X382.550 Y164.340 E555.95856
G1 F1800
G1 X382.273 Y164.389 E556.26358
G1 F1800
G1 X381.967 Y164.438 E556.59701
G1 F1800
G1 X381.661 Y164.486 E556.92871
G1 F1800
G1 X381.355 Y164.535 E557.25870
G1 F1800
G1 X381.050 Y164.583 E557.58696
G1 F1800
G1 X380.744 Y164.632 E557.91351
G1 F1800
G1 X380.397 Y164.679 E558.28060
G1 F1800
G1 X380.010 Y164.725 E558.68804
G1 F1800
G1 X379.622 Y164.771 E559.09343
G1 F1800
G1 X379.235 Y164.817 E559.49678
G1 F1800
G1 X378.847 Y164.862 E559.89807
G1 F1800
G1 X378.258 Y164.909 E560.50287
G1 F1800
G1 X377.669 Y164.955 E561.10453
G1 F1800
G1 X377.080 Y165.002 E561.70303
G1 F1800
G1 X375.917 Y165.048 E562.87480
G1 F1800
G1 X374.462 Y165.088 E564.33276
G1 X136.338 Y165.088 E802.92585
G1 X135.464 Y165.070 E803.80103
G1 F1800
G1 X134.302 Y165.025 E804.97281
G1 F1800
G1 X133.426 Y164.979 E805.86087
G1 F1800
G1 X132.836 Y164.932 E806.46253
G1 F1800
G1 X132.247 Y164.886 E807.06734
G1 F1800
G1 X131.759 Y164.840 E807.57186
G1 F1800
G1 X131.371 Y164.794 E807.97520
G1 F1800
G1 X130.984 Y164.748 E808.38059
G1 F1800
G1 X130.596 Y164.702 E808.78804
G1 F1800
G1 X130.209 Y164.656 E809.19753
G1 F1800
G1 X129.903 Y164.608 E809.52408
G1 F1800
G1 X129.597 Y164.559 E809.85235
G1 F1800
G1 X129.292 Y164.511 E810.18235
G1 F1800
G1 X128.986 Y164.462 E810.51406
G1 F1800
G1 X128.680 Y164.414 E810.84750
