; generated by Slic3r 1.3.0 on 2023-06-13 at 12:30:59

; external perimeters extrusion width = 24.45mm (726.99mm^3/s)
; perimeters extrusion width = 31.11mm (1854.02mm^3/s)
; infill extrusion width = 27.78mm (2205.33mm^3/s)
; solid infill extrusion width = 31.11mm (618.01mm^3/s)
; top infill extrusion width = 31.11mm (463.51mm^3/s)

M107
M104 S200 ; set temperature
G28 ; home all axes
G1 Z5 F5000 ; lift nozzle

; Filament gcode

M109 S200 ; set temperature and wait for it to be reached
G21 ; set units to millimeters
G90 ; use absolute coordinates
M82 ; use absolute distances for extrusion
G92 E0
G1 Z22.225 F7800.000
G1 E-2.00000 F2400.00000
G92 E0
G1 X225.591 Y-33.142 F7800.000
G1 E2.00000 F2400.00000
G1 F1800
G1 X229.000 Y-30.229 E6.47513
G1 X229.651 Y-29.651 E7.34405
G1 X230.230 Y-29.000 E8.21301
G1 X233.142 Y-25.591 E12.68814
G1 X233.694 Y-24.918 E13.55714
G1 X234.163 Y-24.184 E14.42614
G1 X236.506 Y-20.361 E18.90126
G1 X236.947 Y-19.610 E19.77026
G1 X237.295 Y-18.812 E20.63921
G1 X239.011 Y-14.670 E25.11433
G1 X239.329 Y-13.859 E25.98335
G1 X239.549 Y-13.016 E26.85234
G1 X240.595 Y-8.656 E31.32747
G1 X240.782 Y-7.806 E32.19648
G1 X240.867 Y-6.939 E33.06551
G1 X241.219 Y-2.469 E37.54064
G1 X241.287 Y-1.163 E38.84562
G1 X241.287 Y201.163 E240.77472
G1 X241.270 Y201.600 E241.21084
G1 X241.219 Y202.469 E242.07976
G1 X240.867 Y206.939 E246.55488
G1 X240.782 Y207.806 E247.42392
G1 X240.595 Y208.656 E248.29291
G1 X239.549 Y213.016 E252.76804
G1 X239.329 Y213.859 E253.63706
G1 X239.011 Y214.670 E254.50602
G1 X237.353 Y218.673 E258.83053
G1 X236.947 Y219.610 E259.85012
G1 X236.506 Y220.361 E260.71909
G1 X234.163 Y224.184 E265.19422
G1 X233.694 Y224.918 E266.06321
G1 X233.142 Y225.591 E266.93218
G1 X230.230 Y229.000 E271.40733
G1 X229.651 Y229.651 E272.27634
G1 X229.000 Y230.230 E273.14533
G1 X225.591 Y233.142 E277.62044
G1 X224.918 Y233.694 E278.48943
G1 X224.184 Y234.163 E279.35833
G1 X220.361 Y236.506 E283.83347
G1 X219.610 Y236.947 E284.70253
G1 X218.812 Y237.296 E285.57156
G1 X214.670 Y239.011 E290.04666
G1 X213.859 Y239.329 E290.91563
G1 X213.016 Y239.549 E291.78460
G1 X208.656 Y240.595 E296.25973
G1 X207.806 Y240.782 E297.12872
G1 X206.939 Y240.867 E297.99769
G1 X202.469 Y241.219 E302.47283
G1 X201.600 Y241.270 E303.34182
G1 X201.163 Y241.288 E303.77792
G1 X-1.163 Y241.288 E505.70707
G1 X-2.469 Y241.219 E507.01210
G1 X-6.939 Y240.867 E511.48723
G1 X-7.806 Y240.782 E512.35620
G1 X-8.656 Y240.595 E513.22520
G1 X-13.016 Y239.549 E517.70032
G1 X-13.859 Y239.329 E518.56932
G1 X-14.670 Y239.011 E519.43820
G1 X-18.813 Y237.295 E523.91427
G1 X-19.610 Y236.947 E524.78240
G1 X-20.361 Y236.506 E525.65146
G1 X-24.184 Y234.163 E530.12660
G1 X-24.918 Y233.694 E530.99552
G1 X-25.591 Y233.142 E531.86445
G1 X-29.000 Y230.230 E536.33957
G1 X-29.651 Y229.651 E537.20860
G1 X-30.230 Y229.000 E538.07764
G1 X-33.142 Y225.591 E542.55278
G1 X-33.694 Y224.918 E543.42173
G1 X-34.163 Y224.184 E544.29069
G1 X-36.506 Y220.361 E548.76611
G1 X-36.947 Y219.610 E549.63481
G1 X-37.295 Y218.812 E550.50379
G1 X-39.011 Y214.670 E554.97891
G1 X-39.329 Y213.859 E555.84792
G1 X-39.549 Y213.016 E556.71695
G1 X-40.595 Y208.656 E561.19207
G1 X-40.782 Y207.806 E562.06100
G1 X-40.867 Y206.939 E562.93001
G1 X-41.219 Y202.469 E567.40513
G1 X-41.288 Y201.163 E568.71015
G1 X-41.288 Y-1.163 E770.63932
G1 X-41.270 Y-1.600 E771.07540
G1 X-41.219 Y-2.469 E771.94439
G1 X-40.867 Y-6.939 E776.41952
G1 X-40.782 Y-7.806 E777.28850
G1 X-40.595 Y-8.656 E778.15746
G1 X-39.549 Y-13.016 E782.63258
G1 X-39.329 Y-13.859 E783.50160
G1 X-39.011 Y-14.670 E784.37063
G1 X-37.295 Y-18.812 E788.84575
G1 X-36.947 Y-19.610 E789.71471
G1 X-36.506 Y-20.361 E790.58371
G1 X-34.163 Y-24.184 E795.05884
G1 X-33.694 Y-24.918 E795.92781
G1 X-33.142 Y-25.591 E796.79679
G1 X-30.230 Y-29.000 E801.27191
G1 X-29.651 Y-29.651 E802.14089
G1 X-29.000 Y-30.230 E803.00986
G1 X-25.591 Y-33.142 E807.48500
G1 X-24.918 Y-33.694 E808.35400
G1 X-24.184 Y-34.163 E809.22304
G1 X-20.361 Y-36.506 E813.69816
G1 X-19.610 Y-36.947 E814.56710
G1 X-18.812 Y-37.295 E815.43607
G1 X-14.670 Y-39.011 E819.91121
G1 X-13.859 Y-39.329 E820.78021
G1 X-13.016 Y-39.549 E821.64921
G1 X-8.656 Y-40.595 E826.12433
G1 X-7.806 Y-40.782 E826.99334
G1 X-6.939 Y-40.867 E827.86238
G1 X-2.469 Y-41.219 E832.33750
G1 X-1.163 Y-41.287 E833.64247
G1 X201.163 Y-41.287 E1035.57159
G1 X202.469 Y-41.219 E1036.87655
G1 X206.939 Y-40.867 E1041.35169
G1 X207.806 Y-40.782 E1042.22071
G1 X208.656 Y-40.595 E1043.08974
G1 X213.016 Y-39.549 E1047.56487
G1 X213.859 Y-39.329 E1048.43383
G1 X214.670 Y-39.011 E1049.30288
G1 X218.812 Y-37.295 E1053.77800
G1 X219.610 Y-36.947 E1054.64695
G1 X220.361 Y-36.506 E1055.51590
G1 X222.827 Y-34.995 E1058.40189
G1 Z23.225 F7800.000
G1 E1056.40189 F2400.00000
G92 E0
G1 X230.230 Y-29.000 F7800.000
G1 E2.00000 F2400.00000
G1 F1800
G1 X233.142 Y-25.591 E2.25400
G1 X233.694 Y-24.918 E2.30333
G1 X234.163 Y-24.184 E2.35265
G1 X236.506 Y-20.361 E2.60665
G1 X236.947 Y-19.610 E2.65597
G1 X237.295 Y-18.812 E2.70529
G1 X239.012 Y-14.669 E2.95933
G1 X239.329 Y-13.859 E3.00862
G1 X239.549 Y-13.016 E3.05794
G1 X240.595 Y-8.656 E3.31194
G1 X240.782 Y-7.806 E3.36127
G1 X240.867 Y-6.939 E3.41059
G1 X241.219 Y-2.469 E3.66460
G1 X241.270 Y-1.600 E3.71391
G1 X241.287 Y-1.163 E3.73867
G1 X241.287 Y201.163 E15.19988
G1 X241.219 Y202.469 E15.27395
G1 X240.867 Y206.939 E15.52795
G1 X240.782 Y207.806 E15.57728
G1 X240.595 Y208.656 E15.62660
G1 X239.549 Y213.016 E15.88060
G1 X239.329 Y213.859 E15.92992
G1 X239.011 Y214.670 E15.97925
G1 X237.295 Y218.812 E16.23325
G1 X236.947 Y219.610 E16.28257
G1 X236.506 Y220.361 E16.33189
G1 X234.163 Y224.185 E16.58592
G1 X233.694 Y224.918 E16.63522
G1 X233.142 Y225.591 E16.68454
G1 X230.230 Y229.000 E16.93854
G1 X229.651 Y229.651 E16.98787
G1 X229.000 Y230.230 E17.03719
G1 X225.591 Y233.142 E17.29119
G1 X224.918 Y233.694 E17.34051
G1 X224.184 Y234.163 E17.38983
G1 X220.361 Y236.506 E17.64383
G1 X219.610 Y236.947 E17.69316
G1 X218.812 Y237.296 E17.74248
G1 X214.670 Y239.011 E17.99648
G1 X213.859 Y239.329 E18.04581
G1 X213.016 Y239.549 E18.09513
G1 X208.656 Y240.595 E18.34914
G1 X207.806 Y240.782 E18.39845
G1 X206.939 Y240.867 E18.44777
G1 X202.469 Y241.219 E18.70178
G1 X201.600 Y241.270 E18.75110
G1 X201.163 Y241.288 E18.77585
G1 X-1.163 Y241.288 E30.23707
G1 X-2.469 Y241.219 E30.31114
G1 X-6.939 Y240.867 E30.56514
G1 X-7.806 Y240.782 E30.61446
G1 X-8.656 Y240.595 E30.66378
G1 X-13.016 Y239.549 E30.91779
G1 X-13.859 Y239.329 E30.96711
G1 X-14.670 Y239.011 E31.01643
G1 X-18.812 Y237.296 E31.27043
G1 X-19.610 Y236.947 E31.31975
G1 X-20.361 Y236.506 E31.36908
G1 X-24.184 Y234.163 E31.62308
G1 X-24.918 Y233.694 E31.67240
G1 X-25.591 Y233.142 E31.72172
G1 X-29.000 Y230.230 E31.97572
G1 X-29.651 Y229.651 E32.02505
G1 X-30.230 Y229.000 E32.07437
G1 X-33.142 Y225.591 E32.32838
G1 X-33.694 Y224.918 E32.37770
G1 X-34.163 Y224.184 E32.42702
G1 X-36.506 Y220.361 E32.68102
G1 X-36.947 Y219.610 E32.73034
G1 X-37.295 Y218.812 E32.77966
G1 X-39.011 Y214.670 E33.03367
G1 X-39.329 Y213.859 E33.08299
G1 X-39.549 Y213.016 E33.13232
G1 X-40.595 Y208.656 E33.38632
G1 X-40.782 Y207.806 E33.43564
G1 X-40.867 Y206.939 E33.48496
G1 X-41.219 Y202.469 E33.73896
G1 X-41.288 Y201.163 E33.81303
G1 X-41.288 Y-1.163 E45.27425
G1 X-41.270 Y-1.600 E45.29900
G1 X-41.219 Y-2.469 E45.34832
G1 X-40.867 Y-6.939 E45.60232
G1 X-40.782 Y-7.806 E45.65165
G1 X-40.595 Y-8.656 E45.70097
G1 X-39.549 Y-13.016 E45.95497
G1 X-39.329 Y-13.859 E46.00429
G1 X-39.011 Y-14.670 E46.05362
G1 X-37.295 Y-18.812 E46.30762
G1 X-36.947 Y-19.610 E46.35694
G1 X-36.506 Y-20.361 E46.40626
G1 X-34.163 Y-24.184 E46.66027
G1 X-33.694 Y-24.918 E46.70959
G1 X-33.142 Y-25.591 E46.75891
G1 X-30.230 Y-29.000 E47.01291
G1 X-29.651 Y-29.651 E47.06223
G1 X-29.000 Y-30.230 E47.11155
G1 X-25.591 Y-33.142 E47.36556
G1 X-24.918 Y-33.694 E47.41488
G1 X-24.184 Y-34.163 E47.46421
G1 X-20.361 Y-36.506 E47.71821
G1 X-19.610 Y-36.947 E47.76753
G1 X-18.812 Y-37.295 E47.81685
G1 X-14.670 Y-39.011 E48.07085
G1 X-13.859 Y-39.329 E48.12017
G1 X-13.016 Y-39.549 E48.16950
G1 X-8.656 Y-40.595 E48.42350
G1 X-7.806 Y-40.782 E48.47282
G1 X-6.939 Y-40.867 E48.52215
G1 X-2.469 Y-41.219 E48.77615
G1 X-1.163 Y-41.287 E48.85022
G1 X201.163 Y-41.287 E60.31143
G1 X201.600 Y-41.270 E60.33619
G1 X202.469 Y-41.219 E60.38550
G1 X206.939 Y-40.867 E60.63951
G1 X207.806 Y-40.782 E60.68883
G1 X208.656 Y-40.595 E60.73815
G1 X213.016 Y-39.549 E60.99216
G1 X213.859 Y-39.329 E61.04148
G1 X214.670 Y-39.011 E61.09080
G1 X218.812 Y-37.295 E61.34481
G1 X219.610 Y-36.947 E61.39413
G1 X220.361 Y-36.506 E61.44345
G1 X223.921 Y-34.325 E61.67998
G1 X224.918 Y-33.694 E61.74677
G1 X225.591 Y-33.142 E61.79610
G1 X227.789 Y-31.264 E61.95989
G1 Z24.225 F7800.000
G1 E59.95989 F2400.00000
G92 E0
G1 X230.230 Y-29.000 F7800.000
G1 E2.00000 F2400.00000
G1 F1800
G1 X233.142 Y-25.591 E2.25400
G1 X233.694 Y-24.918 E2.30333
G1 X234.163 Y-24.184 E2.35265
G1 X236.338 Y-20.636 E2.58840
G1 X236.947 Y-19.610 E2.65597
G1 X237.295 Y-18.812 E2.70529
G1 X239.011 Y-14.670 E2.95929
G1 X239.329 Y-13.859 E3.00862
G1 X239.549 Y-13.016 E3.05794
G1 X240.595 Y-8.656 E3.31194
G1 X240.782 Y-7.806 E3.36127
G1 X240.867 Y-6.939 E3.41059
G1 X241.219 Y-2.469 E3.66459
G1 X241.270 Y-1.600 E3.71391
G1 X241.287 Y-1.163 E3.73866
G1 X241.287 Y201.163 E15.19988
G1 X241.219 Y202.469 E15.27395
G1 X240.867 Y206.939 E15.52795
G1 X240.782 Y207.806 E15.57728
G1 X240.595 Y208.656 E15.62660
G1 X239.549 Y213.016 E15.88060
G1 X239.329 Y213.859 E15.92992
G1 X239.011 Y214.670 E15.97925
G1 X237.295 Y218.812 E16.23325
G1 X236.947 Y219.610 E16.28257
G1 X236.506 Y220.361 E16.33189
G1 X234.163 Y224.184 E16.58589
G1 X233.694 Y224.918 E16.63522
G1 X233.142 Y225.591 E16.68454
G1 X230.230 Y229.000 E16.93854
G1 X229.651 Y229.651 E16.98787
G1 X229.000 Y230.230 E17.03719
G1 X225.591 Y233.142 E17.29119
G1 X224.918 Y233.694 E17.34051
G1 X224.184 Y234.163 E17.38983
G1 X220.361 Y236.506 E17.64383
G1 X219.610 Y236.947 E17.69316
G1 X218.812 Y237.296 E17.74248
G1 X214.670 Y239.011 E17.99648
G1 X213.859 Y239.329 E18.04581
G1 X213.016 Y239.549 E18.09513
G1 X208.656 Y240.595 E18.34914
G1 X207.806 Y240.782 E18.39845
G1 X206.939 Y240.867 E18.44777
G1 X202.469 Y241.219 E18.70178
G1 X201.600 Y241.270 E18.75110
G1 X201.163 Y241.288 E18.77585
G1 X-1.163 Y241.288 E30.23707
G1 X-2.469 Y241.219 E30.31114
G1 X-6.939 Y240.867 E30.56514
G1 X-7.806 Y240.782 E30.61446
G1 X-8.656 Y240.595 E30.66379
G1 X-13.016 Y239.549 E30.91779
G1 X-13.859 Y239.329 E30.96711
G1 X-14.670 Y239.011 E31.01643
G1 X-18.812 Y237.295 E31.27044
G1 X-19.610 Y236.947 E31.31976
G1 X-20.361 Y236.506 E31.36908
G1 X-24.184 Y234.163 E31.62309
G1 X-24.918 Y233.694 E31.67241
G1 X-25.591 Y233.142 E31.72172
G1 X-29.000 Y230.230 E31.97573
G1 X-29.651 Y229.651 E32.02505
G1 X-30.230 Y229.000 E32.07438
G1 X-33.142 Y225.591 E32.32838
G1 X-33.694 Y224.918 E32.37770
G1 X-34.163 Y224.184 E32.42702
G1 X-36.506 Y220.361 E32.68103
G1 X-36.947 Y219.610 E32.73035
G1 X-37.295 Y218.812 E32.77967
G1 X-39.011 Y214.670 E33.03367
G1 X-39.329 Y213.859 E33.08299
G1 X-39.549 Y213.016 E33.13232
G1 X-40.595 Y208.656 E33.38632
G1 X-40.782 Y207.806 E33.43564
G1 X-40.867 Y206.939 E33.48496
G1 X-41.219 Y202.469 E33.73896
G1 X-41.288 Y201.163 E33.81303
G1 X-41.288 Y-1.163 E45.27425
G1 X-41.270 Y-1.600 E45.29900
G1 X-41.219 Y-2.469 E45.34833
G1 X-40.867 Y-6.939 E45.60233
G1 X-40.782 Y-7.806 E45.65165
G1 X-40.595 Y-8.656 E45.70097
G1 X-39.549 Y-13.016 E45.95497
G1 X-39.329 Y-13.859 E46.00430
G1 X-39.011 Y-14.670 E46.05362
G1 X-37.295 Y-18.812 E46.30762
G1 X-36.947 Y-19.610 E46.35695
G1 X-36.506 Y-20.361 E46.40627
G1 X-34.163 Y-24.184 E46.66027
G1 X-33.694 Y-24.918 E46.70959
G1 X-33.142 Y-25.591 E46.75891
G1 X-30.230 Y-29.000 E47.01292
G1 X-29.651 Y-29.651 E47.06224
G1 X-29.000 Y-30.229 E47.11156
G1 X-25.591 Y-33.142 E47.36556
G1 X-24.918 Y-33.694 E47.41489
G1 X-24.184 Y-34.163 E47.46421
G1 X-20.361 Y-36.506 E47.71821
G1 X-19.610 Y-36.947 E47.76753
G1 X-18.812 Y-37.295 E47.81685
G1 X-14.670 Y-39.011 E48.07086
G1 X-13.859 Y-39.329 E48.12018
G1 X-13.016 Y-39.549 E48.16950
G1 X-8.656 Y-40.595 E48.42350
G1 X-7.806 Y-40.782 E48.47283
G1 X-6.939 Y-40.867 E48.52215
G1 X-2.469 Y-41.219 E48.77616
G1 X-1.163 Y-41.287 E48.85022
G1 X201.163 Y-41.287 E60.31144
G1 X201.600 Y-41.270 E60.33619
G1 X202.469 Y-41.219 E60.38551
G1 X206.939 Y-40.867 E60.63951
G1 X207.806 Y-40.782 E60.68884
G1 X208.656 Y-40.595 E60.73816
G1 X213.016 Y-39.549 E60.99216
G1 X213.859 Y-39.329 E61.04149
G1 X214.670 Y-39.011 E61.09081
G1 X218.812 Y-37.295 E61.34481
G1 X219.610 Y-36.947 E61.39413
G1 X220.361 Y-36.506 E61.44345
G1 X223.910 Y-34.332 E61.67920
G1 X224.918 Y-33.694 E61.74678
G1 X225.591 Y-33.142 E61.79610
G1 X227.789 Y-31.264 E61.95990
M106 S163.2
G1 Z25.225 F7800.000
G1 E59.95990 F2400.00000
G92 E0
G1 X230.230 Y-29.000 F7800.000
G1 E2.00000 F2400.00000
G1 F1800
G1 X233.142 Y-25.591 E2.25361
G1 X233.694 Y-24.918 E2.30285
G1 X234.163 Y-24.184 E2.35210
G1 X236.506 Y-20.361 E2.60571
G1 X236.947 Y-19.610 E2.65495
G1 X237.295 Y-18.812 E2.70420
G1 X239.011 Y-14.669 E2.95781
G1 X239.329 Y-13.859 E3.00705
G1 X239.549 Y-13.016 E3.05630
G1 X240.595 Y-8.656 E3.30990
G1 X240.782 Y-7.806 E3.35915
G1 X240.867 Y-6.939 E3.40840
G1 X241.219 Y-2.469 E3.66201
G1 X241.270 Y-1.600 E3.71125
G1 F1800
G1 X241.287 Y-1.163 E3.73604
G1 X241.287 Y201.163 E15.21516
G1 X241.219 Y202.469 E15.28935
G1 F1800
G1 X240.867 Y206.939 E15.54296
G1 X240.782 Y207.806 E15.59220
G1 X240.595 Y208.656 E15.64145
G1 X239.549 Y213.016 E15.89506
G1 X239.329 Y213.859 E15.94431
G1 X239.011 Y214.670 E15.99355
G1 X237.295 Y218.812 E16.24716
G1 X236.947 Y219.610 E16.29640
G1 X236.506 Y220.361 E16.34565
G1 X234.163 Y224.184 E16.59925
G1 X233.694 Y224.918 E16.64850
G1 X233.142 Y225.591 E16.69775
G1 X230.230 Y229.000 E16.95135
G1 X229.651 Y229.651 E17.00060
G1 X229.000 Y230.230 E17.04985
G1 X225.591 Y233.142 E17.30345
G1 X224.918 Y233.694 E17.35270
G1 X224.184 Y234.163 E17.40194
G1 X220.361 Y236.506 E17.65555
G1 X219.610 Y236.947 E17.70480
G1 X218.812 Y237.296 E17.75405
G1 X214.670 Y239.011 E18.00765
G1 X213.859 Y239.329 E18.05690
G1 X213.016 Y239.549 E18.10614
G1 X208.983 Y240.517 E18.34076
G1 X207.806 Y240.782 E18.40899
G1 F1800
G1 X206.939 Y240.867 E18.45831
G1 X202.469 Y241.219 E18.71232
G1 X201.163 Y241.288 E18.78639
G1 X-1.163 Y241.288 E30.24760
G1 X-2.469 Y241.219 E30.32168
G1 X-6.939 Y240.867 E30.57568
G1 X-7.806 Y240.782 E30.62500
G1 X-8.656 Y240.595 E30.67432
G1 X-13.016 Y239.549 E30.92832
G1 X-13.859 Y239.329 E30.97765
G1 X-14.670 Y239.011 E31.02697
G1 X-18.812 Y237.296 E31.28097
G1 X-19.610 Y236.947 E31.33029
G1 X-20.361 Y236.506 E31.37962
G1 X-24.184 Y234.163 E31.63362
G1 X-24.918 Y233.694 E31.68294
G1 X-25.591 Y233.142 E31.73226
G1 X-29.000 Y230.230 E31.98626
G1 X-29.651 Y229.651 E32.03559
G1 X-30.230 Y229.000 E32.08491
G1 X-33.142 Y225.591 E32.33891
G1 X-33.694 Y224.918 E32.38824
G1 X-34.163 Y224.184 E32.43756
G1 X-36.506 Y220.361 E32.69156
G1 X-36.947 Y219.610 E32.74088
G1 X-37.295 Y218.812 E32.79020
G1 X-39.011 Y214.670 E33.04421
G1 X-39.329 Y213.859 E33.09353
G1 X-39.549 Y213.016 E33.14285
G1 X-40.595 Y208.656 E33.39686
G1 X-40.709 Y208.086 E33.42981
G1 F1800
G1 X-40.936 Y206.945 E33.49588
G1 F1800
G1 X-40.977 Y206.682 E33.51106
G1 X-41.011 Y205.685 E33.56790
G1 F1800
G1 X-41.044 Y204.689 E33.62451
G1 F1800
G1 X-41.270 Y201.600 E33.79970
G1 F1800
G1 X-41.288 Y201.163 E33.82449
G1 X-41.288 Y-1.163 E45.30359
G1 X-41.219 Y-2.469 E45.37778
G1 F1800
G1 X-40.867 Y-6.939 E45.63139
G1 X-40.782 Y-7.806 E45.68063
G1 X-40.595 Y-8.656 E45.72987
G1 X-39.549 Y-13.016 E45.98348
G1 X-39.329 Y-13.859 E46.03273
G1 X-39.011 Y-14.670 E46.08198
G1 X-37.295 Y-18.812 E46.33558
G1 X-36.947 Y-19.610 E46.38483
G1 X-36.506 Y-20.361 E46.43407
G1 X-34.163 Y-24.184 E46.68768
G1 X-33.694 Y-24.918 E46.73693
G1 X-33.142 Y-25.591 E46.78617
G1 X-30.448 Y-28.745 E47.02079
G1 X-29.651 Y-29.651 E47.08902
G1 X-29.000 Y-30.230 E47.13826
G1 X-25.591 Y-33.142 E47.39187
G1 X-24.918 Y-33.694 E47.44112
G1 X-24.184 Y-34.163 E47.49037
G1 X-20.361 Y-36.506 E47.74397
