; generated by Slic3r 1.3.0 on 2023-06-13 at 12:50:55

; external perimeters extrusion width = 24.45mm (726.99mm^3/s)
; perimeters extrusion width = 31.11mm (1854.02mm^3/s)
; infill extrusion width = 27.78mm (2205.33mm^3/s)
; solid infill extrusion width = 31.11mm (618.01mm^3/s)
; top infill extrusion width = 31.11mm (463.51mm^3/s)

M107
M104 S200 ; set temperature
G28 ; home all axes
G1 Z5 F5000 ; lift nozzle

; Filament gcode

M109 S200 ; set temperature and wait for it to be reached
G21 ; set units to millimeters
G90 ; use absolute coordinates
M82 ; use absolute distances for extrusion
G92 E0
G1 Z22.225 F7800.000
G1 E-2.00000 F2400.00000
G92 E0
G1 X225.591 Y-33.142 F7800.000
G1 E2.00000 F2400.00000
G1 F1800
G1 X229.000 Y-30.229 E6.47513
G1 X229.651 Y-29.651 E7.34405
G1 X230.230 Y-29.000 E8.21301
G1 X233.142 Y-25.591 E12.68814
G1 X233.694 Y-24.918 E13.55714
G1 X234.163 Y-24.184 E14.42615
G1 X236.506 Y-20.361 E18.90126
G1 X236.947 Y-19.610 E19.77026
G1 X237.295 Y-18.812 E20.63918
G1 X238.970 Y-14.770 E25.00554
G1 X239.329 Y-13.859 E25.98333
G1 X239.549 Y-13.016 E26.85232
G1 X240.595 Y-8.656 E31.32745
G1 X240.782 Y-7.806 E32.19646
G1 X240.867 Y-6.939 E33.06549
G1 X241.219 Y-2.469 E37.54062
G1 X241.287 Y-1.163 E38.84560
G1 X241.287 Y201.163 E240.77470
G1 X241.270 Y201.600 E241.21082
G1 X241.219 Y202.469 E242.07973
G1 X240.867 Y206.939 E246.55486
G1 X240.782 Y207.806 E247.42390
G1 X240.595 Y208.656 E248.29290
G1 X239.549 Y213.016 E252.76802
G1 X239.329 Y213.859 E253.63703
G1 X239.011 Y214.670 E254.50603
G1 X237.295 Y218.812 E258.98115
G1 X236.947 Y219.610 E259.85012
G1 X236.506 Y220.361 E260.71907
G1 X234.163 Y224.185 E265.19544
G1 X233.694 Y224.918 E266.06322
G1 X233.142 Y225.591 E266.93219
G1 X230.230 Y229.000 E271.40734
G1 X229.651 Y229.651 E272.27635
G1 X229.000 Y230.230 E273.14534
G1 X225.591 Y233.142 E277.62044
G1 X224.918 Y233.694 E278.48943
G1 X224.184 Y234.163 E279.35834
G1 X220.361 Y236.506 E283.83348
G1 X219.610 Y236.947 E284.70254
G1 X218.812 Y237.296 E285.57156
G1 X214.670 Y239.011 E290.04667
G1 X213.859 Y239.329 E290.91564
G1 X213.016 Y239.549 E291.78460
G1 X208.656 Y240.595 E296.25973
G1 X207.806 Y240.782 E297.12866
G1 X206.939 Y240.867 E297.99770
G1 X202.469 Y241.219 E302.47284
G1 X201.600 Y241.270 E303.34183
G1 X201.163 Y241.288 E303.77793
G1 X-1.163 Y241.288 E505.70707
G1 X-2.469 Y241.219 E507.01211
G1 X-6.939 Y240.867 E511.48723
G1 X-7.806 Y240.782 E512.35620
G1 X-8.656 Y240.595 E513.22520
G1 X-13.016 Y239.549 E517.70032
G1 X-13.859 Y239.329 E518.56932
G1 X-14.670 Y239.011 E519.43824
G1 X-18.812 Y237.296 E523.91336
G1 X-19.610 Y236.947 E524.78241
G1 X-20.361 Y236.506 E525.65146
G1 X-24.184 Y234.163 E530.12660
G1 X-24.918 Y233.694 E530.99552
G1 X-25.591 Y233.142 E531.86446
G1 X-29.000 Y230.230 E536.33958
G1 X-29.651 Y229.651 E537.20861
G1 X-30.230 Y229.000 E538.07765
G1 X-33.142 Y225.591 E542.55278
G1 X-33.694 Y224.918 E543.42173
G1 X-34.163 Y224.184 E544.29070
G1 X-36.506 Y220.361 E548.76605
G1 X-36.947 Y219.610 E549.63482
G1 X-37.295 Y218.812 E550.50380
G1 X-39.011 Y214.670 E554.97892
G1 X-39.329 Y213.859 E555.84792
G1 X-39.549 Y213.016 E556.71696
G1 X-40.595 Y208.656 E561.19208
G1 X-40.782 Y207.806 E562.06101
G1 X-40.867 Y206.939 E562.93001
G1 X-41.219 Y202.469 E567.40514
G1 X-41.288 Y201.163 E568.71016
G1 X-41.288 Y-1.163 E770.63932
G1 X-41.270 Y-1.600 E771.07541
G1 X-41.219 Y-2.469 E771.94439
G1 X-40.867 Y-6.939 E776.41953
G1 X-40.782 Y-7.806 E777.28851
G1 X-40.595 Y-8.656 E778.15746
G1 X-39.549 Y-13.016 E782.63259
G1 X-39.329 Y-13.859 E783.50161
G1 X-39.011 Y-14.670 E784.37063
G1 X-37.295 Y-18.812 E788.84575
G1 X-36.947 Y-19.610 E789.71471
G1 X-36.506 Y-20.361 E790.58372
G1 X-34.163 Y-24.184 E795.05884
G1 X-33.694 Y-24.918 E795.92782
G1 X-33.142 Y-25.591 E796.79679
G1 X-30.229 Y-29.000 E801.27201
G1 X-29.651 Y-29.651 E802.14090
G1 X-29.000 Y-30.230 E803.00986
G1 X-25.591 Y-33.142 E807.48501
G1 X-24.918 Y-33.694 E808.35400
G1 X-24.184 Y-34.163 E809.22305
G1 X-20.361 Y-36.506 E813.69816
G1 X-19.610 Y-36.947 E814.56711
G1 X-18.812 Y-37.295 E815.43608
G1 X-14.670 Y-39.011 E819.91121
G1 X-13.859 Y-39.329 E820.78021
G1 X-13.016 Y-39.549 E821.64921
G1 X-8.656 Y-40.595 E826.12433
G1 X-7.806 Y-40.782 E826.99334
G1 X-6.939 Y-40.867 E827.86238
G1 X-2.469 Y-41.219 E832.33751
G1 X-1.163 Y-41.287 E833.64247
G1 X201.163 Y-41.287 E1035.57160
G1 X202.469 Y-41.219 E1036.87656
G1 X206.939 Y-40.867 E1041.35170
G1 X207.806 Y-40.782 E1042.22072
G1 X208.656 Y-40.595 E1043.08974
G1 X213.016 Y-39.549 E1047.56487
G1 X213.859 Y-39.329 E1048.43384
G1 X214.670 Y-39.011 E1049.30288
G1 X218.812 Y-37.295 E1053.77800
G1 X219.610 Y-36.947 E1054.64696
G1 X220.361 Y-36.506 E1055.51591
G1 X222.827 Y-34.995 E1058.40190
G1 Z23.225 F7800.000
G1 E1056.40190 F2400.00000
G92 E0
G1 X230.230 Y-29.000 F7800.000
G1 E2.00000 F2400.00000
G1 F1800
G1 X233.142 Y-25.591 E2.25400
G1 X233.694 Y-24.918 E2.30333
G1 X234.163 Y-24.184 E2.35265
G1 X236.506 Y-20.361 E2.60665
G1 X236.947 Y-19.610 E2.65597
G1 X237.295 Y-18.812 E2.70529
G1 X239.012 Y-14.669 E2.95932
G1 X239.329 Y-13.859 E3.00862
G1 X239.549 Y-13.016 E3.05794
G1 X240.595 Y-8.656 E3.31194
G1 X240.782 Y-7.806 E3.36127
G1 X240.867 Y-6.939 E3.41059
G1 X241.219 Y-2.469 E3.66460
G1 X241.270 Y-1.600 E3.71391
G1 X241.287 Y-1.163 E3.73867
G1 X241.287 Y201.163 E15.19988
G1 X241.219 Y202.469 E15.27395
G1 X240.867 Y206.939 E15.52795
G1 X240.782 Y207.806 E15.57728
G1 X240.595 Y208.656 E15.62660
G1 X239.549 Y213.016 E15.88061
G1 X239.329 Y213.859 E15.92993
G1 X239.011 Y214.670 E15.97925
G1 X237.295 Y218.812 E16.23325
G1 X236.947 Y219.610 E16.28258
G1 X236.506 Y220.361 E16.33190
G1 X234.163 Y224.185 E16.58591
G1 X233.694 Y224.918 E16.63522
G1 X233.142 Y225.591 E16.68454
G1 X230.230 Y229.000 E16.93855
G1 X229.651 Y229.651 E16.98787
G1 X229.000 Y230.230 E17.03719
G1 X225.591 Y233.142 E17.29119
G1 X224.918 Y233.694 E17.34052
G1 X224.184 Y234.163 E17.38983
G1 X220.361 Y236.506 E17.64384
G1 X219.610 Y236.947 E17.69316
G1 X218.812 Y237.296 E17.74249
G1 X214.670 Y239.011 E17.99649
G1 X213.859 Y239.329 E18.04581
G1 X213.016 Y239.549 E18.09513
G1 X208.656 Y240.595 E18.34913
G1 X207.806 Y240.782 E18.39845
G1 X206.939 Y240.867 E18.44778
G1 X202.469 Y241.219 E18.70178
G1 X201.600 Y241.270 E18.75110
G1 X201.163 Y241.288 E18.77586
G1 X-1.163 Y241.288 E30.23708
G1 X-2.469 Y241.219 E30.31115
G1 X-6.939 Y240.867 E30.56515
G1 X-7.806 Y240.782 E30.61447
G1 X-8.656 Y240.595 E30.66379
G1 X-13.016 Y239.549 E30.91780
G1 X-13.859 Y239.329 E30.96712
G1 X-14.670 Y239.011 E31.01644
G1 X-18.812 Y237.296 E31.27044
G1 X-19.610 Y236.947 E31.31976
G1 X-20.361 Y236.506 E31.36909
G1 X-24.184 Y234.163 E31.62309
G1 X-24.918 Y233.694 E31.67241
G1 X-25.591 Y233.142 E31.72173
G1 X-29.000 Y230.230 E31.97573
G1 X-29.651 Y229.651 E32.02506
G1 X-30.230 Y229.000 E32.07438
G1 X-33.142 Y225.591 E32.32839
G1 X-33.694 Y224.918 E32.37771
G1 X-34.163 Y224.184 E32.42703
G1 X-36.506 Y220.361 E32.68103
G1 X-36.947 Y219.610 E32.73035
G1 X-37.295 Y218.812 E32.77968
G1 X-39.011 Y214.670 E33.03368
G1 X-39.329 Y213.859 E33.08300
G1 X-39.549 Y213.016 E33.13233
G1 X-40.595 Y208.656 E33.38633
G1 X-40.782 Y207.806 E33.43565
G1 X-40.867 Y206.939 E33.48497
G1 X-41.219 Y202.469 E33.73897
G1 X-41.288 Y201.163 E33.81304
G1 X-41.288 Y-1.163 E45.27426
G1 X-41.270 Y-1.600 E45.29901
G1 X-41.219 Y-2.469 E45.34834
G1 X-40.867 Y-6.939 E45.60234
G1 X-40.782 Y-7.806 E45.65166
G1 X-40.595 Y-8.656 E45.70098
G1 X-39.549 Y-13.016 E45.95498
G1 X-39.329 Y-13.859 E46.00431
G1 X-39.011 Y-14.670 E46.05363
G1 X-37.295 Y-18.812 E46.30763
G1 X-36.947 Y-19.610 E46.35696
G1 X-36.506 Y-20.361 E46.40628
G1 X-34.163 Y-24.184 E46.66028
G1 X-33.694 Y-24.918 E46.70960
G1 X-33.142 Y-25.591 E46.75893
G1 X-30.230 Y-29.000 E47.01293
G1 X-29.651 Y-29.651 E47.06225
G1 X-29.000 Y-30.230 E47.11157
G1 X-25.591 Y-33.142 E47.36557
G1 X-24.918 Y-33.694 E47.41490
G1 X-24.184 Y-34.163 E47.46422
G1 X-20.361 Y-36.506 E47.71822
G1 X-19.610 Y-36.947 E47.76754
G1 X-18.812 Y-37.295 E47.81687
G1 X-14.670 Y-39.011 E48.07087
G1 X-13.859 Y-39.329 E48.12019
G1 X-13.016 Y-39.549 E48.16951
G1 X-8.656 Y-40.595 E48.42352
G1 X-7.806 Y-40.782 E48.47284
G1 X-6.939 Y-40.867 E48.52216
G1 X-2.469 Y-41.219 E48.77617
G1 X-1.163 Y-41.287 E48.85023
G1 X201.163 Y-41.287 E60.31145
G1 X201.600 Y-41.270 E60.33621
G1 X202.469 Y-41.219 E60.38552
G1 X206.939 Y-40.867 E60.63953
G1 X207.806 Y-40.782 E60.68885
G1 X208.656 Y-40.595 E60.73818
G1 X213.016 Y-39.549 E60.99218
G1 X213.859 Y-39.329 E61.04150
G1 X214.670 Y-39.011 E61.09082
G1 X218.812 Y-37.295 E61.34483
G1 X219.610 Y-36.947 E61.39415
G1 X220.361 Y-36.506 E61.44347
G1 X223.994 Y-34.280 E61.68484
G1 X224.918 Y-33.694 E61.74679
G1 X225.591 Y-33.142 E61.79612
G1 X227.789 Y-31.264 E61.95991
G1 Z24.225 F7800.000
G1 E59.95991 F2400.00000
G92 E0
G1 X230.230 Y229.000 F7800.000
G1 E2.00000 F2400.00000
G1 F1800
G1 X229.651 Y229.651 E2.04932
G1 X229.000 Y230.230 E2.09865
G1 X225.591 Y233.142 E2.35265
G1 X224.918 Y233.694 E2.40197
G1 X224.184 Y234.163 E2.45129
G1 X220.361 Y236.506 E2.70529
G1 X219.610 Y236.947 E2.75462
G1 X218.812 Y237.296 E2.80394
G1 X214.670 Y239.011 E3.05794
G1 X213.859 Y239.329 E3.10726
G1 X213.016 Y239.549 E3.15658
G1 X208.656 Y240.595 E3.41062
G1 X207.806 Y240.782 E3.45991
G1 X206.939 Y240.867 E3.50923
G1 X202.469 Y241.219 E3.76323
G1 X201.163 Y241.288 E3.83730
G1 X-1.163 Y241.288 E15.29850
G1 X-1.600 Y241.270 E15.32325
G1 X-2.469 Y241.219 E15.37257
G1 X-6.939 Y240.867 E15.62657
G1 X-7.806 Y240.782 E15.67590
G1 X-8.656 Y240.595 E15.72522
G1 X-13.016 Y239.549 E15.97922
G1 X-13.859 Y239.329 E16.02854
G1 X-14.670 Y239.011 E16.07786
G1 X-18.598 Y237.384 E16.31872
G1 X-19.610 Y236.947 E16.38119
G1 X-20.361 Y236.506 E16.43051
G1 X-24.184 Y234.163 E16.68451
G1 X-24.918 Y233.694 E16.73383
G1 X-25.591 Y233.142 E16.78315
G1 X-29.000 Y230.230 E17.03715
G1 X-29.651 Y229.651 E17.08648
G1 X-30.230 Y229.000 E17.13580
G1 X-33.142 Y225.591 E17.38981
G1 X-33.694 Y224.918 E17.43913
G1 X-34.163 Y224.184 E17.48845
G1 X-36.506 Y220.361 E17.74245
G1 X-36.947 Y219.610 E17.79177
G1 X-37.295 Y218.812 E17.84109
G1 X-39.011 Y214.670 E18.09510
G1 X-39.329 Y213.859 E18.14442
G1 X-39.549 Y213.016 E18.19374
G1 X-40.595 Y208.656 E18.44774
G1 X-40.782 Y207.806 E18.49706
G1 X-40.867 Y206.939 E18.54639
G1 X-41.219 Y202.469 E18.80039
G1 X-41.288 Y201.163 E18.87446
G1 X-41.288 Y-1.163 E30.33566
G1 X-41.270 Y-1.600 E30.36041
G1 X-41.219 Y-2.469 E30.40973
G1 X-40.867 Y-6.939 E30.66373
G1 X-40.782 Y-7.806 E30.71305
G1 X-40.595 Y-8.656 E30.76237
G1 X-39.549 Y-13.016 E31.01638
G1 X-39.329 Y-13.859 E31.06570
G1 X-39.011 Y-14.670 E31.11502
G1 X-37.295 Y-18.812 E31.36903
G1 X-36.947 Y-19.610 E31.41835
G1 X-36.506 Y-20.361 E31.46767
G1 X-34.163 Y-24.184 E31.72167
G1 X-33.694 Y-24.918 E31.77099
G1 X-33.142 Y-25.591 E31.82031
G1 X-30.230 Y-29.000 E32.07432
G1 X-29.651 Y-29.651 E32.12364
G1 X-29.000 Y-30.230 E32.17296
G1 X-25.591 Y-33.142 E32.42696
G1 X-24.918 Y-33.694 E32.47628
G1 X-24.184 Y-34.163 E32.52561
G1 X-20.361 Y-36.506 E32.77961
G1 X-19.610 Y-36.947 E32.82893
G1 X-18.812 Y-37.295 E32.87825
G1 X-14.670 Y-39.011 E33.13225
G1 X-13.859 Y-39.329 E33.18158
G1 X-13.016 Y-39.549 E33.23090
G1 X-8.656 Y-40.595 E33.48490
G1 X-7.806 Y-40.782 E33.53423
G1 X-6.939 Y-40.867 E33.58355
G1 X-2.469 Y-41.219 E33.83755
G1 X-1.163 Y-41.287 E33.91162
G1 X201.163 Y-41.287 E45.37281
G1 X201.600 Y-41.270 E45.39757
G1 X202.469 Y-41.219 E45.44688
G1 X206.939 Y-40.867 E45.70089
G1 X207.806 Y-40.782 E45.75021
G1 X208.656 Y-40.595 E45.79954
G1 X213.016 Y-39.549 E46.05354
G1 X213.859 Y-39.329 E46.10286
G1 X214.670 Y-39.011 E46.15218
G1 X218.812 Y-37.295 E46.40619
G1 X219.610 Y-36.947 E46.45551
G1 X220.361 Y-36.506 E46.50483
G1 X224.184 Y-34.163 E46.75883
G1 X224.918 Y-33.694 E46.80815
G1 X225.591 Y-33.142 E46.85748
G1 X229.000 Y-30.229 E47.11148
G1 X229.651 Y-29.651 E47.16080
G1 X230.230 Y-29.000 E47.21012
G1 X233.142 Y-25.591 E47.46412
G1 X233.694 Y-24.918 E47.51344
G1 X234.163 Y-24.184 E47.56277
G1 X236.506 Y-20.361 E47.81677
G1 X236.947 Y-19.610 E47.86609
G1 X237.295 Y-18.812 E47.91541
G1 X239.011 Y-14.670 E48.16941
G1 X239.329 Y-13.859 E48.21874
G1 X239.549 Y-13.016 E48.26806
G1 X240.595 Y-8.656 E48.52206
G1 X240.782 Y-7.806 E48.57138
G1 X240.867 Y-6.939 E48.62071
G1 X241.219 Y-2.469 E48.87471
G1 X241.287 Y-1.163 E48.94878
G1 X241.287 Y201.163 E60.40997
G1 X241.219 Y202.469 E60.48404
G1 X240.867 Y206.939 E60.73804
G1 X240.782 Y207.806 E60.78737
G1 X240.595 Y208.656 E60.83669
G1 X239.549 Y213.016 E61.09069
G1 X239.329 Y213.859 E61.14002
G1 X239.011 Y214.670 E61.18934
G1 X237.295 Y218.812 E61.44334
G1 X236.947 Y219.610 E61.49266
G1 X236.506 Y220.361 E61.54198
G1 X234.163 Y224.184 E61.79598
G1 X233.694 Y224.918 E61.84531
G1 X232.395 Y226.465 E61.95978
M106 S163.2
G1 Z25.225 F7800.000
G1 E59.95978 F2400.00000
G92 E0
G1 X230.230 Y229.000 F7800.000
G1 E2.00000 F2400.00000
G1 F1800
G1 X229.651 Y229.651 E2.04932
G1 X229.000 Y230.230 E2.09865
G1 X225.591 Y233.142 E2.35265
G1 X224.918 Y233.694 E2.40197
G1 X224.184 Y234.163 E2.45129
G1 X220.361 Y236.506 E2.70529
G1 X219.610 Y236.947 E2.75462
G1 X218.812 Y237.296 E2.80394
G1 X214.670 Y239.011 E3.05794
G1 X213.859 Y239.329 E3.10726
G1 X213.016 Y239.549 E3.15658
G1 X208.656 Y240.595 E3.41058
G1 X207.806 Y240.782 E3.45991
G1 X206.939 Y240.867 E3.50923
G1 X202.469 Y241.219 E3.76323
G1 X201.163 Y241.288 E3.83730
G1 X-1.163 Y241.288 E15.29850
G1 X-1.600 Y241.270 E15.32325
G1 X-2.469 Y241.219 E15.37257
G1 X-6.939 Y240.867 E15.62658
G1 X-7.806 Y240.782 E15.67590
G1 X-8.656 Y240.595 E15.72522
G1 X-13.016 Y239.549 E15.97922
G1 X-13.859 Y239.329 E16.02854
G1 X-14.670 Y239.011 E16.07786
G1 X-18.588 Y237.388 E16.31813
G1 X-19.610 Y236.947 E16.38119
G1 X-20.361 Y236.506 E16.43051
G1 X-24.184 Y234.163 E16.68452
G1 X-24.918 Y233.694 E16.73383
G1 X-25.591 Y233.142 E16.78315
G1 X-29.000 Y230.230 E17.03715
G1 X-29.651 Y229.651 E17.08648
G1 X-30.230 Y229.000 E17.13581
G1 X-33.142 Y225.591 E17.38981
G1 X-33.694 Y224.918 E17.43913
G1 X-34.163 Y224.184 E17.48845
G1 X-36.506 Y220.361 E17.74245
G1 X-36.947 Y219.610 E17.79177
G1 X-37.295 Y218.812 E17.84109
G1 X-38.919 Y214.894 E18.08136
G1 X-39.329 Y213.859 E18.14442
G1 X-39.549 Y213.016 E18.19374
G1 X-40.595 Y208.656 E18.44774
G1 X-40.782 Y207.806 E18.49706
G1 X-40.867 Y206.939 E18.54639
G1 X-41.219 Y202.469 E18.80039
G1 X-41.270 Y201.600 E18.84971
G1 X-41.288 Y201.163 E18.87446
G1 X-41.288 Y-1.163 E30.33566
G1 X-41.219 Y-2.469 E30.40973
G1 X-40.867 Y-6.939 E30.66373
G1 X-40.782 Y-7.806 E30.71305
G1 X-40.595 Y-8.656 E30.76237
G1 X-39.549 Y-13.016 E31.01638
G1 X-39.329 Y-13.859 E31.06570
G1 X-39.011 Y-14.670 E31.11502
G1 X-37.295 Y-18.812 E31.36903
G1 X-36.947 Y-19.610 E31.41835
G1 X-36.506 Y-20.361 E31.46767
G1 X-34.163 Y-24.184 E31.72167
G1 X-33.694 Y-24.918 E31.77099
G1 X-33.142 Y-25.591 E31.82031
G1 X-30.387 Y-28.816 E32.06058
G1 X-29.651 Y-29.651 E32.12364
G1 X-29.000 Y-30.230 E32.17296
G1 X-25.591 Y-33.142 E32.42696
G1 X-24.918 Y-33.694 E32.47628
G1 X-24.184 Y-34.163 E32.52561
G1 X-20.361 Y-36.506 E32.77961
G1 X-19.854 Y-36.790 E32.81256
G1 F1800
G1 X-18.839 Y-37.359 E32.87863
G1 F1800
G1 X-18.282 Y-37.642 E32.91426
G1 F1800
G1 X-17.725 Y-37.926 E32.95004
G1 X-16.622 Y-38.306 E33.01689
G1 F1800
G1 X-15.887 Y-38.559 E33.06126
G1 F1800
G1 X-15.151 Y-38.812 E33.10545
G1 F1800
G1 X-13.859 Y-39.329 E33.18417
G1 X-13.016 Y-39.549 E33.23342
G1 X-8.656 Y-40.595 E33.48703
G1 X-7.806 Y-40.782 E33.53627
G1 X-6.939 Y-40.867 E33.58552
G1 X-2.469 Y-41.219 E33.83913
G1 X-1.600 Y-41.270 E33.88837
G1 F1800
G1 X-1.163 Y-41.287 E33.91316
G1 X201.163 Y-41.287 E45.39228
G1 X202.469 Y-41.219 E45.46646
G1 F1800
G1 X206.939 Y-40.867 E45.72007
G1 X207.806 Y-40.782 E45.76932
G1 F1800
G1 X208.656 Y-40.595 E45.81864
G1 X213.016 Y-39.549 E46.07264
G1 X213.859 Y-39.329 E46.12196
G1 X214.670 Y-39.011 E46.17129
G1 X218.812 Y-37.295 E46.42529
G1 X219.610 Y-36.947 E46.47461
G1 X220.361 Y-36.506 E46.52393
G1 X224.184 Y-34.163 E46.77793
G1 X224.918 Y-33.694 E46.82726
G1 X225.591 Y-33.142 E46.87658
G1 X229.000 Y-30.229 E47.13058
G1 X229.651 Y-29.651 E47.17990
