; generated by Slic3r 1.3.0 on 2023-06-20 at 14:34:47

; external perimeters extrusion width = 24.45mm (726.99mm^3/s)
; perimeters extrusion width = 31.11mm (1854.02mm^3/s)
; infill extrusion width = 27.78mm (2205.33mm^3/s)
; solid infill extrusion width = 31.11mm (618.01mm^3/s)
; top infill extrusion width = 31.11mm (463.51mm^3/s)

M107
M104 S200 ; set temperature
G28 ; home all axes
G1 Z5 F5000 ; lift nozzle

; Filament gcode

M109 S200 ; set temperature and wait for it to be reached
G21 ; set units to millimeters
G90 ; use absolute coordinates
M82 ; use absolute distances for extrusion
G92 E0
G1 Z22.225 F7800.000
G1 E-2.00000 F2400.00000
G92 E0
G1 X0.000 Y34.912 F7800.000
G1 E2.00000 F2400.00000
G1 F1800
G1 X207.513 Y34.912 E209.10557
G1 X208.819 Y34.981 E210.41057
G1 X212.296 Y35.255 E213.89123
G1 X213.162 Y35.340 E214.76022
G1 X214.013 Y35.526 E215.62924
G1 X217.404 Y36.341 E219.10988
G1 X218.247 Y36.560 E219.97888
G1 X219.057 Y36.878 E220.84782
G1 X222.279 Y38.212 E224.32848
G1 X223.077 Y38.561 E225.19750
G1 X223.828 Y39.002 E226.06644
G1 X226.059 Y40.368 E228.67704
G1 X227.535 Y41.293 E230.41605
G1 X228.208 Y41.846 E231.28500
G1 X230.860 Y44.111 E234.76566
G1 X231.511 Y44.689 E235.63470
G1 X232.089 Y45.340 E236.50374
G1 X234.354 Y47.992 E239.98438
G1 X234.907 Y48.665 E240.85330
G1 X235.376 Y49.398 E241.72230
G1 X237.198 Y52.372 E245.20295
G1 X237.639 Y53.123 E246.07191
G1 X237.988 Y53.921 E246.94097
G1 X239.322 Y57.143 E250.42162
G1 X239.639 Y57.953 E251.29052
G1 X239.859 Y58.796 E252.15943
G1 X240.673 Y62.187 E255.64008
G1 X240.860 Y63.038 E256.50922
G1 X240.945 Y63.904 E257.37825
G1 X241.219 Y67.381 E260.85890
G1 X241.287 Y68.687 E262.16387
G1 X241.287 Y131.313 E324.66752
G1 X241.219 Y132.619 E325.97249
G1 X240.945 Y136.096 E329.45313
G1 X240.860 Y136.962 E330.32217
G1 X240.673 Y137.813 E331.19129
G1 X239.859 Y141.204 E334.67195
G1 X239.639 Y142.047 E335.54086
G1 X239.322 Y142.857 E336.40978
G1 X237.988 Y146.079 E339.89042
G1 X237.639 Y146.877 E340.75946
G1 X237.198 Y147.628 E341.62842
G1 X235.376 Y150.602 E345.10907
G1 X234.907 Y151.335 E345.97809
G1 X234.354 Y152.008 E346.84703
G1 X232.089 Y154.660 E350.32766
G1 X231.511 Y155.311 E351.19670
G1 X230.860 Y155.889 E352.06568
G1 X228.208 Y158.154 E355.54636
G1 X227.535 Y158.707 E356.41532
G1 X226.802 Y159.176 E357.28437
G1 X223.828 Y160.998 E360.76503
G1 X223.077 Y161.439 E361.63397
G1 X222.279 Y161.788 E362.50294
G1 X219.057 Y163.122 E365.98361
G1 X218.247 Y163.440 E366.85260
G1 X217.404 Y163.659 E367.72162
G1 X214.013 Y164.474 E371.20226
G1 X213.162 Y164.660 E372.07124
G1 X212.296 Y164.745 E372.94021
G1 X208.819 Y165.019 E376.42086
G1 X207.950 Y165.070 E377.28986
G1 X207.513 Y165.088 E377.72596
G1 X-7.513 Y165.088 E592.33015
G1 X-8.819 Y165.019 E593.63521
G1 X-12.296 Y164.745 E597.11585
G1 X-13.162 Y164.660 E597.98482
G1 X-14.013 Y164.474 E598.85378
G1 X-17.404 Y163.659 E602.33443
G1 X-18.247 Y163.440 E603.20344
G1 X-19.057 Y163.122 E604.07247
G1 X-22.279 Y161.788 E607.55313
G1 X-23.077 Y161.439 E608.42208
G1 X-23.828 Y160.998 E609.29105
G1 X-26.802 Y159.176 E612.77169
G1 X-27.535 Y158.707 E613.64071
G1 X-28.208 Y158.154 E614.50973
G1 X-30.860 Y155.889 E617.99039
G1 X-31.511 Y155.311 E618.85933
G1 X-32.089 Y154.660 E619.72831
G1 X-34.354 Y152.008 E623.20896
G1 X-34.907 Y151.335 E624.07796
G1 X-35.376 Y150.602 E624.94694
G1 X-37.198 Y147.628 E628.42760
G1 X-37.639 Y146.877 E629.29660
G1 X-37.988 Y146.079 E630.16557
G1 X-38.989 Y143.663 E632.77610
G1 X-39.640 Y142.047 E634.51513
G1 X-39.859 Y141.204 E635.38411
G1 X-40.674 Y137.813 E638.86477
G1 X-40.860 Y136.962 E639.73376
G1 X-40.945 Y136.096 E640.60277
G1 X-41.219 Y132.619 E644.08341
G1 X-41.288 Y131.313 E645.38842
G1 X-41.288 Y68.687 E707.89213
G1 X-41.219 Y67.381 E709.19713
G1 X-40.945 Y63.904 E712.67778
G1 X-40.860 Y63.038 E713.54679
G1 X-40.674 Y62.187 E714.41579
G1 X-39.859 Y58.796 E717.89644
G1 X-39.640 Y57.953 E718.76542
G1 X-39.322 Y57.143 E719.63439
G1 X-37.988 Y53.921 E723.11508
G1 X-37.639 Y53.123 E723.98404
G1 X-37.198 Y52.372 E724.85304
G1 X-35.376 Y49.398 E728.33369
G1 X-34.907 Y48.665 E729.20267
G1 X-34.354 Y47.992 E730.07166
G1 X-32.089 Y45.340 E733.55231
G1 X-31.511 Y44.689 E734.42129
G1 X-30.860 Y44.111 E735.29028
G1 X-28.208 Y41.846 E738.77093
G1 X-27.535 Y41.293 E739.63994
G1 X-26.802 Y40.824 E740.50891
G1 X-23.828 Y39.002 E743.98956
G1 X-23.077 Y38.561 E744.85855
G1 X-22.279 Y38.212 E745.72755
G1 X-19.057 Y36.878 E749.20821
G1 X-18.247 Y36.560 E750.07719
G1 X-17.404 Y36.341 E750.94616
G1 X-14.013 Y35.526 E754.42682
G1 X-13.162 Y35.340 E755.29583
G1 X-12.296 Y35.255 E756.16483
G1 X-8.819 Y34.981 E759.64547
G1 X-7.950 Y34.930 E760.51444
G1 X-7.513 Y34.912 E760.95053
G1 X-3.334 Y34.912 E765.12197
G1 Z23.225 F7800.000
G1 E763.12197 F2400.00000
G92 E0
G1 X0.000 Y34.912 F7800.000
G1 E2.00000 F2400.00000
G1 F1800
G1 X207.513 Y34.912 E13.75502
G1 X208.819 Y34.981 E13.82909
G1 X212.296 Y35.255 E14.02664
G1 X213.162 Y35.340 E14.07597
G1 X214.013 Y35.526 E14.12529
G1 X217.404 Y36.341 E14.32285
G1 X218.247 Y36.560 E14.37217
G1 X219.057 Y36.878 E14.42149
G1 X222.279 Y38.212 E14.61905
G1 X223.077 Y38.561 E14.66837
G1 X223.828 Y39.002 E14.71769
G1 X226.802 Y40.824 E14.91525
G1 X227.535 Y41.293 E14.96457
G1 X228.208 Y41.846 E15.01389
G1 X230.860 Y44.111 E15.21145
G1 X231.511 Y44.689 E15.26078
G1 X232.089 Y45.340 E15.31010
G1 X234.354 Y47.992 E15.50766
G1 X234.907 Y48.665 E15.55698
G1 X235.376 Y49.398 E15.60630
G1 X237.198 Y52.372 E15.80386
G1 X237.639 Y53.123 E15.85318
G1 X237.988 Y53.921 E15.90250
G1 X239.322 Y57.143 E16.10006
G1 X239.639 Y57.953 E16.14938
G1 X239.859 Y58.796 E16.19870
G1 X240.673 Y62.187 E16.39625
G1 X240.860 Y63.038 E16.44558
G1 X240.945 Y63.904 E16.49491
G1 X241.219 Y67.381 E16.69246
G1 X241.287 Y68.687 E16.76653
G1 X241.287 Y131.313 E20.31415
G1 X241.219 Y132.619 E20.38822
G1 X240.945 Y136.096 E20.58578
G1 X240.860 Y136.962 E20.63510
G1 X240.673 Y137.813 E20.68443
G1 X239.859 Y141.204 E20.88199
G1 X239.639 Y142.047 E20.93131
G1 X239.322 Y142.857 E20.98062
G1 X237.988 Y146.079 E21.17818
G1 X237.639 Y146.877 E21.22751
G1 X237.198 Y147.628 E21.27683
G1 X235.376 Y150.602 E21.47438
G1 X234.907 Y151.335 E21.52371
G1 X234.354 Y152.008 E21.57303
G1 X232.089 Y154.660 E21.77058
G1 X231.511 Y155.311 E21.81991
G1 X230.860 Y155.889 E21.86923
G1 X228.208 Y158.154 E22.06679
G1 X227.535 Y158.707 E22.11611
G1 X226.802 Y159.176 E22.16544
G1 X223.828 Y160.998 E22.36299
G1 X223.077 Y161.439 E22.41231
G1 X222.279 Y161.788 E22.46164
G1 X219.057 Y163.122 E22.65919
G1 X218.247 Y163.440 E22.70852
G1 X217.404 Y163.659 E22.75784
G1 X214.013 Y164.474 E22.95540
G1 X213.162 Y164.660 E23.00472
G1 X212.296 Y164.745 E23.05404
G1 X208.819 Y165.019 E23.25160
G1 X207.950 Y165.070 E23.30092
G1 X207.513 Y165.088 E23.32567
G1 X-7.513 Y165.088 E35.50630
G1 X-8.819 Y165.019 E35.58037
G1 X-12.296 Y164.745 E35.77793
G1 X-13.162 Y164.660 E35.82725
G1 X-14.013 Y164.474 E35.87657
G1 X-17.404 Y163.659 E36.07413
G1 X-18.247 Y163.440 E36.12345
G1 X-19.057 Y163.122 E36.17278
G1 X-22.279 Y161.788 E36.37033
G1 X-23.077 Y161.439 E36.41965
G1 X-23.828 Y160.998 E36.46897
G1 X-26.802 Y159.176 E36.66653
G1 X-27.535 Y158.707 E36.71585
G1 X-28.208 Y158.154 E36.76518
G1 X-30.860 Y155.889 E36.96274
G1 X-31.511 Y155.311 E37.01206
G1 X-32.089 Y154.660 E37.06138
G1 X-34.354 Y152.008 E37.25893
G1 X-34.907 Y151.335 E37.30826
G1 X-35.376 Y150.602 E37.35758
G1 X-37.198 Y147.628 E37.55514
G1 X-37.639 Y146.877 E37.60446
G1 X-37.988 Y146.079 E37.65378
G1 X-39.322 Y142.857 E37.85134
G1 X-39.640 Y142.047 E37.90066
G1 X-39.859 Y141.204 E37.94998
G1 X-40.674 Y137.813 E38.14754
G1 X-40.860 Y136.962 E38.19686
G1 X-40.945 Y136.096 E38.24619
G1 X-41.219 Y132.619 E38.44374
G1 X-41.288 Y131.313 E38.51781
G1 X-41.288 Y68.687 E42.06544
G1 X-41.219 Y67.381 E42.13951
G1 X-40.945 Y63.904 E42.33706
G1 X-40.860 Y63.038 E42.38639
G1 X-40.674 Y62.187 E42.43571
G1 X-39.859 Y58.796 E42.63327
G1 X-39.640 Y57.953 E42.68259
G1 X-39.322 Y57.143 E42.73191
G1 X-37.988 Y53.921 E42.92947
G1 X-37.639 Y53.123 E42.97879
G1 X-37.198 Y52.372 E43.02811
G1 X-35.376 Y49.398 E43.22567
G1 X-34.907 Y48.665 E43.27499
G1 X-34.354 Y47.992 E43.32431
G1 X-32.089 Y45.340 E43.52187
G1 X-31.511 Y44.689 E43.57119
G1 X-30.860 Y44.111 E43.62051
G1 X-28.208 Y41.846 E43.81807
G1 X-27.535 Y41.293 E43.86739
G1 X-26.802 Y40.824 E43.91672
G1 X-23.828 Y39.002 E44.11427
G1 X-23.077 Y38.561 E44.16360
G1 X-22.279 Y38.212 E44.21292
G1 X-19.057 Y36.878 E44.41048
G1 X-18.247 Y36.560 E44.45980
G1 X-17.404 Y36.341 E44.50912
G1 X-14.013 Y35.526 E44.70668
G1 X-13.162 Y35.340 E44.75600
G1 X-12.296 Y35.255 E44.80532
G1 X-8.819 Y34.981 E45.00288
G1 X-7.950 Y34.930 E45.05220
G1 X-7.513 Y34.912 E45.07695
G1 X-3.334 Y34.912 E45.31372
G1 Z24.225 F7800.000
G1 E43.31372 F2400.00000
G92 E0
G1 X0.000 Y34.912 F7800.000
G1 E2.00000 F2400.00000
G1 F1800
G1 X207.513 Y34.912 E13.75502
G1 X208.819 Y34.981 E13.82909
G1 X212.296 Y35.255 E14.02664
G1 X213.162 Y35.340 E14.07597
G1 X214.013 Y35.526 E14.12529
G1 X217.404 Y36.341 E14.32285
G1 X218.247 Y36.560 E14.37217
G1 X219.057 Y36.878 E14.42149
G1 X222.279 Y38.212 E14.61905
G1 X223.077 Y38.561 E14.66837
G1 X225.215 Y39.851 E14.80980
G1 X227.535 Y41.293 E14.96456
G1 X228.208 Y41.846 E15.01388
G1 X230.860 Y44.111 E15.21144
G1 X231.511 Y44.689 E15.26076
G1 X232.089 Y45.340 E15.31009
G1 X234.354 Y47.992 E15.50764
G1 X234.907 Y48.665 E15.55696
G1 X235.376 Y49.398 E15.60629
G1 X237.198 Y52.372 E15.80384
G1 X237.639 Y53.123 E15.85316
G1 X237.988 Y53.921 E15.90249
G1 X239.322 Y57.143 E16.10005
G1 X239.639 Y57.953 E16.14936
G1 X239.859 Y58.796 E16.19868
G1 X240.673 Y62.187 E16.39624
G1 X240.860 Y63.038 E16.44557
G1 X240.945 Y63.904 E16.49490
G1 X241.219 Y67.381 E16.69245
G1 X241.287 Y68.687 E16.76652
G1 X241.287 Y131.313 E20.31414
G1 X241.219 Y132.619 E20.38821
G1 X240.945 Y136.096 E20.58576
G1 X240.860 Y136.962 E20.63509
G1 X240.673 Y137.813 E20.68442
G1 X239.859 Y141.204 E20.88198
G1 X239.639 Y142.047 E20.93129
G1 X239.322 Y142.857 E20.98061
G1 X237.988 Y146.079 E21.17817
G1 X237.639 Y146.877 E21.22749
G1 X237.198 Y147.628 E21.27681
G1 X235.376 Y150.602 E21.47437
G1 X234.907 Y151.335 E21.52370
G1 X234.354 Y152.008 E21.57302
G1 X232.089 Y154.660 E21.77057
G1 X231.511 Y155.311 E21.81990
G1 X230.860 Y155.889 E21.86922
G1 X228.208 Y158.154 E22.06678
G1 X227.535 Y158.707 E22.11610
G1 X226.802 Y159.176 E22.16542
G1 X223.828 Y160.998 E22.36298
G1 X223.077 Y161.439 E22.41230
G1 X222.279 Y161.788 E22.46162
G1 X219.057 Y163.122 E22.65918
G1 X218.247 Y163.440 E22.70850
G1 X217.404 Y163.659 E22.75783
G1 X214.013 Y164.474 E22.95538
G1 X213.162 Y164.660 E23.00471
G1 X212.296 Y164.745 E23.05403
G1 X208.819 Y165.019 E23.25158
G1 X207.950 Y165.070 E23.30091
G1 X207.513 Y165.088 E23.32566
G1 X-7.513 Y165.088 E35.50629
G1 X-8.819 Y165.019 E35.58036
G1 X-12.296 Y164.745 E35.77791
G1 X-13.162 Y164.660 E35.82724
G1 X-14.013 Y164.474 E35.87656
G1 X-17.404 Y163.659 E36.07411
G1 X-18.247 Y163.440 E36.12344
G1 X-19.057 Y163.122 E36.17276
G1 X-22.279 Y161.788 E36.37032
G1 X-23.077 Y161.439 E36.41964
G1 X-23.828 Y160.998 E36.46896
G1 X-26.802 Y159.176 E36.66652
G1 X-27.535 Y158.707 E36.71584
G1 X-28.208 Y158.154 E36.76517
G1 X-30.860 Y155.889 E36.96272
G1 X-31.511 Y155.311 E37.01204
G1 X-32.089 Y154.660 E37.06137
G1 X-34.354 Y152.008 E37.25892
G1 X-34.907 Y151.335 E37.30825
G1 X-35.376 Y150.602 E37.35757
G1 X-37.198 Y147.628 E37.55512
G1 X-37.639 Y146.877 E37.60445
G1 X-37.988 Y146.079 E37.65377
G1 X-39.322 Y142.857 E37.85133
G1 X-39.640 Y142.047 E37.90065
G1 X-39.859 Y141.204 E37.94997
G1 X-40.674 Y137.813 E38.14753
G1 X-40.860 Y136.962 E38.19685
G1 X-40.945 Y136.096 E38.24617
G1 X-41.219 Y132.619 E38.44373
G1 X-41.288 Y131.313 E38.51780
G1 X-41.288 Y68.687 E42.06542
G1 X-41.219 Y67.381 E42.13949
G1 X-40.945 Y63.904 E42.33705
G1 X-40.860 Y63.038 E42.38637
G1 X-40.674 Y62.187 E42.43570
G1 X-39.859 Y58.796 E42.63325
G1 X-39.640 Y57.953 E42.68257
G1 X-39.322 Y57.143 E42.73190
G1 X-37.988 Y53.921 E42.92945
G1 X-37.639 Y53.123 E42.97878
G1 X-37.198 Y52.372 E43.02810
G1 X-35.376 Y49.398 E43.22566
G1 X-34.907 Y48.665 E43.27498
G1 X-34.354 Y47.992 E43.32430
G1 X-32.089 Y45.340 E43.52186
G1 X-31.511 Y44.689 E43.57118
G1 X-30.860 Y44.111 E43.62050
G1 X-28.208 Y41.846 E43.81806
G1 X-27.535 Y41.293 E43.86738
G1 X-26.802 Y40.824 E43.91670
G1 X-23.828 Y39.002 E44.11426
G1 X-23.077 Y38.561 E44.16358
G1 X-20.777 Y37.590 E44.30501
G1 X-18.247 Y36.560 E44.45977
G1 X-17.404 Y36.341 E44.50909
G1 X-14.013 Y35.526 E44.70665
G1 X-13.162 Y35.340 E44.75598
G1 X-12.296 Y35.255 E44.80530
G1 X-8.819 Y34.981 E45.00286
G1 X-7.950 Y34.930 E45.05218
G1 X-7.513 Y34.912 E45.07693
G1 X-3.334 Y34.912 E45.31369
M106 S191.25
G1 Z25.225 F7800.000
G1 E43.31369 F2400.00000
G92 E0
G1 X0.000 Y34.912 F7800.000
G1 E2.00000 F2400.00000
G1 F1800
G1 X207.513 Y34.912 E13.75502
G1 X208.819 Y34.981 E13.82909
G1 X212.296 Y35.255 E14.02664
G1 X213.162 Y35.340 E14.07596
G1 X214.013 Y35.526 E14.12529
G1 X217.404 Y36.341 E14.32285
G1 X218.247 Y36.560 E14.37217
G1 X219.057 Y36.878 E14.42149
G1 X222.279 Y38.212 E14.61905
G1 X223.077 Y38.561 E14.66837
G1 X223.828 Y39.002 E14.71769
G1 X226.802 Y40.824 E14.91525
G1 X227.535 Y41.293 E14.96457
G1 X228.208 Y41.846 E15.01389
G1 X230.860 Y44.111 E15.21145
G1 X231.511 Y44.689 E15.26078
G1 X232.089 Y45.340 E15.31010
G1 X234.354 Y47.992 E15.50766
G1 X234.907 Y48.665 E15.55698
G1 X235.376 Y49.398 E15.60630
G1 X237.198 Y52.372 E15.80386
G1 X237.639 Y53.123 E15.85318
G1 X237.988 Y53.921 E15.90250
G1 X239.322 Y57.143 E16.10006
G1 X239.639 Y57.953 E16.14938
G1 X239.859 Y58.796 E16.19870
G1 X240.673 Y62.187 E16.39625
G1 X240.860 Y63.038 E16.44558
G1 X240.945 Y63.904 E16.49491
G1 X241.219 Y67.381 E16.69246
G1 X241.287 Y68.687 E16.76653
G1 X241.287 Y131.313 E20.31415
G1 X241.219 Y132.619 E20.38822
G1 X240.945 Y136.096 E20.58578
G1 X240.860 Y136.962 E20.63510
G1 X240.673 Y137.813 E20.68443
G1 X239.859 Y141.204 E20.88199
G1 X239.639 Y142.047 E20.93131
G1 X239.322 Y142.857 E20.98062
G1 X237.988 Y146.079 E21.17818
G1 X237.639 Y146.877 E21.22751
G1 X237.198 Y147.628 E21.27683
G1 X235.376 Y150.602 E21.47438
G1 X234.907 Y151.335 E21.52371
G1 X234.354 Y152.008 E21.57303
G1 X232.089 Y154.660 E21.77058
G1 X231.511 Y155.311 E21.81991
G1 X230.860 Y155.889 E21.86923
G1 X228.208 Y158.154 E22.06679
G1 X227.535 Y158.707 E22.11611
G1 X226.802 Y159.176 E22.16544
G1 X223.828 Y160.998 E22.36299
G1 X223.077 Y161.439 E22.41231
G1 X222.279 Y161.788 E22.46164
G1 X219.057 Y163.122 E22.65919
G1 X218.247 Y163.440 E22.70852
G1 X217.404 Y163.659 E22.75784
G1 X214.013 Y164.474 E22.95540
G1 X213.162 Y164.660 E23.00472
G1 X212.296 Y164.745 E23.05404
G1 X208.819 Y165.019 E23.25160
G1 X207.950 Y165.070 E23.30092
G1 X207.513 Y165.088 E23.32567
G1 X-7.513 Y165.088 E35.50630
G1 X-8.819 Y165.019 E35.58037
G1 X-12.296 Y164.745 E35.77793
G1 X-13.162 Y164.660 E35.82725
G1 X-14.013 Y164.474 E35.87657
G1 X-17.404 Y163.659 E36.07413
G1 X-18.247 Y163.440 E36.12345
G1 X-19.057 Y163.122 E36.17277
G1 X-22.279 Y161.788 E36.37033
G1 X-23.077 Y161.439 E36.41965
G1 X-23.828 Y160.998 E36.46897
G1 X-26.802 Y159.176 E36.66653
G1 X-27.535 Y158.707 E36.71585
G1 X-28.208 Y158.154 E36.76518
G1 X-30.860 Y155.889 E36.96274
G1 X-31.511 Y155.311 E37.01206
G1 X-32.967 Y153.633 E37.13793
G1 X-34.907 Y151.335 E37.30825
G1 X-35.376 Y150.602 E37.35757
G1 X-37.198 Y147.628 E37.55513
G1 X-37.639 Y146.877 E37.60445
G1 X-37.988 Y146.079 E37.65377
G1 X-39.322 Y142.857 E37.85133
G1 X-39.640 Y142.047 E37.90065
G1 X-39.859 Y141.204 E37.94997
G1 X-40.674 Y137.813 E38.14753
G1 X-40.860 Y136.962 E38.19685
G1 X-40.945 Y136.096 E38.24618
G1 X-41.219 Y132.619 E38.44373
G1 X-41.288 Y131.313 E38.51780
G1 X-41.288 Y68.687 E42.06542
G1 X-41.219 Y67.381 E42.13949
G1 X-40.945 Y63.904 E42.33705
G1 X-40.860 Y63.038 E42.38637
G1 X-40.674 Y62.187 E42.43570
G1 X-39.859 Y58.796 E42.63325
G1 X-39.640 Y57.953 E42.68257
G1 X-39.322 Y57.143 E42.73190
G1 X-37.988 Y53.921 E42.92945
G1 X-37.639 Y53.123 E42.97878
G1 X-37.198 Y52.372 E43.02810
G1 X-35.376 Y49.398 E43.22566
G1 X-34.907 Y48.665 E43.27498
