; generated by Slic3r 1.3.0 on 2023-06-13 at 12:49:49

; external perimeters extrusion width = 24.45mm (726.99mm^3/s)
; perimeters extrusion width = 31.11mm (1854.02mm^3/s)
; infill extrusion width = 27.78mm (2205.33mm^3/s)
; solid infill extrusion width = 31.11mm (618.01mm^3/s)
; top infill extrusion width = 31.11mm (463.51mm^3/s)

M107
M104 S200 ; set temperature
G28 ; home all axes
G1 Z5 F5000 ; lift nozzle

; Filament gcode

M109 S200 ; set temperature and wait for it to be reached
G21 ; set units to millimeters
G90 ; use absolute coordinates
M82 ; use absolute distances for extrusion
G92 E0
G1 Z22.225 F7800.000
G1 E-2.00000 F2400.00000
G92 E0
G1 X225.591 Y-33.142 F7800.000
G1 E2.00000 F2400.00000
G1 F1800
G1 X229.000 Y-30.229 E6.47513
G1 X229.651 Y-29.651 E7.34405
G1 X230.230 Y-29.000 E8.21301
G1 X233.142 Y-25.591 E12.68814
G1 X233.694 Y-24.918 E13.55714
G1 X234.163 Y-24.184 E14.42614
G1 X236.506 Y-20.361 E18.90126
G1 X236.947 Y-19.610 E19.77026
G1 X237.295 Y-18.812 E20.63919
G1 X238.964 Y-14.783 E24.99195
G1 X239.329 Y-13.859 E25.98332
G1 X239.549 Y-13.016 E26.85232
G1 X240.595 Y-8.656 E31.32745
G1 X240.782 Y-7.806 E32.19646
G1 X240.867 Y-6.939 E33.06548
G1 X241.219 Y-2.469 E37.54062
G1 X241.287 Y-1.163 E38.84560
G1 X241.287 Y201.163 E240.77470
G1 X241.270 Y201.600 E241.21082
G1 X241.219 Y202.469 E242.07974
G1 X240.867 Y206.939 E246.55485
G1 X240.782 Y207.806 E247.42390
G1 X240.595 Y208.656 E248.29289
G1 X239.549 Y213.016 E252.76802
G1 X239.329 Y213.859 E253.63703
G1 X239.011 Y214.670 E254.50603
G1 X237.295 Y218.812 E258.98115
G1 X236.947 Y219.610 E259.85012
G1 X236.506 Y220.361 E260.71909
G1 X234.163 Y224.184 E265.19421
G1 X233.694 Y224.918 E266.06321
G1 X233.142 Y225.591 E266.93219
G1 X230.230 Y229.000 E271.40733
G1 X229.651 Y229.651 E272.27634
G1 X229.000 Y230.230 E273.14534
G1 X225.591 Y233.142 E277.62044
G1 X224.918 Y233.694 E278.48943
G1 X224.184 Y234.163 E279.35834
G1 X220.361 Y236.506 E283.83347
G1 X219.610 Y236.947 E284.70253
G1 X218.812 Y237.296 E285.57156
G1 X214.670 Y239.011 E290.04666
G1 X213.859 Y239.329 E290.91563
G1 X213.016 Y239.549 E291.78457
G1 X208.655 Y240.596 E296.26080
G1 X207.806 Y240.782 E297.12871
G1 X206.939 Y240.867 E297.99770
G1 X202.469 Y241.219 E302.47284
G1 X201.600 Y241.270 E303.34183
G1 X201.163 Y241.288 E303.77792
G1 X-1.163 Y241.288 E505.70707
G1 X-2.469 Y241.219 E507.01210
G1 X-6.939 Y240.867 E511.48723
G1 X-7.806 Y240.782 E512.35620
G1 X-8.656 Y240.595 E513.22520
G1 X-13.016 Y239.549 E517.70032
G1 X-13.859 Y239.329 E518.56932
G1 X-14.670 Y239.011 E519.43824
G1 X-18.812 Y237.296 E523.91336
G1 X-19.610 Y236.947 E524.78240
G1 X-20.361 Y236.506 E525.65146
G1 X-24.184 Y234.163 E530.12660
G1 X-24.918 Y233.694 E530.99552
G1 X-25.591 Y233.142 E531.86446
G1 X-29.000 Y230.230 E536.33958
G1 X-29.651 Y229.651 E537.20861
G1 X-30.230 Y229.000 E538.07765
G1 X-33.142 Y225.591 E542.55278
G1 X-33.694 Y224.918 E543.42173
G1 X-34.163 Y224.184 E544.29070
G1 X-36.506 Y220.361 E548.76583
G1 X-36.947 Y219.610 E549.63481
G1 X-37.295 Y218.812 E550.50379
G1 X-39.011 Y214.669 E554.97912
G1 X-39.329 Y213.859 E555.84792
G1 X-39.549 Y213.016 E556.71696
G1 X-40.595 Y208.656 E561.19208
G1 X-40.782 Y207.806 E562.06100
G1 X-40.867 Y206.939 E562.93001
G1 X-41.219 Y202.469 E567.40514
G1 X-41.288 Y201.163 E568.71015
G1 X-41.288 Y-1.163 E770.63932
G1 X-41.270 Y-1.600 E771.07541
G1 X-41.219 Y-2.469 E771.94439
G1 X-40.867 Y-6.939 E776.41953
G1 X-40.782 Y-7.806 E777.28851
G1 X-40.595 Y-8.656 E778.15746
G1 X-39.549 Y-13.016 E782.63259
G1 X-39.329 Y-13.859 E783.50160
G1 X-39.011 Y-14.670 E784.37063
G1 X-37.295 Y-18.812 E788.84574
G1 X-36.947 Y-19.610 E789.71471
G1 X-36.506 Y-20.361 E790.58371
G1 X-34.163 Y-24.184 E795.05884
G1 X-33.694 Y-24.918 E795.92782
G1 X-33.142 Y-25.591 E796.79680
G1 X-30.230 Y-29.000 E801.27200
G1 X-29.651 Y-29.651 E802.14090
G1 X-29.000 Y-30.230 E803.00986
G1 X-25.591 Y-33.142 E807.48501
G1 X-24.918 Y-33.694 E808.35400
G1 X-24.184 Y-34.163 E809.22304
G1 X-20.361 Y-36.506 E813.69816
G1 X-19.610 Y-36.947 E814.56710
G1 X-18.812 Y-37.295 E815.43608
G1 X-14.670 Y-39.011 E819.91121
G1 X-13.859 Y-39.329 E820.78021
G1 X-13.016 Y-39.549 E821.64921
G1 X-8.656 Y-40.595 E826.12433
G1 X-7.806 Y-40.782 E826.99334
G1 X-6.939 Y-40.867 E827.86238
G1 X-2.469 Y-41.219 E832.33750
G1 X-1.163 Y-41.287 E833.64247
G1 X201.163 Y-41.287 E1035.57159
G1 X202.469 Y-41.219 E1036.87655
G1 X206.939 Y-40.867 E1041.35169
G1 X207.806 Y-40.782 E1042.22072
G1 X208.656 Y-40.595 E1043.08974
G1 X213.016 Y-39.549 E1047.56487
G1 X213.859 Y-39.329 E1048.43384
G1 X214.670 Y-39.011 E1049.30288
G1 X218.812 Y-37.295 E1053.77800
G1 X219.610 Y-36.947 E1054.64696
G1 X220.361 Y-36.506 E1055.51591
G1 X222.827 Y-34.995 E1058.40190
G1 Z23.225 F7800.000
G1 E1056.40190 F2400.00000
G92 E0
G1 X-30.230 Y-29.000 F7800.000
G1 E2.00000 F2400.00000
G1 F1800
G1 X-29.651 Y-29.651 E2.04932
G1 X-29.000 Y-30.229 E2.09864
G1 X-25.591 Y-33.142 E2.35265
G1 X-24.918 Y-33.694 E2.40197
G1 X-24.184 Y-34.163 E2.45129
G1 X-20.361 Y-36.506 E2.70529
G1 X-19.610 Y-36.947 E2.75462
G1 X-18.812 Y-37.295 E2.80394
G1 X-14.670 Y-39.011 E3.05794
G1 X-13.859 Y-39.329 E3.10726
G1 X-13.016 Y-39.549 E3.15658
G1 X-8.656 Y-40.595 E3.41059
G1 X-7.806 Y-40.782 E3.45991
G1 X-6.939 Y-40.867 E3.50924
G1 X-2.469 Y-41.219 E3.76324
G1 X-1.163 Y-41.287 E3.83730
G1 X201.163 Y-41.287 E15.29850
G1 X201.600 Y-41.270 E15.32325
G1 X202.469 Y-41.219 E15.37257
G1 X206.939 Y-40.867 E15.62657
G1 X207.806 Y-40.782 E15.67590
G1 X208.656 Y-40.595 E15.72522
G1 X213.016 Y-39.549 E15.97922
G1 X213.859 Y-39.329 E16.02854
G1 X214.670 Y-39.011 E16.07787
G1 X218.812 Y-37.295 E16.33187
G1 X219.610 Y-36.947 E16.38119
G1 X220.361 Y-36.506 E16.43051
G1 X224.184 Y-34.163 E16.68451
G1 X224.918 Y-33.694 E16.73384
G1 X225.591 Y-33.142 E16.78316
G1 X229.000 Y-30.229 E17.03717
G1 X229.651 Y-29.651 E17.08648
G1 X230.230 Y-29.000 E17.13580
G1 X233.142 Y-25.591 E17.38981
G1 X233.694 Y-24.918 E17.43913
G1 X234.163 Y-24.184 E17.48845
G1 X236.506 Y-20.361 E17.74245
G1 X236.947 Y-19.610 E17.79178
G1 X237.295 Y-18.812 E17.84110
G1 X238.915 Y-14.901 E18.08089
G1 X239.329 Y-13.859 E18.14442
G1 X239.549 Y-13.016 E18.19374
G1 X240.595 Y-8.656 E18.44774
G1 X240.782 Y-7.806 E18.49707
G1 X240.867 Y-6.939 E18.54639
G1 X241.219 Y-2.469 E18.80039
G1 X241.270 Y-1.600 E18.84971
G1 X241.287 Y-1.163 E18.87447
G1 X241.287 Y201.163 E30.33566
G1 X241.219 Y202.469 E30.40973
G1 X240.867 Y206.939 E30.66373
G1 X240.782 Y207.806 E30.71306
G1 X240.595 Y208.656 E30.76238
G1 X239.549 Y213.016 E31.01638
G1 X239.329 Y213.859 E31.06570
G1 X239.011 Y214.670 E31.11503
G1 X237.295 Y218.812 E31.36903
G1 X236.947 Y219.610 E31.41835
G1 X236.506 Y220.361 E31.46767
G1 X234.163 Y224.184 E31.72167
G1 X233.694 Y224.918 E31.77099
G1 X233.142 Y225.591 E31.82032
G1 X230.230 Y229.000 E32.07432
G1 X229.651 Y229.651 E32.12364
G1 X229.000 Y230.230 E32.17297
G1 X225.591 Y233.142 E32.42697
G1 X224.918 Y233.694 E32.47629
G1 X224.184 Y234.163 E32.52561
G1 X220.361 Y236.506 E32.77961
G1 X219.610 Y236.947 E32.82893
G1 X218.812 Y237.296 E32.87826
G1 X214.670 Y239.011 E33.13226
G1 X213.859 Y239.329 E33.18158
G1 X213.016 Y239.549 E33.23090
G1 X208.656 Y240.595 E33.48492
G1 X207.806 Y240.782 E33.53423
G1 X206.939 Y240.867 E33.58355
G1 X202.469 Y241.219 E33.83755
G1 X201.600 Y241.270 E33.88687
G1 X201.163 Y241.288 E33.91163
G1 X-1.163 Y241.288 E45.37282
G1 X-2.469 Y241.219 E45.44689
G1 X-6.939 Y240.867 E45.70089
G1 X-7.806 Y240.782 E45.75022
G1 X-8.656 Y240.595 E45.79954
G1 X-13.016 Y239.549 E46.05354
G1 X-13.859 Y239.329 E46.10286
G1 X-14.670 Y239.011 E46.15218
G1 X-18.812 Y237.296 E46.40618
G1 X-19.610 Y236.947 E46.45551
G1 X-20.361 Y236.506 E46.50484
G1 X-24.184 Y234.163 E46.75884
G1 X-24.918 Y233.694 E46.80816
G1 X-25.591 Y233.142 E46.85748
G1 X-29.000 Y230.230 E47.11148
G1 X-29.651 Y229.651 E47.16080
G1 X-30.230 Y229.000 E47.21013
G1 X-33.142 Y225.591 E47.46413
G1 X-33.694 Y224.918 E47.51345
G1 X-34.163 Y224.184 E47.56277
G1 X-36.506 Y220.361 E47.81678
G1 X-36.947 Y219.610 E47.86609
G1 X-37.295 Y218.812 E47.91542
G1 X-39.011 Y214.670 E48.16942
G1 X-39.329 Y213.859 E48.21874
G1 X-39.549 Y213.016 E48.26807
G1 X-40.595 Y208.656 E48.52207
G1 X-40.782 Y207.806 E48.57139
G1 X-40.867 Y206.939 E48.62071
G1 X-41.219 Y202.469 E48.87471
G1 X-41.288 Y201.163 E48.94878
G1 X-41.288 Y-1.163 E60.40998
G1 X-41.219 Y-2.469 E60.48405
G1 X-40.867 Y-6.939 E60.73805
G1 X-40.782 Y-7.806 E60.78737
G1 X-40.595 Y-8.656 E60.83669
G1 X-39.549 Y-13.016 E61.09070
G1 X-39.329 Y-13.859 E61.14002
G1 X-39.011 Y-14.670 E61.18934
G1 X-37.295 Y-18.812 E61.44335
G1 X-36.947 Y-19.610 E61.49267
G1 X-36.506 Y-20.361 E61.54199
G1 X-34.163 Y-24.184 E61.79599
G1 X-33.694 Y-24.918 E61.84531
G1 X-32.395 Y-26.465 E61.95978
G1 Z24.225 F7800.000
G1 E59.95978 F2400.00000
G92 E0
G1 X-19.610 Y-36.947 F7800.000
G1 E2.00000 F2400.00000
G1 F1800
G1 X-18.812 Y-37.295 E2.04932
G1 X-14.670 Y-39.011 E2.30332
G1 X-13.859 Y-39.329 E2.35265
G1 X-13.016 Y-39.549 E2.40197
G1 X-8.656 Y-40.595 E2.65597
G1 X-7.806 Y-40.782 E2.70529
G1 X-6.939 Y-40.867 E2.75462
G1 X-2.469 Y-41.219 E3.00862
G1 X-1.163 Y-41.287 E3.08269
G1 X201.163 Y-41.287 E14.54389
G1 X202.469 Y-41.219 E14.61796
G1 X206.939 Y-40.867 E14.87196
G1 X207.806 Y-40.782 E14.92129
G1 X208.656 Y-40.595 E14.97061
G1 X213.016 Y-39.549 E15.22461
G1 X213.859 Y-39.329 E15.27393
G1 X214.670 Y-39.011 E15.32326
G1 X218.812 Y-37.295 E15.57726
G1 X219.610 Y-36.947 E15.62658
G1 X220.361 Y-36.506 E15.67590
G1 X224.184 Y-34.163 E15.92990
G1 X224.918 Y-33.694 E15.97923
G1 X225.591 Y-33.142 E16.02855
G1 X229.000 Y-30.229 E16.28256
G1 X229.651 Y-29.651 E16.33187
G1 X230.230 Y-29.000 E16.38119
G1 X233.142 Y-25.591 E16.63520
G1 X233.694 Y-24.918 E16.68452
G1 X234.163 Y-24.184 E16.73384
G1 X236.506 Y-20.361 E16.98784
G1 X236.947 Y-19.610 E17.03717
G1 X237.295 Y-18.812 E17.08649
G1 X238.911 Y-14.911 E17.32569
G1 X239.329 Y-13.859 E17.38981
G1 X239.549 Y-13.016 E17.43913
G1 X240.595 Y-8.656 E17.69314
G1 X240.782 Y-7.806 E17.74246
G1 X240.867 Y-6.939 E17.79178
G1 X241.219 Y-2.469 E18.04579
G1 X241.270 Y-1.600 E18.09510
G1 X241.287 Y-1.163 E18.11986
G1 X241.287 Y201.163 E29.58106
G1 X241.219 Y202.469 E29.65513
G1 X240.867 Y206.939 E29.90913
G1 X240.782 Y207.806 E29.95845
G1 X240.595 Y208.656 E30.00778
G1 X239.549 Y213.016 E30.26178
G1 X239.329 Y213.859 E30.31110
G1 X239.011 Y214.670 E30.36042
G1 X237.295 Y218.812 E30.61443
G1 X236.947 Y219.610 E30.66375
G1 X236.506 Y220.361 E30.71307
G1 X234.163 Y224.184 E30.96707
G1 X233.694 Y224.918 E31.01639
G1 X233.142 Y225.591 E31.06572
G1 X230.230 Y229.000 E31.31972
G1 X229.651 Y229.651 E31.36904
G1 X229.000 Y230.230 E31.41837
G1 X225.591 Y233.142 E31.67237
G1 X224.918 Y233.694 E31.72169
G1 X224.184 Y234.163 E31.77101
G1 X220.361 Y236.506 E32.02501
G1 X219.610 Y236.947 E32.07433
G1 X218.812 Y237.296 E32.12366
G1 X214.670 Y239.011 E32.37766
G1 X213.859 Y239.329 E32.42698
G1 X213.016 Y239.549 E32.47630
G1 X208.656 Y240.595 E32.73030
G1 X207.806 Y240.782 E32.77963
G1 X206.939 Y240.867 E32.82895
G1 X202.469 Y241.219 E33.08295
G1 X201.600 Y241.270 E33.13227
G1 X201.163 Y241.288 E33.15703
G1 X-1.163 Y241.288 E44.61823
G1 X-2.469 Y241.219 E44.69230
G1 X-6.939 Y240.867 E44.94630
G1 X-7.806 Y240.782 E44.99562
G1 X-8.656 Y240.595 E45.04494
G1 X-13.017 Y239.548 E45.29897
G1 X-13.859 Y239.329 E45.34827
G1 X-14.670 Y239.011 E45.39759
G1 X-18.812 Y237.296 E45.65159
G1 X-19.610 Y236.947 E45.70092
G1 X-20.361 Y236.506 E45.75024
G1 X-24.184 Y234.163 E46.00425
G1 X-24.918 Y233.694 E46.05356
G1 X-25.591 Y233.142 E46.10288
G1 X-29.000 Y230.230 E46.35688
G1 X-29.651 Y229.651 E46.40621
G1 X-30.230 Y229.000 E46.45553
G1 X-33.142 Y225.591 E46.70954
G1 X-33.694 Y224.918 E46.75886
G1 X-34.163 Y224.184 E46.80818
G1 X-36.506 Y220.361 E47.06218
G1 X-36.947 Y219.610 E47.11150
G1 X-37.295 Y218.812 E47.16082
G1 X-39.011 Y214.670 E47.41483
G1 X-39.329 Y213.859 E47.46415
G1 X-39.549 Y213.016 E47.51348
G1 X-40.595 Y208.656 E47.76748
G1 X-40.782 Y207.806 E47.81680
G1 X-40.867 Y206.939 E47.86612
G1 X-41.219 Y202.469 E48.12012
G1 X-41.270 Y201.600 E48.16944
G1 X-41.288 Y201.163 E48.19419
G1 X-41.288 Y-1.163 E59.65540
G1 X-41.219 Y-2.469 E59.72947
G1 X-40.867 Y-6.939 E59.98347
G1 X-40.782 Y-7.806 E60.03279
G1 X-40.595 Y-8.656 E60.08211
G1 X-39.549 Y-13.016 E60.33612
G1 X-39.329 Y-13.859 E60.38544
G1 X-39.011 Y-14.670 E60.43476
G1 X-37.295 Y-18.812 E60.68877
G1 X-36.947 Y-19.610 E60.73809
G1 X-36.506 Y-20.361 E60.78741
G1 X-34.163 Y-24.184 E61.04141
G1 X-33.694 Y-24.918 E61.09073
G1 X-33.142 Y-25.591 E61.14006
G1 X-30.230 Y-29.000 E61.39406
G1 X-29.651 Y-29.651 E61.44338
G1 X-29.000 Y-30.230 E61.49270
G1 X-25.591 Y-33.142 E61.74670
G1 X-24.918 Y-33.694 E61.79603
G1 X-22.461 Y-35.219 E61.95982
M106 S163.2
G1 Z25.225 F7800.000
G1 E59.95982 F2400.00000
G92 E0
G1 X-30.230 Y-29.000 F7800.000
G1 E2.00000 F2400.00000
G1 F1800
G1 X-29.651 Y-29.651 E2.04932
G1 X-29.000 Y-30.229 E2.09864
G1 X-25.591 Y-33.142 E2.35265
G1 X-24.918 Y-33.694 E2.40197
G1 X-24.184 Y-34.163 E2.45129
G1 X-20.361 Y-36.506 E2.70529
G1 X-19.610 Y-36.947 E2.75461
G1 X-18.812 Y-37.295 E2.80394
G1 X-14.670 Y-39.011 E3.05794
G1 X-13.859 Y-39.329 E3.10726
G1 X-13.016 Y-39.549 E3.15658
G1 X-8.656 Y-40.595 E3.41059
G1 X-7.806 Y-40.782 E3.45991
G1 X-6.939 Y-40.867 E3.50923
G1 X-2.469 Y-41.219 E3.76324
G1 X-1.163 Y-41.287 E3.83730
G1 X201.163 Y-41.287 E15.29850
G1 X201.600 Y-41.270 E15.32325
G1 X202.469 Y-41.219 E15.37257
G1 X206.939 Y-40.867 E15.62657
G1 X207.806 Y-40.782 E15.67590
G1 X208.656 Y-40.595 E15.72522
G1 X213.016 Y-39.549 E15.97922
G1 X213.859 Y-39.329 E16.02854
G1 X214.670 Y-39.011 E16.07787
G1 X218.812 Y-37.295 E16.33187
G1 X219.610 Y-36.947 E16.38119
G1 X220.361 Y-36.506 E16.43051
G1 X224.184 Y-34.163 E16.68451
G1 X224.918 Y-33.694 E16.73384
G1 X225.591 Y-33.142 E16.78316
G1 X229.000 Y-30.229 E17.03716
G1 X229.651 Y-29.651 E17.08648
G1 X230.230 Y-29.000 E17.13580
G1 X233.142 Y-25.591 E17.38980
G1 X233.694 Y-24.918 E17.43913
G1 X234.163 Y-24.184 E17.48845
G1 X236.506 Y-20.361 E17.74245
G1 X236.947 Y-19.610 E17.79177
G1 X237.295 Y-18.812 E17.84109
G1 X238.907 Y-14.922 E18.07964
G1 X239.329 Y-13.859 E18.14442
G1 X239.549 Y-13.016 E18.19374
G1 X240.595 Y-8.656 E18.44774
G1 X240.782 Y-7.806 E18.49707
G1 X240.867 Y-6.939 E18.54639
G1 X241.219 Y-2.469 E18.80039
G1 X241.270 Y-1.600 E18.84971
G1 X241.287 Y-1.163 E18.87446
G1 X241.287 Y201.163 E30.33566
G1 X241.219 Y202.469 E30.40973
G1 X240.867 Y206.939 E30.66373
G1 X240.782 Y207.806 E30.71305
G1 X240.595 Y208.656 E30.76238
G1 X239.549 Y213.016 E31.01638
G1 X239.329 Y213.859 E31.06570
G1 X239.011 Y214.670 E31.11502
G1 X237.295 Y218.812 E31.36902
G1 X236.947 Y219.610 E31.41835
G1 X236.506 Y220.361 E31.46767
G1 X234.163 Y224.184 E31.72167
G1 X233.694 Y224.918 E31.77099
G1 X233.142 Y225.591 E31.82031
G1 X230.230 Y229.000 E32.07432
G1 X229.651 Y229.651 E32.12364
G1 X229.000 Y230.230 E32.17296
G1 X225.591 Y233.142 E32.42696
G1 X224.918 Y233.694 E32.47629
G1 X224.184 Y234.163 E32.52560
G1 X220.361 Y236.506 E32.77961
G1 X219.610 Y236.947 E32.82893
G1 X218.812 Y237.296 E32.87826
G1 X214.670 Y239.011 E33.13226
G1 X213.859 Y239.329 E33.18158
G1 X213.016 Y239.549 E33.23090
G1 X208.656 Y240.595 E33.48491
G1 X207.806 Y240.782 E33.53422
G1 X206.939 Y240.867 E33.58354
G1 X202.469 Y241.219 E33.83755
G1 X201.600 Y241.270 E33.88687
G1 X201.163 Y241.288 E33.91162
G1 X-1.163 Y241.288 E45.37282
G1 X-2.469 Y241.219 E45.44689
G1 X-6.939 Y240.867 E45.70089
G1 X-7.806 Y240.782 E45.75021
G1 X-8.656 Y240.595 E45.79953
G1 X-13.016 Y239.549 E46.05354
G1 X-13.859 Y239.329 E46.10286
G1 X-14.670 Y239.011 E46.15218
G1 X-18.812 Y237.296 E46.40618
G1 X-19.610 Y236.947 E46.45550
G1 X-20.361 Y236.506 E46.50483
G1 X-24.184 Y234.163 E46.75883
G1 X-24.918 Y233.694 E46.80815
G1 X-25.591 Y233.142 E46.85747
G1 X-29.000 Y230.230 E47.11147
G1 X-29.651 Y229.651 E47.16080
G1 X-30.230 Y229.000 E47.21012
G1 X-33.142 Y225.591 E47.46412
G1 X-33.694 Y224.918 E47.51344
G1 X-34.163 Y224.184 E47.56277
G1 X-36.506 Y220.361 E47.81677
G1 X-36.947 Y219.610 E47.86609
G1 X-37.295 Y218.812 E47.91541
G1 X-39.011 Y214.670 E48.16941
