; generated by Slic3r 1.3.0 on 2023-06-13 at 12:48:35

; external perimeters extrusion width = 24.45mm (726.99mm^3/s)
; perimeters extrusion width = 31.11mm (1854.02mm^3/s)
; infill extrusion width = 27.78mm (2205.33mm^3/s)
; solid infill extrusion width = 31.11mm (618.01mm^3/s)
; top infill extrusion width = 31.11mm (463.51mm^3/s)

M107
M104 S200 ; set temperature
G28 ; home all axes
G1 Z5 F5000 ; lift nozzle

; Filament gcode

M109 S200 ; set temperature and wait for it to be reached
G21 ; set units to millimeters
G90 ; use absolute coordinates
M82 ; use absolute distances for extrusion
G92 E0
G1 Z22.225 F7800.000
G1 E-2.00000 F2400.00000
G92 E0
G1 X225.591 Y-33.142 F7800.000
G1 E2.00000 F2400.00000
G1 F1800
G1 X229.000 Y-30.229 E6.47513
G1 X229.651 Y-29.651 E7.34405
G1 X230.230 Y-29.000 E8.21301
G1 X233.142 Y-25.591 E12.68814
G1 X233.694 Y-24.918 E13.55714
G1 X234.163 Y-24.184 E14.42612
G1 X236.507 Y-20.360 E18.90211
G1 X236.947 Y-19.610 E19.77025
G1 X237.295 Y-18.812 E20.63921
G1 X239.011 Y-14.670 E25.11433
G1 X239.329 Y-13.859 E25.98335
G1 X239.549 Y-13.016 E26.85234
G1 X240.595 Y-8.656 E31.32746
G1 X240.782 Y-7.806 E32.19648
G1 X240.867 Y-6.939 E33.06551
G1 X241.219 Y-2.469 E37.54064
G1 X241.287 Y-1.163 E38.84562
G1 X241.287 Y201.163 E240.77472
G1 X241.270 Y201.600 E241.21084
G1 X241.219 Y202.469 E242.07975
G1 X240.867 Y206.939 E246.55488
G1 X240.782 Y207.806 E247.42392
G1 X240.595 Y208.656 E248.29291
G1 X239.549 Y213.016 E252.76804
G1 X239.329 Y213.859 E253.63705
G1 X239.011 Y214.670 E254.50605
G1 X237.295 Y218.812 E258.98117
G1 X236.947 Y219.610 E259.85014
G1 X236.506 Y220.361 E260.71911
G1 X234.163 Y224.184 E265.19424
G1 X233.694 Y224.918 E266.06323
G1 X233.142 Y225.591 E266.93221
G1 X230.230 Y229.000 E271.40735
G1 X229.651 Y229.651 E272.27636
G1 X229.000 Y230.230 E273.14535
G1 X225.591 Y233.142 E277.62046
G1 X224.918 Y233.694 E278.48945
G1 X224.184 Y234.163 E279.35836
G1 X220.361 Y236.506 E283.83350
G1 X219.610 Y236.947 E284.70255
G1 X218.812 Y237.296 E285.57157
G1 X214.670 Y239.011 E290.04668
G1 X213.859 Y239.329 E290.91565
G1 X213.016 Y239.549 E291.78462
G1 X208.656 Y240.595 E296.25987
G1 X207.806 Y240.782 E297.12874
G1 X206.939 Y240.867 E297.99771
G1 X202.469 Y241.219 E302.47285
G1 X201.600 Y241.270 E303.34185
G1 X201.163 Y241.288 E303.77794
G1 X-1.163 Y241.288 E505.70709
G1 X-2.469 Y241.219 E507.01213
G1 X-6.939 Y240.867 E511.48725
G1 X-7.806 Y240.782 E512.35622
G1 X-8.656 Y240.595 E513.22522
G1 X-13.016 Y239.549 E517.70034
G1 X-13.859 Y239.329 E518.56934
G1 X-14.670 Y239.011 E519.43825
G1 X-18.812 Y237.296 E523.91337
G1 X-19.610 Y236.947 E524.78242
G1 X-20.361 Y236.506 E525.65148
G1 X-24.184 Y234.163 E530.12662
G1 X-24.918 Y233.694 E530.99554
G1 X-25.591 Y233.142 E531.86447
G1 X-29.000 Y230.230 E536.33959
G1 X-29.651 Y229.651 E537.20862
G1 X-30.230 Y229.000 E538.07766
G1 X-33.142 Y225.591 E542.55280
G1 X-33.694 Y224.918 E543.42175
G1 X-34.163 Y224.184 E544.29072
G1 X-36.506 Y220.361 E548.76585
G1 X-36.947 Y219.610 E549.63483
G1 X-37.295 Y218.812 E550.50381
G1 X-39.011 Y214.669 E554.97913
G1 X-39.329 Y213.859 E555.84794
G1 X-39.549 Y213.016 E556.71697
G1 X-40.595 Y208.656 E561.19210
G1 X-40.782 Y207.806 E562.06102
G1 X-40.867 Y206.939 E562.93003
G1 X-41.219 Y202.469 E567.40515
G1 X-41.288 Y201.163 E568.71017
G1 X-41.288 Y-1.163 E770.63934
G1 X-41.270 Y-1.600 E771.07542
G1 X-41.219 Y-2.469 E771.94441
G1 X-40.867 Y-6.939 E776.41954
G1 X-40.782 Y-7.806 E777.28853
G1 X-40.595 Y-8.656 E778.15748
G1 X-39.549 Y-13.016 E782.63261
G1 X-39.329 Y-13.859 E783.50162
G1 X-39.011 Y-14.670 E784.37065
G1 X-37.295 Y-18.812 E788.84577
G1 X-36.947 Y-19.610 E789.71473
G1 X-36.506 Y-20.361 E790.58373
G1 X-34.163 Y-24.184 E795.05886
G1 X-33.694 Y-24.918 E795.92783
G1 X-33.142 Y-25.591 E796.79681
G1 X-30.230 Y-29.000 E801.27194
G1 X-29.651 Y-29.651 E802.14092
G1 X-29.000 Y-30.230 E803.00988
G1 X-25.591 Y-33.142 E807.48508
G1 X-24.918 Y-33.694 E808.35402
G1 X-24.184 Y-34.163 E809.22307
G1 X-20.361 Y-36.506 E813.69818
G1 X-19.610 Y-36.947 E814.56712
G1 X-18.812 Y-37.295 E815.43610
G1 X-14.670 Y-39.011 E819.91123
G1 X-13.859 Y-39.329 E820.78023
G1 X-13.016 Y-39.549 E821.64923
G1 X-8.656 Y-40.595 E826.12435
G1 X-7.806 Y-40.782 E826.99336
G1 X-6.939 Y-40.867 E827.86240
G1 X-2.469 Y-41.219 E832.33752
G1 X-1.163 Y-41.287 E833.64249
G1 X201.163 Y-41.287 E1035.57161
G1 X202.469 Y-41.219 E1036.87658
G1 X206.939 Y-40.867 E1041.35171
G1 X207.806 Y-40.782 E1042.22073
G1 X208.656 Y-40.595 E1043.08976
G1 X213.016 Y-39.549 E1047.56489
G1 X213.859 Y-39.329 E1048.43386
G1 X214.670 Y-39.011 E1049.30290
G1 X218.812 Y-37.295 E1053.77802
G1 X219.610 Y-36.947 E1054.64698
G1 X220.361 Y-36.506 E1055.51592
G1 X222.827 Y-34.995 E1058.40192
G1 Z23.225 F7800.000
G1 E1056.40192 F2400.00000
G92 E0
G1 X-30.230 Y-29.000 F7800.000
G1 E2.00000 F2400.00000
G1 F1800
G1 X-29.651 Y-29.651 E2.04932
G1 X-29.000 Y-30.229 E2.09864
G1 X-25.591 Y-33.142 E2.35265
G1 X-24.918 Y-33.694 E2.40197
G1 X-24.184 Y-34.163 E2.45129
G1 X-20.361 Y-36.506 E2.70529
G1 X-19.610 Y-36.947 E2.75462
G1 X-18.812 Y-37.295 E2.80394
G1 X-14.670 Y-39.011 E3.05794
G1 X-13.859 Y-39.329 E3.10726
G1 X-13.016 Y-39.549 E3.15658
G1 X-8.656 Y-40.595 E3.41059
G1 X-7.806 Y-40.782 E3.45991
G1 X-6.939 Y-40.867 E3.50923
G1 X-2.469 Y-41.219 E3.76324
G1 X-1.163 Y-41.287 E3.83730
G1 X201.163 Y-41.287 E15.29850
G1 X201.600 Y-41.270 E15.32325
G1 X202.469 Y-41.219 E15.37257
G1 X206.939 Y-40.867 E15.62657
G1 X207.806 Y-40.782 E15.67589
G1 X208.656 Y-40.595 E15.72522
G1 X213.016 Y-39.549 E15.97922
G1 X213.859 Y-39.329 E16.02854
G1 X214.670 Y-39.011 E16.07787
G1 X218.812 Y-37.295 E16.33187
G1 X219.610 Y-36.947 E16.38119
G1 X220.361 Y-36.506 E16.43051
G1 X224.184 Y-34.163 E16.68451
G1 X224.918 Y-33.694 E16.73384
G1 X225.591 Y-33.142 E16.78316
G1 X229.000 Y-30.229 E17.03716
G1 X229.651 Y-29.651 E17.08648
G1 X230.230 Y-29.000 E17.13580
G1 X233.142 Y-25.591 E17.38980
G1 X233.694 Y-24.918 E17.43913
G1 X234.163 Y-24.184 E17.48845
G1 X236.506 Y-20.361 E17.74245
G1 X236.947 Y-19.610 E17.79177
G1 X237.295 Y-18.812 E17.84109
G1 X238.909 Y-14.917 E18.07994
G1 X239.329 Y-13.859 E18.14442
G1 X239.549 Y-13.016 E18.19374
G1 X240.595 Y-8.656 E18.44774
G1 X240.782 Y-7.806 E18.49707
G1 X240.867 Y-6.939 E18.54639
G1 X241.219 Y-2.469 E18.80039
G1 X241.270 Y-1.600 E18.84971
G1 X241.287 Y-1.163 E18.87446
G1 X241.287 Y201.163 E30.33566
G1 X241.219 Y202.469 E30.40973
G1 X240.867 Y206.939 E30.66373
G1 X240.782 Y207.806 E30.71305
G1 X240.595 Y208.656 E30.76238
G1 X239.549 Y213.016 E31.01638
G1 X239.329 Y213.859 E31.06570
G1 X239.011 Y214.670 E31.11502
G1 X237.295 Y218.812 E31.36902
G1 X236.947 Y219.610 E31.41835
G1 X236.506 Y220.361 E31.46767
G1 X234.163 Y224.184 E31.72168
G1 X233.694 Y224.918 E31.77099
G1 X233.142 Y225.591 E31.82031
G1 X230.230 Y229.000 E32.07432
G1 X229.651 Y229.651 E32.12364
G1 X229.000 Y230.230 E32.17296
G1 X225.591 Y233.142 E32.42696
G1 X224.918 Y233.694 E32.47629
G1 X224.184 Y234.163 E32.52560
G1 X220.361 Y236.506 E32.77961
G1 X219.610 Y236.947 E32.82893
G1 X218.812 Y237.296 E32.87826
G1 X214.670 Y239.011 E33.13226
G1 X213.859 Y239.329 E33.18158
G1 X213.016 Y239.549 E33.23090
G1 X208.656 Y240.595 E33.48491
G1 X207.806 Y240.782 E33.53422
G1 X206.939 Y240.867 E33.58354
G1 X202.469 Y241.219 E33.83755
G1 X201.600 Y241.270 E33.88687
G1 X201.163 Y241.288 E33.91162
G1 X-1.163 Y241.288 E45.37282
G1 X-2.469 Y241.219 E45.44689
G1 X-6.939 Y240.867 E45.70089
G1 X-7.806 Y240.782 E45.75021
G1 X-8.656 Y240.595 E45.79953
G1 X-13.016 Y239.549 E46.05354
G1 X-13.859 Y239.329 E46.10286
G1 X-14.670 Y239.011 E46.15218
G1 X-18.812 Y237.296 E46.40618
G1 X-19.610 Y236.947 E46.45550
G1 X-20.361 Y236.506 E46.50483
G1 X-24.184 Y234.163 E46.75883
G1 X-24.918 Y233.694 E46.80815
G1 X-25.591 Y233.142 E46.85747
G1 X-29.000 Y230.230 E47.11147
G1 X-29.651 Y229.651 E47.16080
G1 X-30.230 Y229.000 E47.21012
G1 X-33.142 Y225.591 E47.46412
G1 X-33.694 Y224.918 E47.51344
G1 X-34.163 Y224.184 E47.56277
G1 X-36.506 Y220.361 E47.81677
G1 X-36.947 Y219.610 E47.86609
G1 X-37.295 Y218.812 E47.91541
G1 X-39.011 Y214.670 E48.16941
G1 X-39.329 Y213.859 E48.21874
G1 X-39.549 Y213.016 E48.26806
G1 X-40.595 Y208.656 E48.52206
G1 X-40.782 Y207.806 E48.57138
G1 X-40.867 Y206.939 E48.62071
G1 X-41.219 Y202.469 E48.87471
G1 X-41.288 Y201.163 E48.94878
G1 X-41.288 Y-1.163 E60.40997
G1 X-41.219 Y-2.469 E60.48404
G1 X-40.867 Y-6.939 E60.73805
G1 X-40.782 Y-7.806 E60.78737
G1 X-40.595 Y-8.656 E60.83669
G1 X-39.549 Y-13.016 E61.09069
G1 X-39.329 Y-13.859 E61.14001
G1 X-39.011 Y-14.670 E61.18934
G1 X-37.295 Y-18.812 E61.44334
G1 X-36.947 Y-19.610 E61.49266
G1 X-36.506 Y-20.361 E61.54198
G1 X-34.163 Y-24.184 E61.79599
G1 X-33.694 Y-24.918 E61.84531
G1 X-32.395 Y-26.465 E61.95978
G1 Z24.225 F7800.000
G1 E59.95978 F2400.00000
G92 E0
G1 X-29.000 Y-30.229 F7800.000
G1 E2.00000 F2400.00000
G1 F1800
G1 X-25.591 Y-33.142 E2.25400
G1 X-24.918 Y-33.694 E2.30333
G1 X-24.184 Y-34.163 E2.35265
G1 X-20.361 Y-36.506 E2.60665
G1 X-19.610 Y-36.947 E2.65597
G1 X-18.812 Y-37.295 E2.70529
G1 X-14.670 Y-39.011 E2.95930
G1 X-13.859 Y-39.329 E3.00862
G1 X-13.016 Y-39.549 E3.05794
G1 X-8.656 Y-40.595 E3.31195
G1 X-7.806 Y-40.782 E3.36127
G1 X-6.939 Y-40.867 E3.41059
G1 X-2.469 Y-41.219 E3.66460
G1 X-1.600 Y-41.270 E3.71391
G1 X-1.163 Y-41.287 E3.73867
G1 X201.163 Y-41.287 E15.19988
G1 X202.469 Y-41.219 E15.27395
G1 X206.939 Y-40.867 E15.52795
G1 X207.806 Y-40.782 E15.57728
G1 X208.656 Y-40.595 E15.62660
G1 X213.016 Y-39.549 E15.88060
G1 X213.859 Y-39.329 E15.92993
G1 X214.670 Y-39.011 E15.97925
G1 X218.812 Y-37.295 E16.23325
G1 X219.610 Y-36.947 E16.28257
G1 X220.361 Y-36.506 E16.33189
G1 X224.184 Y-34.163 E16.58589
G1 X224.918 Y-33.694 E16.63522
G1 X225.591 Y-33.142 E16.68455
G1 X229.000 Y-30.229 E16.93855
G1 X229.651 Y-29.651 E16.98787
G1 X230.230 Y-29.000 E17.03719
G1 X233.142 Y-25.591 E17.29119
G1 X233.694 Y-24.918 E17.34051
G1 X234.163 Y-24.184 E17.38984
G1 X236.506 Y-20.361 E17.64384
G1 X236.947 Y-19.610 E17.69316
G1 X237.295 Y-18.812 E17.74248
G1 X238.905 Y-14.928 E17.98067
G1 X239.329 Y-13.859 E18.04580
G1 X239.549 Y-13.016 E18.09513
G1 X240.595 Y-8.656 E18.34913
G1 X240.782 Y-7.806 E18.39845
G1 X240.867 Y-6.939 E18.44778
G1 X241.219 Y-2.469 E18.70178
G1 X241.270 Y-1.600 E18.75110
G1 X241.287 Y-1.163 E18.77585
G1 X241.287 Y201.163 E30.23707
G1 X241.219 Y202.469 E30.31113
G1 X240.867 Y206.939 E30.56514
G1 X240.782 Y207.806 E30.61446
G1 X240.595 Y208.656 E30.66378
G1 X239.549 Y213.016 E30.91779
G1 X239.329 Y213.859 E30.96711
G1 X239.011 Y214.670 E31.01643
G1 X237.295 Y218.812 E31.27044
G1 X236.947 Y219.610 E31.31976
G1 X236.506 Y220.361 E31.36908
G1 X234.163 Y224.184 E31.62308
G1 X233.694 Y224.918 E31.67240
G1 X233.142 Y225.591 E31.72172
G1 X230.230 Y229.000 E31.97573
G1 X229.651 Y229.651 E32.02505
G1 X229.000 Y230.230 E32.07437
G1 X225.591 Y233.142 E32.32837
G1 X224.918 Y233.694 E32.37770
G1 X224.184 Y234.163 E32.42702
G1 X220.361 Y236.506 E32.68102
G1 X219.610 Y236.947 E32.73034
G1 X218.812 Y237.296 E32.77967
G1 X214.670 Y239.011 E33.03367
G1 X213.859 Y239.329 E33.08299
G1 X213.016 Y239.549 E33.13231
G1 X208.656 Y240.595 E33.38631
G1 X207.806 Y240.782 E33.43564
G1 X206.939 Y240.867 E33.48496
G1 X202.469 Y241.219 E33.73896
G1 X201.600 Y241.270 E33.78828
G1 X201.163 Y241.288 E33.81304
G1 X-1.163 Y241.288 E45.27425
G1 X-2.469 Y241.219 E45.34832
G1 X-6.939 Y240.867 E45.60233
G1 X-7.806 Y240.782 E45.65165
G1 X-8.656 Y240.595 E45.70097
G1 X-13.016 Y239.549 E45.95497
G1 X-13.859 Y239.329 E46.00430
G1 X-14.670 Y239.011 E46.05361
G1 X-18.812 Y237.296 E46.30762
G1 X-19.610 Y236.947 E46.35694
G1 X-20.361 Y236.506 E46.40627
G1 X-24.184 Y234.163 E46.66027
G1 X-24.918 Y233.694 E46.70959
G1 X-25.591 Y233.142 E46.75891
G1 X-29.000 Y230.230 E47.01291
G1 X-29.651 Y229.651 E47.06224
G1 X-30.230 Y229.000 E47.11156
G1 X-33.142 Y225.591 E47.36556
G1 X-33.694 Y224.918 E47.41488
G1 X-34.163 Y224.184 E47.46421
G1 X-36.506 Y220.361 E47.71821
G1 X-36.947 Y219.610 E47.76753
G1 X-37.295 Y218.812 E47.81685
G1 X-39.011 Y214.670 E48.07086
G1 X-39.329 Y213.859 E48.12018
G1 X-39.549 Y213.016 E48.16950
G1 X-40.595 Y208.656 E48.42350
G1 X-40.782 Y207.806 E48.47282
G1 X-40.867 Y206.939 E48.52215
G1 X-41.219 Y202.469 E48.77615
G1 X-41.288 Y201.163 E48.85022
G1 X-41.288 Y-1.163 E60.31144
G1 X-41.270 Y-1.600 E60.33619
G1 X-41.219 Y-2.469 E60.38551
G1 X-40.867 Y-6.939 E60.63951
G1 X-40.782 Y-7.806 E60.68884
G1 X-40.595 Y-8.656 E60.73816
G1 X-39.549 Y-13.016 E60.99216
G1 X-39.329 Y-13.859 E61.04148
G1 X-39.011 Y-14.670 E61.09081
G1 X-37.295 Y-18.812 E61.34481
G1 X-36.947 Y-19.610 E61.39413
G1 X-36.506 Y-20.361 E61.44345
G1 X-34.163 Y-24.184 E61.69745
G1 X-33.694 Y-24.918 E61.74678
G1 X-33.142 Y-25.591 E61.79610
G1 X-31.264 Y-27.789 E61.95990
M106 S163.2
G1 Z25.225 F7800.000
G1 X-30.230 Y-29.000 F7800.000
G1 F1800
G1 X-29.651 Y-29.651 E62.00922
G1 X-29.000 Y-30.230 E62.05854
G1 X-25.591 Y-33.142 E62.31254
G1 X-24.918 Y-33.694 E62.36186
G1 X-24.184 Y-34.163 E62.41119
G1 X-20.361 Y-36.506 E62.66519
G1 X-19.610 Y-36.947 E62.71451
G1 X-18.812 Y-37.295 E62.76383
G1 X-14.670 Y-39.011 E63.01783
G1 X-13.859 Y-39.329 E63.06716
G1 X-13.016 Y-39.549 E63.11648
G1 X-8.656 Y-40.595 E63.37048
G1 X-7.806 Y-40.782 E63.41981
G1 X-6.939 Y-40.867 E63.46913
G1 X-2.469 Y-41.219 E63.72313
G1 X-1.163 Y-41.287 E63.79720
G1 X201.163 Y-41.287 E75.25839
G1 X201.600 Y-41.270 E75.28315
G1 X202.469 Y-41.219 E75.33246
G1 X206.939 Y-40.867 E75.58647
G1 X207.806 Y-40.782 E75.63579
G1 X208.656 Y-40.595 E75.68512
G1 X213.016 Y-39.549 E75.93912
G1 X213.859 Y-39.329 E75.98844
G1 X214.670 Y-39.011 E76.03776
G1 X218.812 Y-37.295 E76.29177
G1 X219.610 Y-36.947 E76.34109
G1 X220.361 Y-36.506 E76.39041
G1 X224.184 Y-34.163 E76.64442
G1 X224.918 Y-33.694 E76.69373
G1 X225.591 Y-33.142 E76.74306
G1 X229.000 Y-30.229 E76.99706
G1 X229.651 Y-29.651 E77.04638
G1 X230.230 Y-29.000 E77.09570
G1 X233.142 Y-25.591 E77.34970
G1 X233.694 Y-24.918 E77.39902
G1 X234.163 Y-24.184 E77.44835
G1 X236.506 Y-20.361 E77.70235
G1 X236.947 Y-19.610 E77.75167
G1 X237.295 Y-18.812 E77.80099
G1 X239.011 Y-14.670 E78.05499
G1 X239.329 Y-13.859 E78.10432
G1 X239.549 Y-13.016 E78.15364
G1 X240.595 Y-8.656 E78.40764
G1 X240.782 Y-7.806 E78.45696
G1 X240.867 Y-6.939 E78.50629
G1 X241.219 Y-2.469 E78.76029
G1 X241.270 Y-1.600 E78.80961
G1 X241.287 Y-1.163 E78.83436
G1 X241.287 Y201.163 E90.29556
G1 X241.219 Y202.469 E90.36962
G1 X240.867 Y206.939 E90.62362
G1 X240.782 Y207.806 E90.67295
G1 X240.595 Y208.656 E90.72227
G1 X239.549 Y213.016 E90.97627
G1 X239.329 Y213.859 E91.02560
G1 X239.011 Y214.670 E91.07492
G1 X237.295 Y218.812 E91.32892
G1 X236.947 Y219.610 E91.37824
G1 X236.506 Y220.361 E91.42757
G1 X234.163 Y224.184 E91.68157
G1 X233.694 Y224.918 E91.73089
G1 X233.142 Y225.591 E91.78021
G1 X230.230 Y229.000 E92.03421
G1 X229.651 Y229.651 E92.08354
G1 X229.000 Y230.230 E92.13286
G1 X225.591 Y233.142 E92.38686
G1 X224.918 Y233.694 E92.43618
G1 X224.184 Y234.163 E92.48550
G1 X220.361 Y236.506 E92.73950
G1 X219.610 Y236.947 E92.78883
G1 X218.812 Y237.296 E92.83815
G1 X214.670 Y239.011 E93.09215
G1 X213.859 Y239.329 E93.14148
G1 X213.016 Y239.549 E93.19080
G1 X208.656 Y240.595 E93.44480
G1 X207.806 Y240.782 E93.49412
G1 X206.939 Y240.867 E93.54344
G1 X202.469 Y241.219 E93.79745
G1 X201.600 Y241.270 E93.84677
G1 X201.163 Y241.288 E93.87152
G1 X-1.163 Y241.288 E105.33272
G1 X-2.469 Y241.219 E105.40679
G1 X-6.939 Y240.867 E105.66079
G1 X-7.806 Y240.782 E105.71011
G1 X-8.656 Y240.595 E105.75943
G1 X-13.016 Y239.549 E106.01343
G1 X-13.859 Y239.329 E106.06276
G1 X-14.670 Y239.011 E106.11207
G1 X-18.812 Y237.295 E106.36609
G1 X-19.610 Y236.947 E106.41540
G1 X-20.361 Y236.506 E106.46473
G1 X-24.184 Y234.163 E106.71873
G1 X-24.918 Y233.694 E106.76805
G1 X-25.591 Y233.142 E106.81737
G1 X-29.000 Y230.230 E107.07137
G1 X-29.651 Y229.651 E107.12070
G1 X-30.230 Y229.000 E107.17002
G1 X-33.142 Y225.591 E107.42402
G1 X-33.694 Y224.918 E107.47334
G1 X-34.163 Y224.184 E107.52266
G1 X-36.506 Y220.361 E107.77667
G1 X-36.947 Y219.610 E107.82599
G1 X-37.295 Y218.812 E107.87531
G1 X-39.011 Y214.670 E108.12931
