; generated by Slic3r 1.3.0 on 2023-06-20 at 14:09:16

; external perimeters extrusion width = 24.45mm (726.99mm^3/s)
; perimeters extrusion width = 31.11mm (1854.02mm^3/s)
; infill extrusion width = 27.78mm (2205.33mm^3/s)
; solid infill extrusion width = 31.11mm (618.01mm^3/s)
; top infill extrusion width = 31.11mm (463.51mm^3/s)

M107
M104 S200 ; set temperature
G28 ; home all axes
G1 Z5 F5000 ; lift nozzle

; Filament gcode

M109 S200 ; set temperature and wait for it to be reached
G21 ; set units to millimeters
G90 ; use absolute coordinates
M82 ; use absolute distances for extrusion
G92 E0
G1 Z22.225 F7800.000
G1 E-2.00000 F2400.00000
G92 E0
G1 X0.000 Y34.912 F7800.000
G1 E2.00000 F2400.00000
G1 F1800
G1 X207.513 Y34.912 E209.10546
G1 X208.819 Y34.981 E210.41046
G1 X212.296 Y35.255 E213.89110
G1 X213.162 Y35.340 E214.76010
G1 X214.013 Y35.526 E215.62912
G1 X217.404 Y36.341 E219.10976
G1 X218.247 Y36.560 E219.97876
G1 X219.057 Y36.878 E220.84770
G1 X222.279 Y38.212 E224.32836
G1 X223.077 Y38.561 E225.19737
G1 X223.828 Y39.002 E226.06634
G1 X226.802 Y40.824 E229.54700
G1 X227.535 Y41.293 E230.41601
G1 X228.208 Y41.846 E231.28495
G1 X230.860 Y44.111 E234.76561
G1 X231.511 Y44.689 E235.63466
G1 X232.089 Y45.340 E236.50369
G1 X234.354 Y47.992 E239.98433
G1 X234.907 Y48.665 E240.85326
G1 X235.376 Y49.398 E241.72225
G1 X237.198 Y52.372 E245.20290
G1 X237.639 Y53.123 E246.07186
G1 X237.988 Y53.921 E246.94092
G1 X239.322 Y57.143 E250.42156
G1 X239.639 Y57.953 E251.29047
G1 X239.859 Y58.796 E252.15937
G1 X240.673 Y62.187 E255.64002
G1 X240.860 Y63.038 E256.50916
G1 X240.945 Y63.904 E257.37819
G1 X241.219 Y67.381 E260.85884
G1 X241.287 Y68.687 E262.16381
G1 X241.287 Y131.313 E324.66742
G1 X241.219 Y132.619 E325.97240
G1 X240.945 Y136.096 E329.45304
G1 X240.860 Y136.962 E330.32207
G1 X240.673 Y137.813 E331.19119
G1 X239.859 Y141.204 E334.67186
G1 X239.639 Y142.047 E335.54076
G1 X239.322 Y142.857 E336.40968
G1 X237.988 Y146.079 E339.89032
G1 X237.639 Y146.877 E340.75936
G1 X237.198 Y147.628 E341.62831
G1 X235.376 Y150.602 E345.10896
G1 X234.907 Y151.335 E345.97798
G1 X234.354 Y152.008 E346.84693
G1 X232.089 Y154.660 E350.32755
G1 X231.511 Y155.311 E351.19659
G1 X230.860 Y155.889 E352.06558
G1 X228.208 Y158.154 E355.54625
G1 X227.535 Y158.707 E356.41521
G1 X226.802 Y159.176 E357.28427
G1 X223.828 Y160.998 E360.76492
G1 X223.077 Y161.439 E361.63386
G1 X222.279 Y161.788 E362.50283
G1 X219.057 Y163.122 E365.98349
G1 X218.247 Y163.440 E366.85248
G1 X217.404 Y163.659 E367.72150
G1 X214.013 Y164.474 E371.20214
G1 X213.162 Y164.660 E372.07112
G1 X212.296 Y164.745 E372.94009
G1 X208.819 Y165.019 E376.42074
G1 X207.950 Y165.070 E377.28974
G1 X207.513 Y165.088 E377.72584
G1 X-7.513 Y165.088 E592.32991
G1 X-8.819 Y165.019 E593.63497
G1 X-12.296 Y164.745 E597.11561
G1 X-13.162 Y164.660 E597.98457
G1 X-14.013 Y164.474 E598.85353
G1 X-17.404 Y163.659 E602.33418
G1 X-18.247 Y163.440 E603.20318
G1 X-19.057 Y163.122 E604.07222
G1 X-22.279 Y161.788 E607.55288
G1 X-23.077 Y161.439 E608.42184
G1 X-23.828 Y160.998 E609.29080
G1 X-26.802 Y159.176 E612.77144
G1 X-27.535 Y158.707 E613.64046
G1 X-28.208 Y158.154 E614.50948
G1 X-30.860 Y155.889 E617.99014
G1 X-31.511 Y155.311 E618.85907
G1 X-32.089 Y154.660 E619.72805
G1 X-34.354 Y152.008 E623.20869
G1 X-34.907 Y151.335 E624.07770
G1 X-35.376 Y150.602 E624.94668
G1 X-37.198 Y147.628 E628.42734
G1 X-37.639 Y146.877 E629.29634
G1 X-37.988 Y146.079 E630.16531
G1 X-39.322 Y142.857 E633.64599
G1 X-39.640 Y142.047 E634.51495
G1 X-39.859 Y141.204 E635.38392
G1 X-40.674 Y137.813 E638.86458
G1 X-40.860 Y136.962 E639.73358
G1 X-40.945 Y136.096 E640.60259
G1 X-41.219 Y132.619 E644.08323
G1 X-41.288 Y131.313 E645.38823
G1 X-41.288 Y68.687 E707.89191
G1 X-41.219 Y67.381 E709.19691
G1 X-40.945 Y63.904 E712.67755
G1 X-40.860 Y63.038 E713.54656
G1 X-40.674 Y62.187 E714.41557
G1 X-39.859 Y58.796 E717.89622
G1 X-39.640 Y57.953 E718.76519
G1 X-39.322 Y57.143 E719.63417
G1 X-37.988 Y53.921 E723.11486
G1 X-37.639 Y53.123 E723.98380
G1 X-37.198 Y52.372 E724.85281
G1 X-35.376 Y49.398 E728.33346
G1 X-34.907 Y48.665 E729.20244
G1 X-34.354 Y47.992 E730.07142
G1 X-32.089 Y45.340 E733.55207
G1 X-31.511 Y44.689 E734.42105
G1 X-30.860 Y44.111 E735.29005
G1 X-28.208 Y41.846 E738.77069
G1 X-27.535 Y41.293 E739.63970
G1 X-26.802 Y40.824 E740.50867
G1 X-23.828 Y39.002 E743.98932
G1 X-23.077 Y38.561 E744.85831
G1 X-22.279 Y38.212 E745.72731
G1 X-19.057 Y36.878 E749.20796
G1 X-18.247 Y36.560 E750.07695
G1 X-17.404 Y36.341 E750.94592
G1 X-14.013 Y35.526 E754.42658
G1 X-13.162 Y35.340 E755.29558
G1 X-12.296 Y35.255 E756.16458
G1 X-8.819 Y34.981 E759.64522
G1 X-7.950 Y34.930 E760.51419
G1 X-7.513 Y34.912 E760.95028
G1 X-3.334 Y34.912 E765.12171
G1 Z23.225 F7800.000
G1 E763.12171 F2400.00000
G92 E0
G1 X0.000 Y34.912 F7800.000
G1 E2.00000 F2400.00000
G1 F1800
G1 X207.513 Y34.912 E13.75502
G1 X208.819 Y34.981 E13.82909
G1 X212.849 Y35.305 E14.05809
G1 X213.162 Y35.340 E14.07596
G1 X214.013 Y35.526 E14.12529
G1 X217.404 Y36.341 E14.32285
G1 X218.247 Y36.560 E14.37217
G1 X219.057 Y36.878 E14.42149
G1 X222.279 Y38.212 E14.61905
G1 X223.077 Y38.561 E14.66837
G1 X223.828 Y39.002 E14.71769
G1 X226.802 Y40.824 E14.91525
G1 X227.535 Y41.293 E14.96457
G1 X228.208 Y41.846 E15.01389
G1 X230.860 Y44.111 E15.21145
G1 X231.511 Y44.689 E15.26078
G1 X232.089 Y45.340 E15.31010
G1 X234.354 Y47.992 E15.50766
G1 X234.907 Y48.665 E15.55698
G1 X235.376 Y49.398 E15.60630
G1 X237.198 Y52.372 E15.80386
G1 X237.639 Y53.123 E15.85318
G1 X237.988 Y53.921 E15.90250
G1 X239.322 Y57.143 E16.10006
G1 X239.639 Y57.953 E16.14938
G1 X239.859 Y58.796 E16.19870
G1 X240.673 Y62.187 E16.39625
G1 X240.860 Y63.038 E16.44558
G1 X240.945 Y63.904 E16.49491
G1 X241.219 Y67.381 E16.69246
G1 X241.287 Y68.687 E16.76653
G1 X241.287 Y131.313 E20.31415
G1 X241.219 Y132.619 E20.38822
G1 X240.945 Y136.096 E20.58578
G1 X240.860 Y136.962 E20.63510
G1 X240.673 Y137.813 E20.68443
G1 X239.859 Y141.204 E20.88199
G1 X239.639 Y142.047 E20.93131
G1 X239.322 Y142.857 E20.98062
G1 X237.988 Y146.079 E21.17818
G1 X237.639 Y146.877 E21.22750
G1 X237.198 Y147.628 E21.27683
G1 X235.376 Y150.602 E21.47438
G1 X234.907 Y151.335 E21.52371
G1 X234.354 Y152.008 E21.57303
G1 X232.089 Y154.660 E21.77058
G1 X231.511 Y155.311 E21.81991
G1 X230.860 Y155.889 E21.86923
G1 X228.208 Y158.154 E22.06679
G1 X227.535 Y158.707 E22.11611
G1 X226.802 Y159.176 E22.16544
G1 X223.828 Y160.998 E22.36299
G1 X223.077 Y161.439 E22.41231
G1 X222.279 Y161.788 E22.46163
G1 X219.057 Y163.122 E22.65919
G1 X218.247 Y163.440 E22.70852
G1 X217.404 Y163.659 E22.75784
G1 X214.013 Y164.474 E22.95540
G1 X213.162 Y164.660 E23.00472
G1 X212.296 Y164.745 E23.05404
G1 X208.819 Y165.019 E23.25160
G1 X207.950 Y165.070 E23.30092
G1 X207.513 Y165.088 E23.32567
G1 X-7.513 Y165.088 E35.50630
G1 X-8.819 Y165.019 E35.58037
G1 X-12.296 Y164.745 E35.77793
G1 X-13.162 Y164.660 E35.82725
G1 X-14.013 Y164.474 E35.87657
G1 X-17.404 Y163.659 E36.07413
G1 X-18.247 Y163.440 E36.12345
G1 X-19.057 Y163.122 E36.17277
G1 X-22.279 Y161.788 E36.37033
G1 X-23.077 Y161.439 E36.41965
G1 X-23.828 Y160.998 E36.46897
G1 X-27.272 Y158.880 E36.69798
G1 X-27.535 Y158.707 E36.71585
G1 X-28.208 Y158.154 E36.76518
G1 X-30.860 Y155.889 E36.96274
G1 X-31.511 Y155.311 E37.01206
G1 X-32.089 Y154.660 E37.06138
G1 X-34.354 Y152.008 E37.25893
G1 X-34.907 Y151.335 E37.30826
G1 X-35.376 Y150.602 E37.35758
G1 X-37.198 Y147.628 E37.55514
G1 X-37.639 Y146.877 E37.60446
G1 X-37.988 Y146.079 E37.65378
G1 X-39.322 Y142.857 E37.85134
G1 X-39.640 Y142.047 E37.90066
G1 X-39.859 Y141.204 E37.94998
G1 X-40.674 Y137.813 E38.14754
G1 X-40.860 Y136.962 E38.19686
G1 X-40.945 Y136.096 E38.24619
G1 X-41.219 Y132.619 E38.44374
G1 X-41.288 Y131.313 E38.51781
G1 X-41.288 Y68.687 E42.06544
G1 X-41.219 Y67.381 E42.13951
G1 X-40.945 Y63.904 E42.33706
G1 X-40.860 Y63.038 E42.38639
G1 X-40.674 Y62.187 E42.43571
G1 X-39.859 Y58.796 E42.63327
G1 X-39.640 Y57.953 E42.68259
G1 X-39.322 Y57.143 E42.73191
G1 X-37.769 Y53.410 E42.96091
G1 X-37.639 Y53.123 E42.97879
G1 X-37.198 Y52.372 E43.02811
G1 X-35.376 Y49.398 E43.22567
G1 X-34.907 Y48.665 E43.27499
G1 X-34.354 Y47.992 E43.32431
G1 X-32.089 Y45.340 E43.52187
G1 X-31.511 Y44.689 E43.57119
G1 X-30.860 Y44.111 E43.62052
G1 X-28.208 Y41.846 E43.81807
G1 X-27.535 Y41.293 E43.86740
G1 X-26.802 Y40.824 E43.91672
G1 X-23.828 Y39.002 E44.11427
G1 X-23.077 Y38.561 E44.16360
G1 X-22.279 Y38.212 E44.21292
G1 X-19.057 Y36.878 E44.41048
G1 X-18.247 Y36.560 E44.45980
G1 X-17.404 Y36.341 E44.50912
G1 X-14.013 Y35.526 E44.70668
G1 X-13.162 Y35.340 E44.75600
G1 X-12.296 Y35.255 E44.80532
G1 X-8.819 Y34.981 E45.00288
G1 X-7.950 Y34.930 E45.05220
G1 X-7.513 Y34.912 E45.07695
G1 X-3.334 Y34.912 E45.31372
G1 Z24.225 F7800.000
G1 E43.31372 F2400.00000
G92 E0
G1 X0.000 Y34.912 F7800.000
G1 E2.00000 F2400.00000
G1 F1800
G1 X207.513 Y34.912 E13.75502
G1 X208.802 Y34.980 E13.82813
G1 X212.296 Y35.255 E14.02664
G1 X213.162 Y35.340 E14.07597
G1 X214.013 Y35.526 E14.12529
G1 X217.404 Y36.341 E14.32285
G1 X218.247 Y36.560 E14.37217
G1 X219.057 Y36.878 E14.42149
G1 X222.279 Y38.212 E14.61905
G1 X223.077 Y38.561 E14.66837
G1 X223.828 Y39.002 E14.71769
G1 X226.802 Y40.824 E14.91525
G1 X227.535 Y41.293 E14.96457
G1 X228.208 Y41.846 E15.01389
G1 X230.860 Y44.111 E15.21145
G1 X231.511 Y44.689 E15.26078
G1 X232.089 Y45.340 E15.31010
G1 X234.354 Y47.992 E15.50766
G1 X234.907 Y48.665 E15.55698
G1 X235.376 Y49.398 E15.60630
G1 X237.198 Y52.372 E15.80386
G1 X237.639 Y53.123 E15.85318
G1 X237.988 Y53.921 E15.90250
G1 X239.322 Y57.143 E16.10006
G1 X239.639 Y57.953 E16.14938
G1 X239.859 Y58.796 E16.19870
G1 X240.673 Y62.187 E16.39625
G1 X240.860 Y63.038 E16.44558
G1 X240.945 Y63.904 E16.49491
G1 X241.219 Y67.381 E16.69247
G1 X241.287 Y68.687 E16.76653
G1 X241.287 Y131.313 E20.31415
G1 X241.219 Y132.619 E20.38822
G1 X240.945 Y136.096 E20.58578
G1 X240.860 Y136.962 E20.63510
G1 X240.673 Y137.813 E20.68443
G1 X239.859 Y141.204 E20.88199
G1 X239.639 Y142.047 E20.93131
G1 X239.322 Y142.857 E20.98062
G1 X237.988 Y146.079 E21.17818
G1 X237.639 Y146.877 E21.22751
G1 X237.198 Y147.628 E21.27683
G1 X235.376 Y150.602 E21.47438
G1 X234.907 Y151.335 E21.52371
G1 X234.354 Y152.008 E21.57303
G1 X232.089 Y154.660 E21.77058
G1 X231.511 Y155.311 E21.81991
G1 X230.860 Y155.889 E21.86923
G1 X228.208 Y158.154 E22.06679
G1 X227.535 Y158.707 E22.11611
G1 X226.802 Y159.176 E22.16544
G1 X223.828 Y160.998 E22.36299
G1 X223.077 Y161.439 E22.41231
G1 X222.279 Y161.788 E22.46164
G1 X219.057 Y163.122 E22.65919
G1 X218.247 Y163.440 E22.70852
G1 X217.404 Y163.659 E22.75784
G1 X214.013 Y164.474 E22.95540
G1 X213.162 Y164.660 E23.00472
G1 X212.296 Y164.745 E23.05404
G1 X208.819 Y165.019 E23.25160
G1 X207.950 Y165.070 E23.30092
G1 X207.513 Y165.088 E23.32567
G1 X-7.513 Y165.088 E35.50630
G1 X-8.819 Y165.019 E35.58037
G1 X-12.296 Y164.745 E35.77793
G1 X-13.162 Y164.660 E35.82725
G1 X-14.013 Y164.474 E35.87657
G1 X-17.404 Y163.659 E36.07413
G1 X-18.247 Y163.440 E36.12345
G1 X-19.057 Y163.122 E36.17278
G1 X-22.279 Y161.788 E36.37033
G1 X-23.077 Y161.439 E36.41965
G1 X-23.828 Y160.998 E36.46897
G1 X-27.228 Y158.909 E36.69501
G1 X-27.535 Y158.707 E36.71586
G1 X-28.208 Y158.154 E36.76518
G1 X-30.860 Y155.889 E36.96274
G1 X-31.511 Y155.311 E37.01206
G1 X-32.089 Y154.660 E37.06138
G1 X-34.354 Y152.008 E37.25894
G1 X-34.907 Y151.335 E37.30826
G1 X-35.376 Y150.602 E37.35758
G1 X-37.198 Y147.628 E37.55514
G1 X-37.639 Y146.877 E37.60446
G1 X-37.988 Y146.079 E37.65378
G1 X-39.322 Y142.857 E37.85134
G1 X-39.640 Y142.047 E37.90066
G1 X-39.859 Y141.204 E37.94998
G1 X-40.674 Y137.813 E38.14754
G1 X-40.860 Y136.962 E38.19686
G1 X-40.945 Y136.096 E38.24619
G1 X-41.219 Y132.619 E38.44374
G1 X-41.288 Y131.313 E38.51781
G1 X-41.288 Y68.687 E42.06544
G1 X-41.219 Y67.381 E42.13951
G1 X-40.945 Y63.904 E42.33706
G1 X-40.860 Y63.038 E42.38639
G1 X-40.674 Y62.187 E42.43571
G1 X-39.859 Y58.796 E42.63327
G1 X-39.640 Y57.953 E42.68259
G1 X-39.322 Y57.143 E42.73191
G1 X-37.988 Y53.921 E42.92947
G1 X-37.639 Y53.123 E42.97879
G1 X-37.198 Y52.372 E43.02811
G1 X-35.376 Y49.398 E43.22567
G1 X-34.907 Y48.665 E43.27499
G1 X-34.354 Y47.992 E43.32431
G1 X-32.089 Y45.340 E43.52187
G1 X-31.511 Y44.689 E43.57119
G1 X-30.860 Y44.111 E43.62052
G1 X-28.208 Y41.846 E43.81807
G1 X-27.535 Y41.293 E43.86740
G1 X-26.802 Y40.824 E43.91672
G1 X-23.828 Y39.002 E44.11427
G1 X-23.077 Y38.561 E44.16360
G1 X-22.279 Y38.212 E44.21292
G1 X-19.057 Y36.878 E44.41048
G1 X-18.247 Y36.560 E44.45980
G1 X-17.404 Y36.341 E44.50912
G1 X-14.013 Y35.526 E44.70668
G1 X-13.162 Y35.340 E44.75600
G1 X-12.296 Y35.255 E44.80533
G1 X-8.819 Y34.981 E45.00288
G1 X-7.950 Y34.930 E45.05220
G1 X-7.513 Y34.912 E45.07695
G1 X-3.334 Y34.912 E45.31372
M106 S191.25
G1 Z25.225 F7800.000
G1 E43.31372 F2400.00000
G92 E0
G1 X0.000 Y34.912 F7800.000
G1 E2.00000 F2400.00000
G1 F1800
G1 X207.513 Y34.912 E13.75502
G1 X208.819 Y34.981 E13.82909
G1 X212.699 Y35.290 E14.04955
G1 X213.162 Y35.340 E14.07597
G1 X214.013 Y35.526 E14.12529
G1 X217.404 Y36.341 E14.32285
G1 X218.247 Y36.560 E14.37217
G1 X219.057 Y36.878 E14.42149
G1 X222.279 Y38.212 E14.61905
G1 X223.077 Y38.561 E14.66837
G1 X223.828 Y39.002 E14.71769
G1 X226.802 Y40.824 E14.91525
G1 X227.535 Y41.293 E14.96457
G1 X228.208 Y41.846 E15.01389
G1 X230.860 Y44.111 E15.21145
G1 X231.511 Y44.689 E15.26078
G1 X232.089 Y45.340 E15.31010
G1 X234.354 Y47.992 E15.50766
G1 X234.907 Y48.665 E15.55698
G1 X235.376 Y49.398 E15.60630
G1 X237.198 Y52.372 E15.80386
G1 X237.639 Y53.123 E15.85318
G1 X237.988 Y53.921 E15.90250
G1 X239.322 Y57.143 E16.10006
G1 X239.639 Y57.953 E16.14938
G1 X239.859 Y58.796 E16.19870
G1 X240.673 Y62.187 E16.39625
G1 X240.860 Y63.038 E16.44558
G1 X240.945 Y63.904 E16.49491
G1 X241.219 Y67.381 E16.69247
G1 X241.287 Y68.687 E16.76653
G1 X241.287 Y131.313 E20.31415
G1 X241.219 Y132.619 E20.38822
G1 X240.945 Y136.096 E20.58578
G1 X240.860 Y136.962 E20.63510
G1 X240.673 Y137.813 E20.68443
G1 X239.859 Y141.204 E20.88199
G1 X239.639 Y142.047 E20.93131
G1 X239.322 Y142.857 E20.98063
G1 X237.988 Y146.079 E21.17818
G1 X237.639 Y146.877 E21.22751
G1 X237.198 Y147.628 E21.27683
G1 X235.376 Y150.602 E21.47439
G1 X234.907 Y151.335 E21.52371
G1 X234.354 Y152.008 E21.57303
G1 X232.089 Y154.660 E21.77058
G1 X231.511 Y155.311 E21.81991
G1 X230.860 Y155.889 E21.86923
G1 X228.208 Y158.154 E22.06679
G1 X227.535 Y158.707 E22.11611
G1 X226.802 Y159.176 E22.16544
G1 X223.828 Y160.998 E22.36300
G1 X223.077 Y161.439 E22.41232
G1 X222.279 Y161.788 E22.46164
G1 X219.057 Y163.122 E22.65919
G1 X218.247 Y163.440 E22.70852
G1 X217.404 Y163.659 E22.75784
G1 X214.013 Y164.474 E22.95540
G1 X213.162 Y164.660 E23.00472
G1 X212.296 Y164.745 E23.05404
G1 X208.819 Y165.019 E23.25160
G1 X207.950 Y165.070 E23.30092
G1 X207.513 Y165.088 E23.32567
G1 X-7.513 Y165.088 E35.50630
G1 X-8.819 Y165.019 E35.58037
G1 X-12.296 Y164.745 E35.77793
G1 X-13.162 Y164.660 E35.82725
G1 X-14.013 Y164.474 E35.87657
G1 X-17.404 Y163.659 E36.07413
G1 X-18.247 Y163.440 E36.12345
G1 X-19.057 Y163.122 E36.17278
G1 X-22.279 Y161.788 E36.37033
G1 X-23.077 Y161.439 E36.41965
G1 X-23.828 Y160.998 E36.46898
G1 X-26.802 Y159.176 E36.66653
G1 X-27.535 Y158.707 E36.71586
G1 X-28.208 Y158.154 E36.76518
G1 X-30.860 Y155.889 E36.96274
G1 X-31.511 Y155.311 E37.01206
G1 X-32.089 Y154.660 E37.06138
G1 X-33.934 Y152.500 E37.22231
G1 X-34.907 Y151.335 E37.30826
G1 X-35.376 Y150.602 E37.35758
G1 X-37.198 Y147.628 E37.55513
G1 X-37.639 Y146.877 E37.60446
G1 X-37.988 Y146.079 E37.65378
G1 X-39.322 Y142.857 E37.85134
G1 X-39.640 Y142.047 E37.90066
G1 X-39.859 Y141.204 E37.94998
G1 X-40.674 Y137.813 E38.14754
G1 X-40.860 Y136.962 E38.19686
G1 X-40.945 Y136.096 E38.24619
G1 X-41.219 Y132.619 E38.44374
G1 X-41.288 Y131.313 E38.51781
G1 X-41.288 Y68.687 E42.06543
G1 X-41.219 Y67.381 E42.13950
G1 X-40.945 Y63.904 E42.33706
G1 X-40.860 Y63.038 E42.38638
G1 X-40.674 Y62.187 E42.43571
G1 X-39.859 Y58.796 E42.63326
G1 X-39.640 Y57.953 E42.68259
G1 X-39.322 Y57.143 E42.73191
G1 X-37.811 Y53.506 E42.95498
G1 X-37.639 Y53.123 E42.97879
