; generated by Slic3r 1.3.0 on 2023-06-13 at 12:48:11

; external perimeters extrusion width = 24.45mm (726.99mm^3/s)
; perimeters extrusion width = 31.11mm (1854.02mm^3/s)
; infill extrusion width = 27.78mm (2205.33mm^3/s)
; solid infill extrusion width = 31.11mm (618.01mm^3/s)
; top infill extrusion width = 31.11mm (463.51mm^3/s)

M107
M104 S200 ; set temperature
G28 ; home all axes
G1 Z5 F5000 ; lift nozzle

; Filament gcode

M109 S200 ; set temperature and wait for it to be reached
G21 ; set units to millimeters
G90 ; use absolute coordinates
M82 ; use absolute distances for extrusion
G92 E0
G1 Z22.225 F7800.000
G1 E-2.00000 F2400.00000
G92 E0
G1 X-30.230 Y-29.000 F7800.000
G1 E2.00000 F2400.00000
G1 F1800
G1 X-29.651 Y-29.651 E2.86892
G1 X-29.000 Y-30.230 E3.73788
G1 X-25.591 Y-33.142 E8.21302
G1 X-24.918 Y-33.694 E9.08201
G1 X-24.184 Y-34.163 E9.95106
G1 X-20.361 Y-36.506 E14.42616
G1 X-19.610 Y-36.947 E15.29511
G1 X-18.812 Y-37.295 E16.16408
G1 X-14.670 Y-39.011 E20.63921
G1 X-13.859 Y-39.329 E21.50820
G1 X-13.016 Y-39.549 E22.37720
G1 X-8.656 Y-40.595 E26.85232
G1 X-7.806 Y-40.782 E27.72133
G1 X-6.939 Y-40.867 E28.59036
G1 X-2.469 Y-41.219 E33.06548
G1 X-1.163 Y-41.287 E34.37045
G1 X201.163 Y-41.287 E236.29929
G1 X201.600 Y-41.270 E236.73539
G1 X202.469 Y-41.219 E237.60430
G1 X206.939 Y-40.867 E242.07943
G1 X207.806 Y-40.782 E242.94846
G1 X208.656 Y-40.595 E243.81748
G1 X213.016 Y-39.549 E248.29260
G1 X213.859 Y-39.329 E249.16157
G1 X214.670 Y-39.011 E250.03061
G1 X218.812 Y-37.295 E254.50572
G1 X219.610 Y-36.947 E255.37468
G1 X220.361 Y-36.506 E256.24362
G1 X224.184 Y-34.163 E260.71874
G1 X224.918 Y-33.694 E261.58777
G1 X225.591 Y-33.142 E262.45681
G1 X229.000 Y-30.229 E266.93193
G1 X229.651 Y-29.651 E267.80085
G1 X230.230 Y-29.000 E268.66981
G1 X233.142 Y-25.591 E273.14493
G1 X233.694 Y-24.918 E274.01393
G1 X234.163 Y-24.184 E274.88293
G1 X236.506 Y-20.361 E279.35805
G1 X236.947 Y-19.610 E280.22704
G1 X237.295 Y-18.812 E281.09599
G1 X239.011 Y-14.670 E285.57110
G1 X239.329 Y-13.859 E286.44012
G1 X239.549 Y-13.016 E287.30912
G1 X240.595 Y-8.656 E291.78424
G1 X240.782 Y-7.806 E292.65325
G1 X240.867 Y-6.939 E293.52227
G1 X241.219 Y-2.469 E297.99739
G1 X241.270 Y-1.600 E298.86631
G1 X241.287 Y-1.163 E299.30243
G1 X241.287 Y201.163 E501.23124
G1 X241.219 Y202.469 E502.53622
G1 X240.867 Y206.939 E507.01134
G1 X240.782 Y207.806 E507.88038
G1 X240.595 Y208.656 E508.74937
G1 X239.549 Y213.016 E513.22449
G1 X239.329 Y213.859 E514.09350
G1 X239.011 Y214.670 E514.96250
G1 X237.295 Y218.812 E519.43761
G1 X236.947 Y219.610 E520.30659
G1 X236.506 Y220.361 E521.17556
G1 X234.163 Y224.184 E525.65068
G1 X233.694 Y224.918 E526.51967
G1 X233.142 Y225.591 E527.38864
G1 X230.230 Y229.000 E531.86378
G1 X229.651 Y229.651 E532.73279
G1 X229.000 Y230.230 E533.60178
G1 X225.591 Y233.142 E538.07688
G1 X224.918 Y233.694 E538.94586
G1 X224.184 Y234.163 E539.81477
G1 X220.361 Y236.506 E544.28990
G1 X219.610 Y236.947 E545.15896
G1 X218.812 Y237.296 E546.02799
G1 X214.670 Y239.011 E550.50309
G1 X213.859 Y239.329 E551.37206
G1 X213.016 Y239.549 E552.24100
G1 X208.656 Y240.595 E556.71676
G1 X207.806 Y240.782 E557.58510
G1 X206.939 Y240.867 E558.45410
G1 X202.469 Y241.219 E562.92924
G1 X201.600 Y241.270 E563.79823
G1 X201.163 Y241.288 E564.23432
G1 X-1.163 Y241.288 E766.16318
G1 X-2.469 Y241.219 E767.46822
G1 X-6.939 Y240.867 E771.94334
G1 X-7.806 Y240.782 E772.81231
G1 X-8.656 Y240.595 E773.68130
G1 X-13.016 Y239.549 E778.15641
G1 X-13.859 Y239.329 E779.02542
G1 X-14.670 Y239.011 E779.89431
G1 X-18.813 Y237.295 E784.37016
G1 X-19.610 Y236.947 E785.23849
G1 X-20.361 Y236.506 E786.10755
G1 X-24.184 Y234.163 E790.58268
G1 X-24.918 Y233.694 E791.45160
G1 X-25.591 Y233.142 E792.32053
G1 X-29.000 Y230.230 E796.79564
G1 X-29.651 Y229.651 E797.66468
G1 X-30.230 Y229.000 E798.53371
G1 X-33.142 Y225.591 E803.00884
G1 X-33.694 Y224.918 E803.87779
G1 X-34.163 Y224.184 E804.74676
G1 X-36.506 Y220.361 E809.22188
G1 X-36.947 Y219.610 E810.09087
G1 X-37.295 Y218.812 E810.95984
G1 X-39.011 Y214.670 E815.43510
G1 X-39.329 Y213.859 E816.30397
G1 X-39.549 Y213.016 E817.17300
G1 X-40.595 Y208.656 E821.64811
G1 X-40.782 Y207.806 E822.51704
G1 X-40.867 Y206.939 E823.38605
G1 X-41.219 Y202.469 E827.86116
G1 X-41.288 Y201.163 E829.16618
G1 X-41.288 Y-1.163 E1031.09506
G1 X-41.219 Y-2.469 E1032.40007
G1 X-40.867 Y-6.939 E1036.87520
G1 X-40.782 Y-7.806 E1037.74418
G1 X-40.595 Y-8.656 E1038.61313
G1 X-39.549 Y-13.016 E1043.08825
G1 X-39.329 Y-13.859 E1043.95727
G1 X-39.011 Y-14.670 E1044.82629
G1 X-37.295 Y-18.812 E1049.30141
G1 X-36.947 Y-19.610 E1050.17037
G1 X-36.506 Y-20.361 E1051.03937
G1 X-34.163 Y-24.184 E1055.51449
G1 X-33.694 Y-24.918 E1056.38346
G1 X-32.395 Y-26.465 E1058.40033
G1 Z23.225 F7800.000
G1 E1056.40033 F2400.00000
G92 E0
G1 X-29.000 Y-30.230 F7800.000
G1 E2.00000 F2400.00000
G1 F1800
G1 X-25.591 Y-33.142 E2.25400
G1 X-24.918 Y-33.694 E2.30333
G1 X-24.184 Y-34.163 E2.35265
G1 X-20.361 Y-36.506 E2.60665
G1 X-19.610 Y-36.947 E2.65597
G1 X-18.812 Y-37.295 E2.70529
G1 X-14.670 Y-39.011 E2.95930
G1 X-13.859 Y-39.329 E3.00862
G1 X-13.016 Y-39.549 E3.05794
G1 X-8.656 Y-40.595 E3.31194
G1 X-7.806 Y-40.782 E3.36127
G1 X-6.939 Y-40.867 E3.41059
G1 X-2.469 Y-41.219 E3.66460
G1 X-1.600 Y-41.270 E3.71391
G1 X-1.163 Y-41.287 E3.73867
G1 X201.163 Y-41.287 E15.19988
G1 X202.469 Y-41.219 E15.27395
G1 X206.939 Y-40.867 E15.52795
G1 X207.806 Y-40.782 E15.57728
G1 X208.656 Y-40.595 E15.62660
G1 X213.016 Y-39.549 E15.88060
G1 X213.859 Y-39.329 E15.92992
G1 X214.670 Y-39.011 E15.97925
G1 X218.812 Y-37.295 E16.23325
G1 X219.610 Y-36.947 E16.28257
G1 X220.361 Y-36.506 E16.33189
G1 X224.184 Y-34.163 E16.58590
G1 X224.918 Y-33.694 E16.63522
G1 X225.591 Y-33.142 E16.68454
G1 X229.000 Y-30.229 E16.93855
G1 X229.651 Y-29.651 E16.98787
G1 X230.230 Y-29.000 E17.03719
G1 X233.142 Y-25.591 E17.29119
G1 X233.694 Y-24.918 E17.34051
G1 X234.163 Y-24.184 E17.38983
G1 X236.506 Y-20.361 E17.64384
G1 X236.947 Y-19.610 E17.69316
G1 X237.295 Y-18.812 E17.74248
G1 X239.011 Y-14.670 E17.99648
G1 X239.329 Y-13.859 E18.04581
G1 X239.549 Y-13.016 E18.09513
G1 X240.595 Y-8.656 E18.34913
G1 X240.782 Y-7.806 E18.39845
G1 X240.867 Y-6.939 E18.44778
G1 X241.219 Y-2.469 E18.70178
G1 X241.270 Y-1.600 E18.75110
G1 X241.287 Y-1.163 E18.77585
G1 X241.287 Y201.163 E30.23707
G1 X241.219 Y202.469 E30.31113
G1 X240.867 Y206.939 E30.56514
G1 X240.782 Y207.806 E30.61446
G1 X240.595 Y208.656 E30.66378
G1 X239.549 Y213.016 E30.91779
G1 X239.329 Y213.859 E30.96711
G1 X239.011 Y214.670 E31.01643
G1 X237.295 Y218.812 E31.27043
G1 X236.947 Y219.610 E31.31976
G1 X236.506 Y220.361 E31.36908
G1 X234.163 Y224.185 E31.62310
G1 X233.694 Y224.918 E31.67240
G1 X233.142 Y225.591 E31.72172
G1 X230.230 Y229.000 E31.97573
G1 X229.651 Y229.651 E32.02505
G1 X229.000 Y230.230 E32.07437
G1 X225.591 Y233.142 E32.32837
G1 X224.918 Y233.694 E32.37770
G1 X224.184 Y234.163 E32.42702
G1 X220.361 Y236.506 E32.68102
G1 X219.610 Y236.947 E32.73034
G1 X218.812 Y237.296 E32.77967
G1 X214.670 Y239.011 E33.03367
G1 X213.859 Y239.329 E33.08299
G1 X213.016 Y239.549 E33.13231
G1 X208.656 Y240.595 E33.38634
G1 X207.806 Y240.782 E33.43564
G1 X206.939 Y240.867 E33.48496
G1 X202.469 Y241.219 E33.73896
G1 X201.600 Y241.270 E33.78828
G1 X201.163 Y241.288 E33.81304
G1 X-1.163 Y241.288 E45.27425
G1 X-2.469 Y241.219 E45.34832
G1 X-6.939 Y240.867 E45.60233
G1 X-7.806 Y240.782 E45.65165
G1 X-8.656 Y240.595 E45.70097
G1 X-13.016 Y239.549 E45.95497
G1 X-13.859 Y239.329 E46.00429
G1 X-14.670 Y239.011 E46.05361
G1 X-18.812 Y237.295 E46.30763
G1 X-19.610 Y236.947 E46.35694
G1 X-20.361 Y236.506 E46.40627
G1 X-24.184 Y234.163 E46.66027
G1 X-24.918 Y233.694 E46.70959
G1 X-25.591 Y233.142 E46.75891
G1 X-29.000 Y230.230 E47.01291
G1 X-29.651 Y229.651 E47.06223
G1 X-30.230 Y229.000 E47.11156
G1 X-33.142 Y225.591 E47.36556
G1 X-33.694 Y224.918 E47.41488
G1 X-34.163 Y224.184 E47.46420
G1 X-36.506 Y220.361 E47.71821
G1 X-36.947 Y219.610 E47.76753
G1 X-37.295 Y218.812 E47.81685
G1 X-39.011 Y214.670 E48.07085
G1 X-39.329 Y213.859 E48.12018
G1 X-39.549 Y213.016 E48.16950
G1 X-40.595 Y208.656 E48.42350
G1 X-40.782 Y207.806 E48.47282
G1 X-40.867 Y206.939 E48.52215
G1 X-41.219 Y202.469 E48.77615
G1 X-41.288 Y201.163 E48.85022
G1 X-41.288 Y-1.163 E60.31143
G1 X-41.270 Y-1.600 E60.33619
G1 X-41.219 Y-2.469 E60.38551
G1 X-40.867 Y-6.939 E60.63951
G1 X-40.782 Y-7.806 E60.68883
G1 X-40.595 Y-8.656 E60.73815
G1 X-39.549 Y-13.016 E60.99215
G1 X-39.329 Y-13.859 E61.04148
G1 X-39.011 Y-14.670 E61.09080
G1 X-37.295 Y-18.812 E61.34481
G1 X-36.947 Y-19.610 E61.39413
G1 X-36.506 Y-20.361 E61.44345
G1 X-34.163 Y-24.184 E61.69745
G1 X-33.694 Y-24.918 E61.74677
G1 X-33.142 Y-25.591 E61.79610
G1 X-31.264 Y-27.789 E61.95989
G1 Z24.225 F7800.000
G1 X-30.230 Y-29.000 F7800.000
G1 F1800
G1 X-29.651 Y-29.651 E62.00922
G1 X-29.000 Y-30.229 E62.05854
G1 X-25.591 Y-33.142 E62.31254
G1 X-24.918 Y-33.694 E62.36186
G1 X-24.184 Y-34.163 E62.41119
G1 X-20.361 Y-36.506 E62.66519
G1 X-19.610 Y-36.947 E62.71451
G1 X-18.812 Y-37.295 E62.76383
G1 X-14.670 Y-39.011 E63.01783
G1 X-13.859 Y-39.329 E63.06715
G1 X-13.016 Y-39.549 E63.11648
G1 X-8.656 Y-40.595 E63.37048
G1 X-7.806 Y-40.782 E63.41980
G1 X-6.939 Y-40.867 E63.46913
G1 X-2.469 Y-41.219 E63.72313
G1 X-1.163 Y-41.287 E63.79720
G1 X201.163 Y-41.287 E75.25839
G1 X201.600 Y-41.270 E75.28315
G1 X202.469 Y-41.219 E75.33246
G1 X206.939 Y-40.867 E75.58647
G1 X207.806 Y-40.782 E75.63579
G1 X208.656 Y-40.595 E75.68511
G1 X213.016 Y-39.549 E75.93912
G1 X213.859 Y-39.329 E75.98844
G1 X214.670 Y-39.011 E76.03776
G1 X218.812 Y-37.295 E76.29176
G1 X219.610 Y-36.947 E76.34108
G1 X220.361 Y-36.506 E76.39040
G1 X224.184 Y-34.163 E76.64441
G1 X224.918 Y-33.694 E76.69373
G1 X225.591 Y-33.142 E76.74306
G1 X229.000 Y-30.229 E76.99706
G1 X229.651 Y-29.651 E77.04638
G1 X230.230 Y-29.000 E77.09570
G1 X233.142 Y-25.591 E77.34970
G1 X233.694 Y-24.918 E77.39902
G1 X234.163 Y-24.184 E77.44835
G1 X236.506 Y-20.361 E77.70235
G1 X236.947 Y-19.610 E77.75167
G1 X237.295 Y-18.812 E77.80099
G1 X239.011 Y-14.670 E78.05499
G1 X239.329 Y-13.859 E78.10432
G1 X239.549 Y-13.016 E78.15364
G1 X240.595 Y-8.656 E78.40764
G1 X240.782 Y-7.806 E78.45696
G1 X240.867 Y-6.939 E78.50629
G1 X241.219 Y-2.469 E78.76029
G1 X241.270 Y-1.600 E78.80961
G1 X241.287 Y-1.163 E78.83436
G1 X241.287 Y201.163 E90.29555
G1 X241.219 Y202.469 E90.36962
G1 X240.867 Y206.939 E90.62362
G1 X240.782 Y207.806 E90.67295
G1 X240.595 Y208.656 E90.72227
G1 X239.549 Y213.016 E90.97627
G1 X239.329 Y213.859 E91.02560
G1 X239.011 Y214.670 E91.07492
G1 X237.295 Y218.812 E91.32892
G1 X236.947 Y219.610 E91.37824
G1 X236.506 Y220.361 E91.42756
G1 X234.163 Y224.185 E91.68159
G1 X233.694 Y224.918 E91.73089
G1 X233.142 Y225.591 E91.78021
G1 X230.230 Y229.000 E92.03421
G1 X229.651 Y229.651 E92.08354
G1 X229.000 Y230.230 E92.13286
G1 X225.591 Y233.142 E92.38686
G1 X224.918 Y233.694 E92.43618
G1 X224.184 Y234.163 E92.48550
G1 X220.361 Y236.506 E92.73950
G1 X219.610 Y236.947 E92.78883
G1 X218.812 Y237.296 E92.83815
G1 X214.670 Y239.011 E93.09215
G1 X213.859 Y239.329 E93.14148
G1 X213.016 Y239.549 E93.19080
G1 X208.656 Y240.595 E93.44483
G1 X207.806 Y240.782 E93.49412
G1 X206.939 Y240.867 E93.54344
G1 X202.469 Y241.219 E93.79745
G1 X201.600 Y241.270 E93.84677
G1 X201.163 Y241.288 E93.87152
G1 X-1.163 Y241.288 E105.33272
G1 X-2.469 Y241.219 E105.40679
G1 X-6.939 Y240.867 E105.66079
G1 X-7.806 Y240.782 E105.71011
G1 X-8.656 Y240.595 E105.75943
G1 X-13.016 Y239.549 E106.01344
G1 X-13.859 Y239.329 E106.06276
G1 X-14.670 Y239.011 E106.11208
G1 X-18.813 Y237.295 E106.36610
G1 X-19.610 Y236.947 E106.41540
G1 X-20.361 Y236.506 E106.46473
G1 X-24.184 Y234.163 E106.71873
G1 X-24.918 Y233.694 E106.76805
G1 X-25.591 Y233.142 E106.81737
G1 X-29.000 Y230.230 E107.07137
G1 X-29.651 Y229.651 E107.12070
G1 X-30.230 Y229.000 E107.17002
G1 X-33.142 Y225.591 E107.42402
G1 X-33.694 Y224.918 E107.47334
G1 X-34.163 Y224.184 E107.52267
G1 X-36.506 Y220.361 E107.77667
G1 X-36.947 Y219.610 E107.82599
G1 X-37.295 Y218.812 E107.87531
G1 X-39.011 Y214.670 E108.12931
G1 X-39.329 Y213.859 E108.17864
G1 X-39.549 Y213.016 E108.22796
G1 X-40.595 Y208.656 E108.48196
G1 X-40.782 Y207.806 E108.53128
G1 X-40.867 Y206.939 E108.58060
G1 X-41.219 Y202.469 E108.83461
G1 X-41.288 Y201.163 E108.90868
G1 X-41.288 Y-1.163 E120.36987
G1 X-41.219 Y-2.469 E120.44394
G1 X-40.867 Y-6.939 E120.69795
G1 X-40.782 Y-7.806 E120.74727
G1 X-40.595 Y-8.656 E120.79659
G1 X-39.549 Y-13.016 E121.05059
G1 X-39.329 Y-13.859 E121.09992
G1 X-39.011 Y-14.670 E121.14924
G1 X-37.295 Y-18.812 E121.40324
G1 X-36.947 Y-19.610 E121.45256
G1 X-36.506 Y-20.361 E121.50189
G1 X-34.163 Y-24.184 E121.75589
G1 X-33.694 Y-24.918 E121.80521
G1 X-32.395 Y-26.465 E121.91968
M106 S163.2
G1 Z25.225 F7800.000
G1 E119.91968 F2400.00000
G92 E0
G1 X-29.000 Y-30.230 F7800.000
G1 E2.00000 F2400.00000
G1 F1800
G1 X-25.591 Y-33.142 E2.25400
G1 X-24.918 Y-33.694 E2.30333
G1 X-24.184 Y-34.163 E2.35265
G1 X-20.361 Y-36.506 E2.60665
G1 X-19.854 Y-36.790 E2.63960
G1 F1800
G1 X-18.839 Y-37.359 E2.70568
G1 F1800
G1 X-18.313 Y-37.627 E2.73932
G1 F1800
G1 X-17.787 Y-37.895 E2.77311
G1 X-16.702 Y-38.269 E2.83883
G1 F1800
G1 X-15.979 Y-38.519 E2.88246
G1 F1800
G1 X-15.256 Y-38.768 E2.92591
G1 F1800
G1 X-13.859 Y-39.329 E3.01107
G1 X-13.016 Y-39.549 E3.06031
G1 X-8.656 Y-40.595 E3.31392
G1 X-7.806 Y-40.782 E3.36317
G1 X-6.939 Y-40.867 E3.41241
G1 X-2.469 Y-41.219 E3.66602
G1 X-1.600 Y-41.270 E3.71526
G1 F1800
G1 X-1.163 Y-41.287 E3.74005
G1 X201.163 Y-41.287 E15.21917
G1 X202.469 Y-41.219 E15.29335
G1 F1800
G1 X206.939 Y-40.867 E15.54696
G1 X207.806 Y-40.782 E15.59621
G1 X208.656 Y-40.595 E15.64546
G1 X213.016 Y-39.549 E15.89906
G1 X213.859 Y-39.329 E15.94831
G1 X214.670 Y-39.011 E15.99756
G1 X218.812 Y-37.295 E16.25116
G1 X219.610 Y-36.947 E16.30041
G1 X220.361 Y-36.506 E16.34965
G1 X224.184 Y-34.163 E16.60326
G1 X224.918 Y-33.694 E16.65251
G1 X225.591 Y-33.142 E16.70175
G1 X229.000 Y-30.229 E16.95536
G1 X229.651 Y-29.651 E17.00460
G1 X230.230 Y-29.000 E17.05385
G1 X233.142 Y-25.591 E17.30745
G1 X233.694 Y-24.918 E17.35670
G1 X234.163 Y-24.184 E17.40595
G1 X236.506 Y-20.361 E17.65955
G1 X236.947 Y-19.610 E17.70880
G1 X237.295 Y-18.812 E17.75804
G1 X238.892 Y-14.958 E17.99402
G1 X239.329 Y-13.859 E18.06090
G1 X239.549 Y-13.016 E18.11014
G1 X240.595 Y-8.656 E18.36375
G1 X240.782 Y-7.806 E18.41300
G1 X240.867 Y-6.939 E18.46224
G1 X241.219 Y-2.469 E18.71585
G1 X241.270 Y-1.600 E18.76509
G1 F1800
G1 X241.287 Y-1.163 E18.78988
G1 X241.287 Y201.163 E30.26901
G1 X241.219 Y202.469 E30.34319
G1 F1800
G1 X240.867 Y206.939 E30.59680
G1 X240.782 Y207.806 E30.64605
G1 X240.595 Y208.656 E30.69530
G1 X239.549 Y213.016 E30.94890
G1 X239.329 Y213.859 E30.99815
G1 X239.011 Y214.670 E31.04740
G1 X237.295 Y218.812 E31.30100
G1 X236.947 Y219.610 E31.35025
G1 X236.506 Y220.361 E31.39949
G1 X234.163 Y224.185 E31.65312
G1 X233.694 Y224.918 E31.70235
G1 X233.142 Y225.591 E31.75159
G1 X230.230 Y229.000 E32.00520
G1 X229.651 Y229.651 E32.05445
G1 X229.000 Y230.230 E32.10369
G1 X225.591 Y233.142 E32.35730
G1 X224.918 Y233.694 E32.40654
G1 X224.184 Y234.163 E32.45579
G1 X220.361 Y236.506 E32.70939
G1 X219.610 Y236.947 E32.75864
G1 X218.812 Y237.296 E32.80789
G1 X214.670 Y239.011 E33.06150
G1 X213.859 Y239.329 E33.11074
G1 X213.016 Y239.549 E33.15998
G1 X208.959 Y240.523 E33.39596
G1 X207.806 Y240.782 E33.46283
G1 F1800
G1 X206.939 Y240.867 E33.51216
G1 X202.469 Y241.219 E33.76616
G1 X201.163 Y241.288 E33.84023
G1 X-1.163 Y241.288 E45.30145
G1 X-1.600 Y241.270 E45.32620
G1 X-2.469 Y241.219 E45.37553
G1 X-6.939 Y240.867 E45.62953
G1 X-7.806 Y240.782 E45.67885
G1 X-8.656 Y240.595 E45.72817
G1 X-13.016 Y239.549 E45.98217
G1 X-13.859 Y239.329 E46.03150
G1 X-14.670 Y239.011 E46.08082
G1 X-18.812 Y237.296 E46.33482
G1 X-19.610 Y236.947 E46.38414
G1 X-20.361 Y236.506 E46.43347
G1 X-24.184 Y234.163 E46.68747
G1 X-24.918 Y233.694 E46.73679
G1 X-25.591 Y233.142 E46.78611
G1 X-29.000 Y230.230 E47.04011
G1 X-29.651 Y229.651 E47.08944
G1 X-30.230 Y229.000 E47.13876
