; generated by Slic3r 1.3.0 on 2023-06-14 at 12:54:57

; external perimeters extrusion width = 24.45mm (726.99mm^3/s)
; perimeters extrusion width = 31.11mm (1854.02mm^3/s)
; infill extrusion width = 27.78mm (2205.33mm^3/s)
; solid infill extrusion width = 31.11mm (618.01mm^3/s)
; top infill extrusion width = 31.11mm (463.51mm^3/s)

M107
M104 S200 ; set temperature
G28 ; home all axes
G1 Z5 F5000 ; lift nozzle

; Filament gcode

M109 S200 ; set temperature and wait for it to be reached
G21 ; set units to millimeters
G90 ; use absolute coordinates
M82 ; use absolute distances for extrusion
G92 E0
G1 Z22.225 F7800.000
G1 E-2.00000 F2400.00000
G92 E0
G1 X0.000 Y34.912 F7800.000
G1 E2.00000 F2400.00000
G1 F1800
G1 X207.513 Y34.912 E209.10557
G1 X208.819 Y34.981 E210.41057
G1 X212.296 Y35.255 E213.89122
G1 X213.162 Y35.340 E214.76022
G1 X214.013 Y35.526 E215.62924
G1 X217.404 Y36.341 E219.10988
G1 X218.247 Y36.560 E219.97888
G1 X219.057 Y36.878 E220.84782
G1 X222.279 Y38.212 E224.32848
G1 X223.077 Y38.561 E225.19749
G1 X223.828 Y39.002 E226.06647
G1 X226.802 Y40.824 E229.54713
G1 X227.535 Y41.293 E230.41613
G1 X228.208 Y41.846 E231.28508
G1 X230.860 Y44.111 E234.76575
G1 X231.511 Y44.689 E235.63479
G1 X232.089 Y45.340 E236.50375
G1 X234.354 Y47.992 E239.98454
G1 X234.907 Y48.665 E240.85339
G1 X235.376 Y49.398 E241.72239
G1 X237.198 Y52.372 E245.20303
G1 X237.639 Y53.123 E246.07200
G1 X237.988 Y53.921 E246.94105
G1 X239.322 Y57.143 E250.42170
G1 X239.639 Y57.953 E251.29060
G1 X239.859 Y58.796 E252.15951
G1 X240.673 Y62.187 E255.64017
G1 X240.860 Y63.038 E256.50930
G1 X240.945 Y63.904 E257.37833
G1 X241.219 Y67.381 E260.85898
G1 X241.287 Y68.687 E262.16396
G1 X241.287 Y131.313 E324.66760
G1 X241.219 Y132.619 E325.97258
G1 X240.945 Y136.096 E329.45322
G1 X240.860 Y136.962 E330.32226
G1 X240.673 Y137.813 E331.19137
G1 X239.859 Y141.204 E334.67203
G1 X239.639 Y142.047 E335.54095
G1 X239.322 Y142.857 E336.40987
G1 X237.988 Y146.079 E339.89051
G1 X237.639 Y146.877 E340.75954
G1 X237.198 Y147.628 E341.62850
G1 X235.376 Y150.602 E345.10915
G1 X234.907 Y151.335 E345.97817
G1 X234.354 Y152.008 E346.84712
G1 X232.089 Y154.660 E350.32775
G1 X231.511 Y155.311 E351.19679
G1 X230.860 Y155.889 E352.06577
G1 X228.208 Y158.154 E355.54644
G1 X227.535 Y158.707 E356.41541
G1 X226.802 Y159.176 E357.28446
G1 X223.828 Y160.998 E360.76512
G1 X223.077 Y161.439 E361.63406
G1 X222.279 Y161.788 E362.50303
G1 X219.057 Y163.122 E365.98369
G1 X218.247 Y163.440 E366.85268
G1 X217.404 Y163.659 E367.72170
G1 X214.013 Y164.474 E371.20234
G1 X213.162 Y164.660 E372.07132
G1 X212.296 Y164.745 E372.94029
G1 X208.819 Y165.019 E376.42094
G1 X207.950 Y165.070 E377.28995
G1 X207.513 Y165.088 E377.72605
G1 X-7.513 Y165.088 E592.33024
G1 X-8.819 Y165.019 E593.63529
G1 X-12.296 Y164.745 E597.11593
G1 X-13.162 Y164.660 E597.98490
G1 X-14.013 Y164.474 E598.85386
G1 X-17.404 Y163.659 E602.33452
G1 X-18.247 Y163.440 E603.20352
G1 X-19.057 Y163.122 E604.07254
G1 X-22.279 Y161.788 E607.55321
G1 X-23.077 Y161.439 E608.42217
G1 X-23.828 Y160.998 E609.29114
G1 X-26.802 Y159.176 E612.77178
G1 X-27.535 Y158.707 E613.64080
G1 X-28.208 Y158.154 E614.50982
G1 X-30.860 Y155.889 E617.99048
G1 X-31.511 Y155.311 E618.85941
G1 X-32.089 Y154.660 E619.72839
G1 X-34.354 Y152.008 E623.20904
G1 X-34.907 Y151.335 E624.07805
G1 X-35.376 Y150.602 E624.94703
G1 X-37.198 Y147.628 E628.42769
G1 X-37.639 Y146.877 E629.29668
G1 X-37.988 Y146.079 E630.16566
G1 X-39.322 Y142.857 E633.64631
G1 X-39.640 Y142.047 E634.51530
G1 X-39.859 Y141.204 E635.38427
G1 X-40.674 Y137.813 E638.86493
G1 X-40.860 Y136.962 E639.73393
G1 X-40.945 Y136.096 E640.60294
G1 X-41.219 Y132.619 E644.08358
G1 X-41.288 Y131.313 E645.38859
G1 X-41.288 Y68.687 E707.89230
G1 X-41.219 Y67.381 E709.19730
G1 X-40.945 Y63.904 E712.67795
G1 X-40.860 Y63.038 E713.54695
G1 X-40.674 Y62.187 E714.41596
G1 X-39.859 Y58.796 E717.89661
G1 X-39.640 Y57.953 E718.76559
G1 X-39.322 Y57.143 E719.63456
G1 X-37.988 Y53.921 E723.11522
G1 X-37.639 Y53.123 E723.98421
G1 X-37.198 Y52.372 E724.85321
G1 X-35.376 Y49.398 E728.33386
G1 X-34.907 Y48.665 E729.20284
G1 X-34.354 Y47.992 E730.07182
G1 X-32.089 Y45.340 E733.55248
G1 X-31.511 Y44.689 E734.42146
G1 X-30.860 Y44.111 E735.29045
G1 X-28.208 Y41.846 E738.77110
G1 X-27.535 Y41.293 E739.64010
G1 X-26.802 Y40.824 E740.50907
G1 X-23.828 Y39.002 E743.98973
G1 X-23.077 Y38.561 E744.85872
G1 X-22.279 Y38.212 E745.72772
G1 X-19.057 Y36.878 E749.20838
G1 X-18.247 Y36.560 E750.07736
G1 X-17.404 Y36.341 E750.94633
G1 X-14.013 Y35.526 E754.42699
G1 X-13.162 Y35.340 E755.29600
G1 X-12.296 Y35.255 E756.16500
G1 X-8.819 Y34.981 E759.64564
G1 X-7.950 Y34.930 E760.51461
G1 X-7.513 Y34.912 E760.95070
G1 X-3.334 Y34.912 E765.12213
G1 E763.12213 F2400.00000
G92 E0
; Filament-specific end gcode 
;END gcode for filament

M104 S0 ; turn off temperature
G28 X0  ; home X axis
M84     ; disable motors

M140 S0 ; set bed temperature
; filament used = 763.1mm (296.1cm3)
; total filament cost = 0.0

; avoid_crossing_perimeters = 0
; bed_shape = 0x0,200x0,200x200,0x200
; bed_temperature = 0
; before_layer_gcode = 
; between_objects_gcode = 
; bridge_acceleration = 0
; bridge_fan_speed = 100
; brim_connections_width = 0
; brim_width = 0
; complete_objects = 0
; cooling = 1
; default_acceleration = 0
; disable_fan_first_layers = 3
; duplicate_distance = 6
; end_filament_gcode = "; Filament-specific end gcode \n;END gcode for filament\n"
; end_gcode = M104 S0 ; turn off temperature\nG28 X0  ; home X axis\nM84     ; disable motors\n
; extruder_clearance_height = 20
; extruder_clearance_radius = 20
; extruder_offset = 0x0
; extrusion_axis = E
; extrusion_multiplier = 1
; fan_always_on = 0
; fan_below_layer_time = 60
; filament_colour = #FFFFFF
; filament_cost = 0
; filament_density = 0
; filament_diameter = 22.225
; filament_max_volumetric_speed = 0
; filament_notes = ""
; first_layer_acceleration = 0
; first_layer_bed_temperature = 0
; first_layer_extrusion_width = 200%
; first_layer_speed = 30
; first_layer_temperature = 200
; gcode_arcs = 0
; gcode_comments = 0
; gcode_flavor = reprap
; has_heatbed = 1
; infill_acceleration = 0
; infill_first = 0
; interior_brim_width = 0
; layer_gcode = 
; max_fan_speed = 100
; max_layer_height = 0.3
; max_print_speed = 80
; max_volumetric_speed = 0
; min_fan_speed = 35
; min_layer_height = 0.15
; min_print_speed = 10
; min_skirt_length = 0
; notes = 
; nozzle_diameter = 22.225
; only_retract_when_crossing_perimeters = 1
; ooze_prevention = 0
; output_filename_format = [input_filename_base].gcode
; perimeter_acceleration = 0
; post_process = 
; pressure_advance = 0
; printer_notes = 
; resolution = 0
; retract_before_travel = 2
; retract_layer_change = 0
; retract_length = 2
; retract_length_toolchange = 10
; retract_lift = 0
; retract_lift_above = 0
; retract_lift_below = 0
; retract_restart_extra = 0
; retract_restart_extra_toolchange = 0
; retract_speed = 40
; skirt_distance = 6
; skirt_height = 1
; skirts = 0
; slowdown_below_layer_time = 5
; spiral_vase = 0
; standby_temperature_delta = -5
; start_filament_gcode = "; Filament gcode\n"
; start_gcode = G28 ; home all axes\nG1 Z5 F5000 ; lift nozzle\n
; temperature = 200
; threads = 12
; toolchange_gcode = 
; travel_speed = 130
; use_firmware_retraction = 0
; use_relative_e_distances = 0
; use_set_and_wait_bed = 0
; use_set_and_wait_extruder = 0
; use_volumetric_e = 0
; vibration_limit = 0
; wipe = 0
; z_offset = 0
; z_steps_per_mm = 0
; adaptive_slicing = 0
; adaptive_slicing_quality = 75%
; dont_support_bridges = 1
; extrusion_width = 0
; first_layer_height = 22.225
; infill_only_where_needed = 0
; interface_shells = 0
; layer_height = 22.225
; match_horizontal_surfaces = 0
; raft_layers = 0
; regions_overlap = 0
; seam_position = aligned
; sequential_print_priority = 0
; support_material = 0
; support_material_angle = 0
; support_material_buildplate_only = 0
; support_material_contact_distance = 0.2
; support_material_enforce_layers = 0
; support_material_extruder = 1
; support_material_extrusion_width = 0
; support_material_interface_extruder = 1
; support_material_interface_extrusion_width = 0
; support_material_interface_layers = 3
; support_material_interface_spacing = 0
; support_material_interface_speed = 100%
; support_material_max_layers = 0
; support_material_pattern = pillars
; support_material_spacing = 2.5
; support_material_speed = 60
; support_material_threshold = 60%
; xy_size_compensation = 0
; bottom_infill_pattern = rectilinear
; bottom_solid_layers = 1
; bridge_flow_ratio = 1
; bridge_speed = 60
; external_perimeter_extrusion_width = 0
; external_perimeter_speed = 50%
; external_perimeters_first = 0
; extra_perimeters = 1
; fill_angle = 45
; fill_density = 0%
; fill_gaps = 1
; fill_pattern = stars
; gap_fill_speed = 20
; infill_every_layers = 1
; infill_extruder = 1
; infill_extrusion_width = 0
; infill_overlap = 55%
; infill_speed = 80
; overhangs = 1
; perimeter_extruder = 1
; perimeter_extrusion_width = 0
; perimeter_speed = 60
; perimeters = 1
; small_perimeter_speed = 15
; solid_infill_below_area = 70
; solid_infill_every_layers = 0
; solid_infill_extruder = 1
; solid_infill_extrusion_width = 0
; solid_infill_speed = 20
; thin_walls = 1
; top_infill_extrusion_width = 0
; top_infill_pattern = rectilinear
; top_solid_infill_speed = 15
; top_solid_layers = 1
