; generated by Slic3r 1.3.0 on 2023-05-25 at 15:40:31

; external perimeters extrusion width = 0.55mm (6.64mm^3/s)
; perimeters extrusion width = 0.52mm (12.53mm^3/s)
; infill extrusion width = 0.52mm (16.71mm^3/s)
; solid infill extrusion width = 0.52mm (4.18mm^3/s)
; top infill extrusion width = 0.52mm (3.13mm^3/s)

M107
M104 S200 ; set temperature
G28 ; home all axes
G1 Z5 F5000 ; lift nozzle

; Filament gcode

M109 S200 ; set temperature and wait for it to be reached
G21 ; set units to millimeters
G90 ; use absolute coordinates
M82 ; use absolute distances for extrusion
G92 E0
G1 Z22.225 F7800.000
G1 Z22.725 F7800.000
G1 E-2.00000 F2400.00000
G92 E0
G1 X170.152 Y114.511 F7800.000
G1 E2.00000 F2400.00000
G1 F1800
G1 X197.460 Y87.203 E2.02203
G1 X197.733 Y88.023 E2.02253
G1 X197.817 Y88.453 E2.02278
G1 X197.844 Y88.880 E2.02302
G1 X197.844 Y111.122 E2.03571
G1 X197.803 Y111.643 E2.03601
G1 X197.679 Y112.162 E2.03632
G1 X197.475 Y112.655 E2.03662
G1 X197.196 Y113.110 E2.03692
G1 X196.849 Y113.516 E2.03723
G1 X196.443 Y113.862 E2.03753
G1 X195.988 Y114.141 E2.03784
G1 X195.495 Y114.346 E2.03814
G1 X194.976 Y114.470 E2.03845
G1 X194.455 Y114.511 E2.03874
G1 X170.227 Y114.511 E2.05257
G1 X169.097 Y112.906 F7800.000
G1 F1800
G1 X141.680 Y85.489 E2.07469
G1 X194.453 Y85.489 E2.10480
G1 X194.881 Y85.516 E2.10505
G1 X195.310 Y85.600 E2.10530
G1 X196.130 Y85.874 E2.10579
G1 X169.150 Y112.853 E2.12756
G1 X167.767 Y114.236 F7800.000
G1 F1800
G1 X168.042 Y114.511 E2.12778
G1 X113.208 Y114.511 E2.15907
G1 X140.625 Y87.094 E2.18119
G1 X167.714 Y114.183 E2.20305
G1 E0.20305 F2400.00000
G92 E0
G1 X139.295 Y85.764 F7800.000
G1 E2.00000 F2400.00000
G1 F1800
G1 X112.153 Y112.906 E2.02190
G1 X84.735 Y85.489 E2.04402
G1 X139.570 Y85.489 E2.07531
G1 X139.348 Y85.711 E2.07549
G1 E0.07549 F2400.00000
G92 E0
G1 X110.823 Y114.236 F7800.000
G1 E2.00000 F2400.00000
G1 F1800
G1 X111.098 Y114.511 E2.00022
G1 X56.263 Y114.511 E2.03151
G1 X83.681 Y87.094 E2.05363
G1 X110.770 Y114.183 E2.07549
G1 E0.07549 F2400.00000
G92 E0
G1 X82.351 Y85.764 F7800.000
G1 E2.00000 F2400.00000
G1 F1800
G1 X55.208 Y112.906 E2.02190
G1 X27.791 Y85.489 E2.04402
G1 X82.626 Y85.489 E2.07531
G1 X82.404 Y85.711 E2.07549
G1 E0.07549 F2400.00000
G92 E0
G1 X53.879 Y114.236 F7800.000
G1 E2.00000 F2400.00000
G1 F1800
G1 X54.154 Y114.511 E2.00022
G1 X5.546 Y114.511 E2.02796
G1 X5.075 Y114.478 E2.02823
G1 X4.604 Y114.376 E2.02850
G1 X3.801 Y114.079 E2.02899
G1 X26.791 Y87.148 E2.04919
G1 X53.826 Y114.183 E2.07101
G1 E0.07101 F2400.00000
G92 E0
G1 X23.407 Y88.216 F7800.000
G1 E2.00000 F2400.00000
G1 F1800
G1 X2.477 Y112.734 E2.01839
G1 X2.204 Y111.687 E2.01901
G1 X2.156 Y111.123 E2.01933
G1 X2.156 Y88.878 E2.03203
G1 X2.197 Y88.357 E2.03232
G1 X2.321 Y87.838 E2.03263
G1 X2.525 Y87.345 E2.03293
G1 X2.804 Y86.890 E2.03324
G1 X3.151 Y86.484 E2.03354
G1 X3.557 Y86.138 E2.03385
G1 X4.012 Y85.859 E2.03415
G1 X4.505 Y85.654 E2.03446
G1 X5.024 Y85.530 E2.03476
G1 X5.545 Y85.489 E2.03506
G1 X25.735 Y85.489 E2.04658
G1 X23.455 Y88.159 E2.04858
G1 E0.04858 F2400.00000
G92 E0
G1 X105.918 Y116.392 F7800.000
G1 E2.00000 F2400.00000
G1 F1800
G1 X5.566 Y116.392 E2.05726
G1 X4.730 Y116.326 E2.05774
G1 X3.924 Y116.132 E2.05821
G1 X3.159 Y115.815 E2.05868
G1 X2.452 Y115.382 E2.05915
G1 X1.822 Y114.844 E2.05963
G1 X1.284 Y114.214 E2.06010
G1 X0.851 Y113.508 E2.06057
G1 X0.534 Y112.743 E2.06104
G1 X0.341 Y111.937 E2.06152
G1 X0.275 Y111.100 E2.06200
G1 X0.275 Y88.900 E2.07466
G1 X0.341 Y88.063 E2.07514
G1 X0.534 Y87.257 E2.07561
G1 X0.851 Y86.492 E2.07609
G1 X1.284 Y85.786 E2.07656
G1 X1.822 Y85.156 E2.07703
G1 X2.452 Y84.618 E2.07751
G1 X3.159 Y84.185 E2.07798
G1 X3.924 Y83.868 E2.07845
G1 X4.730 Y83.674 E2.07892
G1 X5.566 Y83.608 E2.07940
G1 X194.434 Y83.608 E2.18716
G1 X195.270 Y83.674 E2.18764
G1 X196.076 Y83.868 E2.18812
G1 X196.841 Y84.185 E2.18859
G1 X197.548 Y84.618 E2.18906
G1 X198.178 Y85.156 E2.18953
G1 X198.716 Y85.786 E2.19001
G1 X199.149 Y86.492 E2.19048
G1 X199.466 Y87.257 E2.19095
G1 X199.659 Y88.063 E2.19142
G1 X199.725 Y88.900 E2.19190
G1 X199.725 Y111.100 E2.20457
G1 X199.659 Y111.937 E2.20505
G1 X199.466 Y112.743 E2.20552
G1 X199.149 Y113.508 E2.20599
G1 X198.716 Y114.214 E2.20647
G1 X198.178 Y114.844 E2.20694
G1 X197.548 Y115.382 E2.20741
G1 X196.841 Y115.815 E2.20789
G1 X196.076 Y116.132 E2.20836
G1 X195.270 Y116.326 E2.20883
G1 X194.434 Y116.392 E2.20931
G1 X105.993 Y116.392 E2.25977
G1 Z23.225 F7800.000
G1 E0.25977 F2400.00000
G92 E0
G1 X170.152 Y114.511 F7800.000
G1 E2.00000 F2400.00000
G1 F1800
G1 X197.460 Y87.203 E2.02203
G1 X197.733 Y88.023 E2.02253
G1 X197.817 Y88.453 E2.02278
G1 X197.844 Y88.880 E2.02302
G1 X197.844 Y111.122 E2.03571
G1 X197.803 Y111.643 E2.03601
G1 X197.679 Y112.162 E2.03632
G1 X197.475 Y112.655 E2.03662
G1 X197.196 Y113.110 E2.03692
G1 X196.849 Y113.516 E2.03723
G1 X196.443 Y113.862 E2.03753
G1 X195.988 Y114.141 E2.03784
G1 X195.495 Y114.346 E2.03814
G1 X194.976 Y114.470 E2.03845
G1 X194.455 Y114.511 E2.03874
G1 X170.227 Y114.511 E2.05257
G1 X169.097 Y112.906 F7800.000
G1 F1800
G1 X141.680 Y85.489 E2.07469
G1 X194.453 Y85.489 E2.10480
G1 X194.881 Y85.516 E2.10505
G1 X195.310 Y85.600 E2.10530
G1 X196.130 Y85.874 E2.10579
G1 X169.150 Y112.853 E2.12756
G1 X167.767 Y114.236 F7800.000
G1 F1800
G1 X168.042 Y114.511 E2.12778
G1 X113.208 Y114.511 E2.15907
G1 X140.625 Y87.094 E2.18119
G1 X167.714 Y114.183 E2.20305
G1 E0.20305 F2400.00000
G92 E0
G1 X139.295 Y85.764 F7800.000
G1 E2.00000 F2400.00000
G1 F1800
G1 X112.153 Y112.906 E2.02190
G1 X84.735 Y85.489 E2.04402
G1 X139.570 Y85.489 E2.07531
G1 X139.348 Y85.711 E2.07549
G1 E0.07549 F2400.00000
G92 E0
G1 X110.823 Y114.236 F7800.000
G1 E2.00000 F2400.00000
G1 F1800
G1 X111.098 Y114.511 E2.00022
G1 X56.263 Y114.511 E2.03151
G1 X83.681 Y87.094 E2.05363
G1 X110.770 Y114.183 E2.07549
G1 E0.07549 F2400.00000
G92 E0
G1 X82.351 Y85.764 F7800.000
G1 E2.00000 F2400.00000
G1 F1800
G1 X55.208 Y112.906 E2.02190
G1 X27.791 Y85.489 E2.04402
G1 X82.626 Y85.489 E2.07531
G1 X82.404 Y85.711 E2.07549
G1 E0.07549 F2400.00000
G92 E0
G1 X25.735 Y85.489 F7800.000
G1 E2.00000 F2400.00000
G1 F1800
G1 X2.477 Y112.734 E2.02044
G1 X2.204 Y111.687 E2.02106
G1 X2.156 Y111.123 E2.02138
G1 X2.156 Y88.878 E2.03407
G1 X2.197 Y88.357 E2.03437
G1 X2.321 Y87.838 E2.03467
G1 X2.525 Y87.345 E2.03498
G1 X2.804 Y86.890 E2.03528
G1 X3.151 Y86.484 E2.03559
G1 X3.557 Y86.138 E2.03589
G1 X4.012 Y85.859 E2.03620
G1 X4.505 Y85.654 E2.03650
G1 X5.024 Y85.530 E2.03681
G1 X5.545 Y85.489 E2.03710
G1 X25.660 Y85.489 E2.04858
G1 E0.04858 F2400.00000
G92 E0
G1 X26.791 Y87.148 F7800.000
G1 E2.00000 F2400.00000
G1 F1800
G1 X54.154 Y114.511 E2.02208
G1 X5.546 Y114.511 E2.04981
G1 X5.075 Y114.478 E2.05008
G1 X4.604 Y114.376 E2.05036
G1 X3.801 Y114.079 E2.05085
G1 X26.742 Y87.205 E2.07101
G1 E0.07101 F2400.00000
G92 E0
G1 X52.747 Y83.608 F7800.000
G1 E2.00000 F2400.00000
G1 F1800
G1 X194.434 Y83.608 E2.08084
G1 X195.270 Y83.674 E2.08132
G1 X196.076 Y83.868 E2.08179
G1 X196.841 Y84.185 E2.08227
G1 X197.548 Y84.618 E2.08274
G1 X198.178 Y85.156 E2.08321
G1 X198.716 Y85.786 E2.08368
G1 X199.149 Y86.492 E2.08416
G1 X199.466 Y87.257 E2.08463
G1 X199.659 Y88.063 E2.08510
G1 X199.725 Y88.900 E2.08558
G1 X199.725 Y111.100 E2.09825
G1 X199.659 Y111.937 E2.09873
G1 X199.466 Y112.743 E2.09920
G1 X199.149 Y113.508 E2.09967
G1 X198.716 Y114.214 E2.10014
G1 X198.178 Y114.844 E2.10062
G1 X197.548 Y115.382 E2.10109
G1 X196.841 Y115.815 E2.10156
G1 X196.076 Y116.132 E2.10204
G1 X195.270 Y116.326 E2.10251
G1 X194.434 Y116.392 E2.10299
G1 X5.566 Y116.392 E2.21075
G1 X4.730 Y116.326 E2.21123
G1 X3.924 Y116.132 E2.21170
G1 X3.159 Y115.815 E2.21217
G1 X2.452 Y115.382 E2.21265
G1 X1.822 Y114.844 E2.21312
G1 X1.284 Y114.214 E2.21359
G1 X0.851 Y113.508 E2.21406
G1 X0.534 Y112.743 E2.21454
G1 X0.341 Y111.937 E2.21501
G1 X0.275 Y111.100 E2.21549
G1 X0.275 Y88.900 E2.22815
G1 X0.341 Y88.063 E2.22863
G1 X0.534 Y87.257 E2.22911
G1 X0.851 Y86.492 E2.22958
G1 X1.284 Y85.786 E2.23005
G1 X1.822 Y85.156 E2.23052
G1 X2.452 Y84.618 E2.23100
G1 X3.159 Y84.185 E2.23147
G1 X3.924 Y83.868 E2.23194
G1 X4.730 Y83.674 E2.23242
G1 X5.566 Y83.608 E2.23289
G1 X52.672 Y83.608 E2.25977
M106 S127.5
G1 Z23.725 F7800.000
G1 E0.25977 F2400.00000
G92 E0
G1 X170.152 Y114.511 F7800.000
G1 E2.00000 F2400.00000
G1 F1800
G1 X197.460 Y87.203 E2.02203
G1 X197.733 Y88.023 E2.02253
G1 X197.817 Y88.453 E2.02278
G1 X197.844 Y88.880 E2.02302
G1 X197.844 Y111.122 E2.03571
G1 X197.803 Y111.643 E2.03601
G1 X197.679 Y112.162 E2.03632
G1 X197.475 Y112.655 E2.03662
G1 X197.196 Y113.110 E2.03692
G1 X196.849 Y113.516 E2.03723
G1 X196.443 Y113.862 E2.03753
G1 X195.988 Y114.141 E2.03784
G1 X195.495 Y114.346 E2.03814
G1 X194.976 Y114.470 E2.03845
G1 X194.455 Y114.511 E2.03874
G1 X170.227 Y114.511 E2.05257
G1 X169.097 Y112.906 F7800.000
G1 F1800
G1 X141.680 Y85.489 E2.07469
G1 X194.453 Y85.489 E2.10480
G1 X194.881 Y85.516 E2.10505
G1 X195.310 Y85.600 E2.10530
G1 X196.130 Y85.874 E2.10579
G1 X169.150 Y112.853 E2.12756
G1 X167.767 Y114.236 F7800.000
G1 F1800
G1 X168.042 Y114.511 E2.12778
G1 X113.208 Y114.511 E2.15907
G1 X140.625 Y87.094 E2.18119
G1 X167.714 Y114.183 E2.20305
G1 E0.20305 F2400.00000
G92 E0
G1 X111.098 Y114.511 F7800.000
G1 E2.00000 F2400.00000
G1 F1800
G1 X56.263 Y114.511 E2.03129
G1 X83.681 Y87.094 E2.05341
G1 X111.045 Y114.458 E2.07549
G1 X112.153 Y112.906 F7800.000
G1 F1800
G1 X84.735 Y85.489 E2.09761
G1 X139.570 Y85.489 E2.12890
G1 X112.206 Y112.853 E2.15098
G1 E0.15098 F2400.00000
G92 E0
G1 X82.626 Y85.489 F7800.000
G1 E2.00000 F2400.00000
G1 F1800
G1 X55.208 Y112.906 E2.02212
G1 X27.791 Y85.489 E2.04425
G1 X82.551 Y85.489 E2.07549
G1 E0.07549 F2400.00000
G92 E0
G1 X53.841 Y114.199 F7800.000
G1 E2.00000 F2400.00000
G1 F1800
G1 X54.154 Y114.511 E2.00025
G1 X5.546 Y114.511 E2.02799
G1 X5.075 Y114.478 E2.02826
G1 X4.604 Y114.376 E2.02853
G1 X3.801 Y114.079 E2.02902
G1 X26.791 Y87.148 E2.04922
G1 X53.788 Y114.146 E2.07101
G1 E0.07101 F2400.00000
G92 E0
G1 X23.409 Y88.213 F7800.000
G1 E2.00000 F2400.00000
G1 F1800
G1 X2.477 Y112.734 E2.01840
G1 X2.204 Y111.687 E2.01901
G1 X2.156 Y111.123 E2.01934
G1 X2.156 Y88.878 E2.03203
G1 X2.197 Y88.357 E2.03233
G1 X2.321 Y87.838 E2.03263
G1 X2.525 Y87.345 E2.03294
G1 X2.804 Y86.890 E2.03324
G1 X3.151 Y86.484 E2.03354
G1 X3.557 Y86.138 E2.03385
G1 X4.012 Y85.859 E2.03415
G1 X4.505 Y85.654 E2.03446
G1 X5.024 Y85.530 E2.03476
G1 X5.545 Y85.489 E2.03506
G1 X25.735 Y85.489 E2.04658
G1 X23.458 Y88.156 E2.04858
G1 E0.04858 F2400.00000
G92 E0
G1 X153.588 Y116.392 F7800.000
G1 E2.00000 F2400.00000
G1 F1800
G1 X5.566 Y116.392 E2.08446
G1 X4.730 Y116.326 E2.08494
G1 X3.924 Y116.132 E2.08541
G1 X3.159 Y115.815 E2.08588
G1 X2.452 Y115.382 E2.08635
G1 X1.822 Y114.844 E2.08683
G1 X1.284 Y114.214 E2.08730
G1 X0.851 Y113.508 E2.08777
G1 X0.534 Y112.743 E2.08824
G1 X0.341 Y111.937 E2.08872
G1 X0.275 Y111.100 E2.08920
G1 X0.275 Y88.900 E2.10186
G1 X0.341 Y88.063 E2.10234
G1 X0.534 Y87.257 E2.10281
G1 X0.851 Y86.492 E2.10329
G1 X1.284 Y85.786 E2.10376
G1 X1.822 Y85.156 E2.10423
G1 X2.452 Y84.618 E2.10470
G1 X3.159 Y84.185 E2.10518
G1 X3.924 Y83.868 E2.10565
G1 X4.730 Y83.674 E2.10612
G1 X5.566 Y83.608 E2.10660
G1 X194.434 Y83.608 E2.21436
G1 X195.270 Y83.674 E2.21484
G1 X196.076 Y83.868 E2.21531
G1 X196.841 Y84.185 E2.21579
G1 X197.548 Y84.618 E2.21626
G1 X198.178 Y85.156 E2.21673
G1 X198.716 Y85.786 E2.21721
G1 X199.149 Y86.492 E2.21768
G1 X199.466 Y87.257 E2.21815
G1 X199.659 Y88.063 E2.21862
G1 X199.725 Y88.900 E2.21910
G1 X199.725 Y111.100 E2.23177
G1 X199.659 Y111.937 E2.23225
G1 X199.466 Y112.743 E2.23272
G1 X199.149 Y113.508 E2.23319
G1 X198.716 Y114.214 E2.23367
G1 X198.178 Y114.844 E2.23414
G1 X197.548 Y115.382 E2.23461
G1 X196.841 Y115.815 E2.23508
G1 X196.076 Y116.132 E2.23556
G1 X195.270 Y116.326 E2.23603
G1 X194.434 Y116.392 E2.23651
G1 X153.663 Y116.392 E2.25977
G1 Z24.225 F7800.000
G1 E0.25977 F2400.00000
G92 E0
G1 X170.152 Y114.511 F7800.000
G1 E2.00000 F2400.00000
G1 F1800
G1 X197.460 Y87.203 E2.02203
G1 X197.733 Y88.023 E2.02253
G1 X197.817 Y88.453 E2.02278
G1 X197.844 Y88.880 E2.02302
G1 X197.844 Y111.122 E2.03571
G1 X197.803 Y111.643 E2.03601
G1 X197.679 Y112.162 E2.03632
G1 X197.475 Y112.655 E2.03662
G1 X197.196 Y113.110 E2.03692
G1 X196.849 Y113.516 E2.03723
G1 X196.443 Y113.862 E2.03753
G1 X195.988 Y114.141 E2.03784
G1 X195.495 Y114.346 E2.03814
G1 X194.976 Y114.470 E2.03845
G1 X194.455 Y114.511 E2.03874
G1 X170.227 Y114.511 E2.05257
G1 X169.097 Y112.906 F7800.000
G1 F1800
G1 X141.680 Y85.489 E2.07469
G1 X194.453 Y85.489 E2.10480
G1 X194.881 Y85.516 E2.10505
G1 X195.310 Y85.600 E2.10530
G1 X196.130 Y85.874 E2.10579
G1 X169.150 Y112.853 E2.12756
G1 X167.767 Y114.236 F7800.000
G1 F1800
G1 X168.042 Y114.511 E2.12778
G1 X113.208 Y114.511 E2.15907
G1 X140.625 Y87.094 E2.18119
G1 X167.714 Y114.183 E2.20305
G1 E0.20305 F2400.00000
G92 E0
G1 X139.295 Y85.764 F7800.000
G1 E2.00000 F2400.00000
G1 F1800
G1 X112.153 Y112.906 E2.02190
G1 X84.735 Y85.489 E2.04402
G1 X139.570 Y85.489 E2.07531
G1 X139.348 Y85.711 E2.07549
G1 E0.07549 F2400.00000
G92 E0
G1 X110.823 Y114.236 F7800.000
G1 E2.00000 F2400.00000
G1 F1800
G1 X111.098 Y114.511 E2.00022
G1 X56.263 Y114.511 E2.03151
G1 X83.681 Y87.094 E2.05363
G1 X110.770 Y114.183 E2.07549
G1 E0.07549 F2400.00000
G92 E0
G1 X82.351 Y85.764 F7800.000
G1 E2.00000 F2400.00000
G1 F1800
G1 X55.208 Y112.906 E2.02190
G1 X27.791 Y85.489 E2.04402
G1 X82.626 Y85.489 E2.07531
G1 X82.404 Y85.711 E2.07549
G1 E0.07549 F2400.00000
G92 E0
G1 X53.879 Y114.236 F7800.000
G1 E2.00000 F2400.00000
G1 F1800
G1 X54.154 Y114.511 E2.00022
G1 X5.546 Y114.511 E2.02796
G1 X5.075 Y114.478 E2.02823
G1 X4.604 Y114.376 E2.02850
G1 X3.801 Y114.079 E2.02899
G1 X26.791 Y87.148 E2.04919
G1 X53.826 Y114.183 E2.07101
G1 E0.07101 F2400.00000
G92 E0
G1 X23.407 Y88.216 F7800.000
G1 E2.00000 F2400.00000
G1 F1800
G1 X2.477 Y112.734 E2.01839
G1 X2.204 Y111.687 E2.01901
G1 X2.156 Y111.123 E2.01933
G1 X2.156 Y88.878 E2.03203
G1 X2.197 Y88.357 E2.03232
G1 X2.321 Y87.838 E2.03263
G1 X2.525 Y87.345 E2.03293
G1 X2.804 Y86.890 E2.03324
G1 X3.151 Y86.484 E2.03354
G1 X3.557 Y86.138 E2.03385
G1 X4.012 Y85.859 E2.03415
G1 X4.505 Y85.654 E2.03446
G1 X5.024 Y85.530 E2.03476
G1 X5.545 Y85.489 E2.03506
G1 X25.735 Y85.489 E2.04658
G1 X23.455 Y88.159 E2.04858
G1 E0.04858 F2400.00000
G92 E0
G1 X43.451 Y83.608 F7800.000
G1 E2.00000 F2400.00000
G1 F1800
G1 X194.434 Y83.608 E2.08615
G1 X195.270 Y83.674 E2.08662
G1 X196.076 Y83.868 E2.08710
G1 X196.841 Y84.185 E2.08757
G1 X197.548 Y84.618 E2.08804
G1 X198.178 Y85.156 E2.08852
G1 X198.716 Y85.786 E2.08899
G1 X199.149 Y86.492 E2.08946
G1 X199.466 Y87.257 E2.08993
G1 X199.659 Y88.063 E2.09041
G1 X199.725 Y88.900 E2.09089
G1 X199.725 Y111.100 E2.10355
G1 X199.659 Y111.937 E2.10403
G1 X199.466 Y112.743 E2.10450
G1 X199.149 Y113.508 E2.10498
G1 X198.716 Y114.214 E2.10545
G1 X198.178 Y114.844 E2.10592
G1 X197.548 Y115.382 E2.10639
G1 X196.841 Y115.815 E2.10687
G1 X196.076 Y116.132 E2.10734
G1 X195.270 Y116.326 E2.10781
G1 X194.434 Y116.392 E2.10829
G1 X5.566 Y116.392 E2.21605
G1 X4.730 Y116.326 E2.21653
G1 X3.924 Y116.132 E2.21700
G1 X3.159 Y115.815 E2.21748
G1 X2.452 Y115.382 E2.21795
G1 X1.822 Y114.844 E2.21842
G1 X1.284 Y114.214 E2.21889
G1 X0.851 Y113.508 E2.21937
G1 X0.534 Y112.743 E2.21984
G1 X0.341 Y111.937 E2.22031
G1 X0.275 Y111.100 E2.22079
G1 X0.275 Y88.900 E2.23346
G1 X0.341 Y88.063 E2.23394
G1 X0.534 Y87.257 E2.23441
G1 X0.851 Y86.492 E2.23488
G1 X1.284 Y85.786 E2.23536
G1 X1.822 Y85.156 E2.23583
G1 X2.452 Y84.618 E2.23630
G1 X3.159 Y84.185 E2.23677
G1 X3.924 Y83.868 E2.23725
G1 X4.730 Y83.674 E2.23772
G1 X5.566 Y83.608 E2.23820
G1 X43.376 Y83.608 E2.25977
G1 Z24.725 F7800.000
G1 E0.25977 F2400.00000
G92 E0
G1 X170.152 Y114.511 F7800.000
G1 E2.00000 F2400.00000
G1 F1800
G1 X197.460 Y87.203 E2.02203
G1 X197.733 Y88.023 E2.02253
G1 X197.817 Y88.453 E2.02278
G1 X197.844 Y88.880 E2.02302
G1 X197.844 Y111.122 E2.03571
G1 X197.803 Y111.643 E2.03601
G1 X197.679 Y112.162 E2.03632
G1 X197.475 Y112.655 E2.03662
G1 X197.196 Y113.110 E2.03692
